; generated by Slic3r 1.3.0-dev on 2020-10-23 at 12:51:38

; external perimeters extrusion width = 0.45mm (2.04mm^3/s)
; perimeters extrusion width = 0.45mm (4.07mm^3/s)
; infill extrusion width = 0.45mm (4.07mm^3/s)
; solid infill extrusion width = 0.45mm (1.53mm^3/s)
; top infill extrusion width = 0.40mm (0.90mm^3/s)

M109 S200 ;Heat nozzle to 200C
M190 S70 ;Heat nozzle to 70C
G28 ;Home all axes
M117 ; Purge extruder
G92 E0 ;Reset extruder
G1 Z2.0 F3000 ;Move Z Axis up
G1 X0.1 Y20 Z0.3 F5000.0 ; Move to start position
G1 X0.1 Y200.0 Z0.3 F1500.0 E15 ; Draw the first line
G1 X0.4 Y200.0 Z0.3 F5000.0 ; Move to side a little
G1 X0.4 Y20 Z0.3 F1500.0 E30 ; Draw the second line
G92 E0 ;Reset extruder
G1 Z1.0 F3000 ;Move z up little to prevent scratching of surface
; Filament gcode

G21 ; set units to millimeters
G90 ; use absolute coordinates
M83 ; use relative distances for extrusion
G1 Z0.200 F7800.000 ; move to next layer (0)
G1 E-5.00000 F2400.00000 ; retract extruder 0
G1 X103.087 Y96.972 Z0.200 F7800.000 ; move to first perimeter point
G1 E5.00000 F2400.00000 ; unretract extruder 0
G1 F2400
G1 X112.129 Y96.970 Z0.200 E0.28350 ; perimeter
G1 X113.612 Y96.970 Z0.200 E0.04651 ; perimeter
G1 X116.913 Y96.972 Z0.200 E0.10349 ; perimeter
G1 X116.913 Y123.028 Z0.200 E0.81699 ; perimeter
G1 X107.102 Y123.028 Z0.200 E0.30761 ; perimeter
G1 X105.741 Y123.028 Z0.200 E0.04267 ; perimeter
G1 X103.087 Y123.028 Z0.200 E0.08323 ; perimeter
G1 X103.087 Y97.032 Z0.200 E0.81510 ; perimeter
G1 X102.710 Y96.595 Z0.200 F7800.000 ; move to first perimeter point
G1 F2400
G1 X112.129 Y96.593 Z0.200 E0.29532 ; perimeter
G1 X113.612 Y96.593 Z0.200 E0.04652 ; perimeter
G1 X117.290 Y96.595 Z0.200 E0.11531 ; perimeter
G1 X117.290 Y123.405 Z0.200 E0.84063 ; perimeter
G1 X107.102 Y123.405 Z0.200 E0.31943 ; perimeter
G1 X105.741 Y123.405 Z0.200 E0.04267 ; perimeter
G1 X102.710 Y123.405 Z0.200 E0.09505 ; perimeter
G1 X102.710 Y96.655 Z0.200 E0.83875 ; perimeter
G1 X103.064 Y96.782 F7800.000 ; move inwards before travel
G1 X103.398 Y97.415 Z0.200 F7800.000 ; move to first infill point
G1 F2400
G1 X103.397 Y97.415 Z0.200 E0.00001 ; infill
G1 X103.397 Y97.415 Z0.200 E0.00000 ; infill
G1 X103.397 Y97.416 Z0.200 E0.00001 ; infill
G1 X103.531 Y97.282 Z0.200 E0.00600 ; infill
G1 X104.072 Y97.282 Z0.200 E0.01718 ; infill
G1 X103.397 Y97.956 Z0.200 E0.03029 ; infill
G1 X103.397 Y98.496 Z0.200 E0.01718 ; infill
G1 X104.612 Y97.282 Z0.200 E0.05459 ; infill
G1 X105.153 Y97.282 Z0.200 E0.01718 ; infill
G1 X103.397 Y99.037 Z0.200 E0.07888 ; infill
G1 X103.397 Y99.577 Z0.200 E0.01718 ; infill
G1 X105.693 Y97.282 Z0.200 E0.10318 ; infill
G1 X106.234 Y97.281 Z0.200 E0.01718 ; infill
G1 X103.397 Y100.118 Z0.200 E0.12747 ; infill
G1 X103.397 Y100.658 Z0.200 E0.01718 ; infill
G1 X106.775 Y97.281 Z0.200 E0.15177 ; infill
G1 X107.315 Y97.281 Z0.200 E0.01718 ; infill
G1 X103.397 Y101.199 Z0.200 E0.17606 ; infill
G1 X103.397 Y101.739 Z0.200 E0.01718 ; infill
G1 X107.856 Y97.281 Z0.200 E0.20036 ; infill
G1 X108.396 Y97.281 Z0.200 E0.01718 ; infill
G1 X103.397 Y102.280 Z0.200 E0.22465 ; infill
G1 X103.397 Y102.820 Z0.200 E0.01718 ; infill
G1 X108.937 Y97.281 Z0.200 E0.24894 ; infill
G1 X109.477 Y97.281 Z0.200 E0.01718 ; infill
G1 X103.397 Y103.361 Z0.200 E0.27324 ; infill
G1 X103.397 Y103.901 Z0.200 E0.01718 ; infill
G1 X110.018 Y97.281 Z0.200 E0.29753 ; infill
G1 X110.559 Y97.281 Z0.200 E0.01718 ; infill
G1 X103.397 Y104.442 Z0.200 E0.32183 ; infill
G1 X103.397 Y104.982 Z0.200 E0.01718 ; infill
G1 X111.099 Y97.280 Z0.200 E0.34612 ; infill
G1 X111.640 Y97.280 Z0.200 E0.01718 ; infill
G1 X103.397 Y105.523 Z0.200 E0.37042 ; infill
G1 X103.397 Y106.063 Z0.200 E0.01718 ; infill
G1 X112.180 Y97.280 Z0.200 E0.39471 ; infill
G1 X112.196 Y97.280 Z0.200 E0.00048 ; infill
G1 X112.196 Y97.280 Z0.200 E0.00000 ; infill
G1 X112.721 Y97.280 Z0.200 E0.01669 ; infill
G1 X103.397 Y106.604 Z0.200 E0.41900 ; infill
G1 X103.397 Y107.144 Z0.200 E0.01718 ; infill
G1 X113.261 Y97.280 Z0.200 E0.44329 ; infill
G1 X113.679 Y97.280 Z0.200 E0.01327 ; infill
G1 X113.679 Y97.280 Z0.200 E0.00000 ; infill
G1 X113.802 Y97.280 Z0.200 E0.00390 ; infill
G1 X103.397 Y107.685 Z0.200 E0.46758 ; infill
G1 X103.397 Y108.225 Z0.200 E0.01718 ; infill
G1 X114.342 Y97.281 Z0.200 E0.49185 ; infill
G1 X114.882 Y97.281 Z0.200 E0.01717 ; infill
G1 X103.397 Y108.766 Z0.200 E0.51613 ; infill
G1 X103.397 Y109.306 Z0.200 E0.01718 ; infill
G1 X115.422 Y97.281 Z0.200 E0.54041 ; infill
G1 X115.963 Y97.281 Z0.200 E0.01717 ; infill
G1 X103.397 Y109.846 Z0.200 E0.56469 ; infill
G1 X103.397 Y110.387 Z0.200 E0.01718 ; infill
G1 X116.503 Y97.282 Z0.200 E0.58896 ; infill
G1 X116.603 Y97.282 Z0.200 E0.00317 ; infill
G1 X116.603 Y97.282 Z0.200 E0.00000 ; infill
G1 X116.603 Y97.722 Z0.200 E0.01400 ; infill
G1 X103.397 Y110.927 Z0.200 E0.59345 ; infill
G1 X103.397 Y111.468 Z0.200 E0.01718 ; infill
G1 X116.603 Y98.263 Z0.200 E0.59345 ; infill
G1 X116.603 Y98.803 Z0.200 E0.01718 ; infill
G1 X103.397 Y112.008 Z0.200 E0.59345 ; infill
G1 X103.397 Y112.549 Z0.200 E0.01718 ; infill
G1 X116.603 Y99.344 Z0.200 E0.59345 ; infill
G1 X116.603 Y99.884 Z0.200 E0.01718 ; infill
G1 X103.397 Y113.089 Z0.200 E0.59345 ; infill
G1 X103.397 Y113.630 Z0.200 E0.01718 ; infill
G1 X116.603 Y100.425 Z0.200 E0.59345 ; infill
G1 X116.603 Y100.965 Z0.200 E0.01718 ; infill
G1 X103.397 Y114.170 Z0.200 E0.59345 ; infill
G1 X103.397 Y114.711 Z0.200 E0.01718 ; infill
G1 X116.603 Y101.506 Z0.200 E0.59345 ; infill
G1 X116.603 Y102.046 Z0.200 E0.01718 ; infill
G1 X103.397 Y115.251 Z0.200 E0.59345 ; infill
G1 X103.397 Y115.792 Z0.200 E0.01718 ; infill
G1 X116.603 Y102.587 Z0.200 E0.59345 ; infill
G1 X116.603 Y103.127 Z0.200 E0.01718 ; infill
G1 X103.397 Y116.332 Z0.200 E0.59345 ; infill
G1 X103.397 Y116.873 Z0.200 E0.01718 ; infill
G1 X116.603 Y103.668 Z0.200 E0.59345 ; infill
G1 X116.603 Y104.208 Z0.200 E0.01718 ; infill
G1 X103.397 Y117.413 Z0.200 E0.59345 ; infill
G1 X103.397 Y117.954 Z0.200 E0.01718 ; infill
G1 X116.603 Y104.749 Z0.200 E0.59345 ; infill
G1 X116.603 Y105.289 Z0.200 E0.01718 ; infill
G1 X103.397 Y118.494 Z0.200 E0.59345 ; infill
G1 X103.397 Y119.035 Z0.200 E0.01718 ; infill
G1 X116.603 Y105.830 Z0.200 E0.59345 ; infill
G1 X116.603 Y106.370 Z0.200 E0.01718 ; infill
G1 X103.397 Y119.575 Z0.200 E0.59345 ; infill
G1 X103.397 Y120.116 Z0.200 E0.01718 ; infill
G1 X116.603 Y106.910 Z0.200 E0.59345 ; infill
G1 X116.603 Y107.451 Z0.200 E0.01718 ; infill
G1 X103.397 Y120.656 Z0.200 E0.59345 ; infill
G1 X103.397 Y121.197 Z0.200 E0.01718 ; infill
G1 X116.603 Y107.991 Z0.200 E0.59345 ; infill
G1 X116.603 Y108.532 Z0.200 E0.01718 ; infill
G1 X103.397 Y121.737 Z0.200 E0.59345 ; infill
G1 X103.397 Y122.277 Z0.200 E0.01718 ; infill
G1 X116.603 Y109.072 Z0.200 E0.59345 ; infill
G1 X116.603 Y109.613 Z0.200 E0.01718 ; infill
G1 X103.498 Y122.718 Z0.200 E0.58895 ; infill
G1 X104.038 Y122.718 Z0.200 E0.01718 ; infill
G1 X116.603 Y110.153 Z0.200 E0.56466 ; infill
G1 X116.603 Y110.694 Z0.200 E0.01718 ; infill
G1 X104.579 Y122.718 Z0.200 E0.54037 ; infill
G1 X105.119 Y122.718 Z0.200 E0.01718 ; infill
G1 X116.603 Y111.234 Z0.200 E0.51608 ; infill
G1 X116.603 Y111.775 Z0.200 E0.01718 ; infill
G1 X105.660 Y122.718 Z0.200 E0.49179 ; infill
G1 X105.675 Y122.718 Z0.200 E0.00048 ; infill
G1 X105.675 Y122.718 Z0.200 E0.00000 ; infill
G1 X106.200 Y122.718 Z0.200 E0.01669 ; infill
G1 X116.603 Y112.315 Z0.200 E0.46750 ; infill
G1 X116.603 Y112.856 Z0.200 E0.01718 ; infill
G1 X106.740 Y122.718 Z0.200 E0.44321 ; infill
G1 X107.036 Y122.718 Z0.200 E0.00938 ; infill
G1 X107.036 Y122.718 Z0.200 E0.00000 ; infill
G1 X107.281 Y122.718 Z0.200 E0.00780 ; infill
G1 X116.603 Y113.396 Z0.200 E0.41892 ; infill
G1 X116.603 Y113.937 Z0.200 E0.01718 ; infill
G1 X107.821 Y122.718 Z0.200 E0.39463 ; infill
G1 X108.362 Y122.718 Z0.200 E0.01718 ; infill
G1 X116.603 Y114.477 Z0.200 E0.37034 ; infill
G1 X116.603 Y115.018 Z0.200 E0.01718 ; infill
G1 X108.902 Y122.718 Z0.200 E0.34605 ; infill
G1 X109.443 Y122.718 Z0.200 E0.01718 ; infill
G1 X116.603 Y115.558 Z0.200 E0.32176 ; infill
G1 X116.603 Y116.099 Z0.200 E0.01718 ; infill
G1 X109.983 Y122.718 Z0.200 E0.29747 ; infill
G1 X110.524 Y122.718 Z0.200 E0.01718 ; infill
G1 X116.603 Y116.639 Z0.200 E0.27318 ; infill
G1 X116.603 Y117.180 Z0.200 E0.01718 ; infill
G1 X111.064 Y122.718 Z0.200 E0.24889 ; infill
G1 X111.605 Y122.718 Z0.200 E0.01718 ; infill
G1 X116.603 Y117.720 Z0.200 E0.22460 ; infill
G1 X116.603 Y118.261 Z0.200 E0.01718 ; infill
G1 X112.145 Y122.718 Z0.200 E0.20031 ; infill
G1 X112.686 Y122.718 Z0.200 E0.01718 ; infill
G1 X116.603 Y118.801 Z0.200 E0.17602 ; infill
G1 X116.603 Y119.341 Z0.200 E0.01718 ; infill
G1 X113.226 Y122.718 Z0.200 E0.15173 ; infill
G1 X113.767 Y122.718 Z0.200 E0.01718 ; infill
G1 X116.603 Y119.882 Z0.200 E0.12745 ; infill
G1 X116.603 Y120.422 Z0.200 E0.01718 ; infill
G1 X114.307 Y122.718 Z0.200 E0.10316 ; infill
G1 X114.848 Y122.718 Z0.200 E0.01718 ; infill
G1 X116.603 Y120.963 Z0.200 E0.07887 ; infill
G1 X116.603 Y121.503 Z0.200 E0.01718 ; infill
G1 X115.388 Y122.718 Z0.200 E0.05458 ; infill
G1 X115.929 Y122.718 Z0.200 E0.01718 ; infill
G1 X116.603 Y122.044 Z0.200 E0.03029 ; infill
G1 X116.603 Y122.584 Z0.200 E0.01718 ; infill
G1 X116.469 Y122.718 Z0.200 E0.00600 ; infill
M106 S178.5 ; enable fan
G1 Z0.320 F7800.000 ; move to next layer (1)
G1 X103.149 Y97.379 Z0.320 F7800.000 ; move to first perimeter point
G1 F4800
G1 X107.685 Y97.378 Z0.320 E0.09600 ; perimeter
G1 X113.186 Y97.379 Z0.320 E0.11643 ; perimeter
G1 X115.407 Y97.378 Z0.320 E0.04700 ; perimeter
G1 X116.851 Y97.379 Z0.320 E0.03057 ; perimeter
G1 X116.851 Y122.621 Z0.320 E0.53426 ; perimeter
G1 X113.881 Y122.621 Z0.320 E0.06286 ; perimeter
G1 X113.186 Y122.621 Z0.320 E0.01471 ; perimeter
G1 X111.465 Y122.621 Z0.320 E0.03643 ; perimeter
G1 X103.149 Y122.621 Z0.320 E0.17600 ; perimeter
G1 X103.149 Y97.439 Z0.320 E0.53299 ; perimeter
G1 X102.725 Y96.955 Z0.320 F7800.000 ; move to first perimeter point
G1 F2400
G1 X107.685 Y96.954 Z0.320 E0.10498 ; perimeter
G1 X113.186 Y96.955 Z0.320 E0.11643 ; perimeter
G1 X115.407 Y96.954 Z0.320 E0.04701 ; perimeter
G1 X117.275 Y96.955 Z0.320 E0.03955 ; perimeter
G1 X117.275 Y123.045 Z0.320 E0.55222 ; perimeter
G1 X113.881 Y123.045 Z0.320 E0.07184 ; perimeter
G1 X113.186 Y123.045 Z0.320 E0.01471 ; perimeter
G1 X111.465 Y123.045 Z0.320 E0.03643 ; perimeter
G1 X102.725 Y123.045 Z0.320 E0.18498 ; perimeter
G1 X102.725 Y97.015 Z0.320 E0.55095 ; perimeter
G1 X103.091 Y97.117 F7800.000 ; move inwards before travel
G1 X116.502 Y97.878 Z0.320 F7800.000 ; move to first infill point
G1 F1800
G1 X116.351 Y97.728 Z0.320 E0.00450 ; infill
G1 X115.750 Y97.728 Z0.320 E0.01274 ; infill
G1 X116.502 Y98.479 Z0.320 E0.02251 ; infill
G1 X116.502 Y99.080 Z0.320 E0.01273 ; infill
G1 X115.149 Y97.728 Z0.320 E0.04052 ; infill
G1 X114.549 Y97.728 Z0.320 E0.01272 ; infill
G1 X116.502 Y99.680 Z0.320 E0.05852 ; infill
G1 X116.502 Y100.281 Z0.320 E0.01273 ; infill
G1 X113.949 Y97.728 Z0.320 E0.07651 ; infill
G1 X113.348 Y97.728 Z0.320 E0.01272 ; infill
G1 X116.502 Y100.882 Z0.320 E0.09451 ; infill
G1 X116.502 Y101.483 Z0.320 E0.01273 ; infill
G1 X112.747 Y97.729 Z0.320 E0.11251 ; infill
G1 X112.147 Y97.728 Z0.320 E0.01273 ; infill
G1 X116.502 Y102.083 Z0.320 E0.13052 ; infill
G1 X116.502 Y102.684 Z0.320 E0.01273 ; infill
G1 X111.546 Y97.728 Z0.320 E0.14853 ; infill
G1 X110.945 Y97.728 Z0.320 E0.01273 ; infill
G1 X116.502 Y103.285 Z0.320 E0.16654 ; infill
G1 X116.502 Y103.886 Z0.320 E0.01273 ; infill
G1 X110.344 Y97.728 Z0.320 E0.18455 ; infill
G1 X109.743 Y97.728 Z0.320 E0.01273 ; infill
G1 X116.502 Y104.486 Z0.320 E0.20256 ; infill
G1 X116.502 Y105.087 Z0.320 E0.01273 ; infill
G1 X109.142 Y97.728 Z0.320 E0.22057 ; infill
G1 X108.541 Y97.728 Z0.320 E0.01273 ; infill
G1 X116.502 Y105.688 Z0.320 E0.23858 ; infill
G1 X116.502 Y106.289 Z0.320 E0.01273 ; infill
G1 X107.940 Y97.727 Z0.320 E0.25659 ; infill
G1 X107.610 Y97.727 Z0.320 E0.00700 ; infill
G1 X107.610 Y97.727 Z0.320 E0.00000 ; infill
G1 X107.340 Y97.727 Z0.320 E0.00573 ; infill
G1 X116.502 Y106.889 Z0.320 E0.27459 ; infill
G1 X116.502 Y107.490 Z0.320 E0.01273 ; infill
G1 X106.739 Y97.728 Z0.320 E0.29259 ; infill
G1 X106.138 Y97.728 Z0.320 E0.01273 ; infill
G1 X116.502 Y108.091 Z0.320 E0.31059 ; infill
G1 X116.502 Y108.692 Z0.320 E0.01273 ; infill
G1 X105.538 Y97.728 Z0.320 E0.32860 ; infill
G1 X104.937 Y97.728 Z0.320 E0.01273 ; infill
G1 X116.502 Y109.292 Z0.320 E0.34660 ; infill
G1 X116.502 Y109.893 Z0.320 E0.01273 ; infill
G1 X104.337 Y97.728 Z0.320 E0.36460 ; infill
G1 X103.736 Y97.728 Z0.320 E0.01273 ; infill
G1 X116.502 Y110.494 Z0.320 E0.38260 ; infill
G1 X116.502 Y111.095 Z0.320 E0.01273 ; infill
G1 X103.498 Y98.091 Z0.320 E0.38972 ; infill
G1 X103.498 Y98.692 Z0.320 E0.01273 ; infill
G1 X116.502 Y111.695 Z0.320 E0.38972 ; infill
G1 X116.502 Y112.296 Z0.320 E0.01273 ; infill
G1 X103.498 Y99.293 Z0.320 E0.38972 ; infill
G1 X103.498 Y99.894 Z0.320 E0.01273 ; infill
G1 X116.502 Y112.897 Z0.320 E0.38972 ; infill
G1 X116.502 Y113.497 Z0.320 E0.01273 ; infill
G1 X103.498 Y100.494 Z0.320 E0.38972 ; infill
G1 X103.498 Y101.095 Z0.320 E0.01273 ; infill
G1 X116.502 Y114.098 Z0.320 E0.38972 ; infill
G1 X116.502 Y114.699 Z0.320 E0.01273 ; infill
G1 X103.498 Y101.696 Z0.320 E0.38972 ; infill
G1 X103.498 Y102.297 Z0.320 E0.01273 ; infill
G1 X116.502 Y115.300 Z0.320 E0.38972 ; infill
G1 X116.502 Y115.900 Z0.320 E0.01273 ; infill
G1 X103.498 Y102.897 Z0.320 E0.38972 ; infill
G1 X103.498 Y103.498 Z0.320 E0.01273 ; infill
G1 X116.502 Y116.501 Z0.320 E0.38972 ; infill
G1 X116.502 Y117.102 Z0.320 E0.01273 ; infill
G1 X103.498 Y104.099 Z0.320 E0.38972 ; infill
G1 X103.498 Y104.700 Z0.320 E0.01273 ; infill
G1 X116.502 Y117.703 Z0.320 E0.38972 ; infill
G1 X116.502 Y118.303 Z0.320 E0.01273 ; infill
G1 X103.498 Y105.300 Z0.320 E0.38972 ; infill
G1 X103.498 Y105.901 Z0.320 E0.01273 ; infill
G1 X116.502 Y118.904 Z0.320 E0.38972 ; infill
G1 X116.502 Y119.505 Z0.320 E0.01273 ; infill
G1 X103.498 Y106.502 Z0.320 E0.38972 ; infill
G1 X103.498 Y107.103 Z0.320 E0.01273 ; infill
G1 X116.502 Y120.106 Z0.320 E0.38972 ; infill
G1 X116.502 Y120.706 Z0.320 E0.01273 ; infill
G1 X103.498 Y107.703 Z0.320 E0.38972 ; infill
G1 X103.498 Y108.304 Z0.320 E0.01273 ; infill
G1 X116.502 Y121.307 Z0.320 E0.38972 ; infill
G1 X116.502 Y121.908 Z0.320 E0.01273 ; infill
G1 X103.498 Y108.905 Z0.320 E0.38972 ; infill
G1 X103.498 Y109.506 Z0.320 E0.01273 ; infill
G1 X116.264 Y122.272 Z0.320 E0.38261 ; infill
G1 X115.664 Y122.272 Z0.320 E0.01273 ; infill
G1 X103.498 Y110.106 Z0.320 E0.36461 ; infill
G1 X103.498 Y110.707 Z0.320 E0.01273 ; infill
G1 X115.063 Y122.272 Z0.320 E0.34660 ; infill
G1 X114.462 Y122.272 Z0.320 E0.01273 ; infill
G1 X103.498 Y111.308 Z0.320 E0.32860 ; infill
G1 X103.498 Y111.909 Z0.320 E0.01273 ; infill
G1 X113.861 Y122.272 Z0.320 E0.31059 ; infill
G1 X113.261 Y122.272 Z0.320 E0.01273 ; infill
G1 X113.261 Y122.272 Z0.320 E0.00000 ; infill
G1 X113.261 Y122.272 Z0.320 E0.00000 ; infill
G1 X103.498 Y112.509 Z0.320 E0.29259 ; infill
G1 X103.498 Y113.110 Z0.320 E0.01273 ; infill
G1 X112.660 Y122.272 Z0.320 E0.27458 ; infill
G1 X112.059 Y122.272 Z0.320 E0.01273 ; infill
G1 X103.498 Y113.711 Z0.320 E0.25658 ; infill
G1 X103.498 Y114.312 Z0.320 E0.01273 ; infill
G1 X111.458 Y122.272 Z0.320 E0.23857 ; infill
G1 X110.858 Y122.272 Z0.320 E0.01273 ; infill
G1 X103.498 Y114.912 Z0.320 E0.22057 ; infill
G1 X103.498 Y115.513 Z0.320 E0.01273 ; infill
G1 X110.257 Y122.272 Z0.320 E0.20256 ; infill
G1 X109.656 Y122.272 Z0.320 E0.01273 ; infill
G1 X103.498 Y116.114 Z0.320 E0.18456 ; infill
G1 X103.498 Y116.715 Z0.320 E0.01273 ; infill
G1 X109.055 Y122.272 Z0.320 E0.16655 ; infill
G1 X108.455 Y122.272 Z0.320 E0.01273 ; infill
G1 X103.498 Y117.315 Z0.320 E0.14854 ; infill
G1 X103.498 Y117.916 Z0.320 E0.01273 ; infill
G1 X107.854 Y122.272 Z0.320 E0.13054 ; infill
G1 X107.253 Y122.272 Z0.320 E0.01273 ; infill
G1 X103.498 Y118.517 Z0.320 E0.11253 ; infill
G1 X103.498 Y119.118 Z0.320 E0.01273 ; infill
