; generated by Slic3r 1.3.0-dev on 2020-10-12 at 13:45:43

; external perimeters extrusion width = 0.45mm (2.04mm^3/s)
; perimeters extrusion width = 0.45mm (4.07mm^3/s)
; infill extrusion width = 0.45mm (4.07mm^3/s)
; solid infill extrusion width = 0.45mm (1.53mm^3/s)
; top infill extrusion width = 0.40mm (0.90mm^3/s)

M109 S200 ;Heat nozzle to 200C
M190 S70 ;Heat nozzle to 70C
G28 ;Home all axes
M117 ; Purge extruder
G92 E0 ;Reset extruder
G1 Z2.0 F3000 ;Move Z Axis up
G1 X0.1 Y20 Z0.3 F5000.0 ; Move to start position
G1 X0.1 Y200.0 Z0.3 F1500.0 E15 ; Draw the first line
G1 X0.4 Y200.0 Z0.3 F5000.0 ; Move to side a little
G1 X0.4 Y20 Z0.3 F1500.0 E30 ; Draw the second line
G92 E0 ;Reset extruder
G1 Z1.0 F3000 ;Move z up little to prevent scratching of surface
; Filament gcode

G21 ; set units to millimeters
G90 ; use absolute coordinates
M83 ; use relative distances for extrusion
G1 Z0.200 F7800.000 ; move to next layer (0)
G1 E-5.00000 F2400.00000 ; retract extruder 0
G1 X103.087 Y95.587 Z0.200 F7800.000 ; move to first perimeter point
G1 E5.00000 F2400.00000 ; unretract extruder 0
G1 F2400
G1 X116.913 Y95.587 Z0.200 E0.43350 ; perimeter
G1 X116.913 Y124.413 Z0.200 E0.90381 ; perimeter
G1 X103.087 Y124.413 Z0.200 E0.43350 ; perimeter
G1 X103.087 Y95.647 Z0.200 E0.90193 ; perimeter
G1 X102.710 Y95.210 Z0.200 F7800.000 ; move to first perimeter point
G1 F2400
G1 X117.290 Y95.210 Z0.200 E0.45715 ; perimeter
G1 X117.290 Y124.790 Z0.200 E0.92746 ; perimeter
G1 X102.710 Y124.790 Z0.200 E0.45715 ; perimeter
G1 X102.710 Y95.270 Z0.200 E0.92558 ; perimeter
G1 X103.083 Y95.355 F7800.000 ; move inwards before travel
G1 X103.398 Y96.031 Z0.200 F7800.000 ; move to first infill point
G1 F2400
G1 X103.397 Y96.031 Z0.200 E0.00001 ; infill
G1 X103.397 Y96.031 Z0.200 E0.00000 ; infill
G1 X103.397 Y96.031 Z0.200 E0.00001 ; infill
G1 X103.531 Y95.897 Z0.200 E0.00593 ; infill
G1 X104.065 Y95.897 Z0.200 E0.01679 ; infill
G1 X103.397 Y96.565 Z0.200 E0.02967 ; infill
G1 X103.397 Y97.100 Z0.200 E0.01679 ; infill
G1 X104.600 Y95.897 Z0.200 E0.05341 ; infill
G1 X105.134 Y95.897 Z0.200 E0.01679 ; infill
G1 X103.397 Y97.634 Z0.200 E0.07715 ; infill
G1 X103.397 Y98.168 Z0.200 E0.01679 ; infill
G1 X105.668 Y95.897 Z0.200 E0.10089 ; infill
G1 X106.203 Y95.897 Z0.200 E0.01679 ; infill
G1 X103.397 Y98.703 Z0.200 E0.12463 ; infill
G1 X103.397 Y99.237 Z0.200 E0.01679 ; infill
G1 X106.737 Y95.897 Z0.200 E0.14837 ; infill
G1 X107.271 Y95.897 Z0.200 E0.01679 ; infill
G1 X103.397 Y99.771 Z0.200 E0.17211 ; infill
G1 X103.397 Y100.306 Z0.200 E0.01679 ; infill
G1 X107.806 Y95.897 Z0.200 E0.19585 ; infill
G1 X108.340 Y95.897 Z0.200 E0.01679 ; infill
G1 X103.397 Y100.840 Z0.200 E0.21959 ; infill
G1 X103.397 Y101.374 Z0.200 E0.01679 ; infill
G1 X108.874 Y95.897 Z0.200 E0.24333 ; infill
G1 X109.409 Y95.897 Z0.200 E0.01679 ; infill
G1 X103.397 Y101.909 Z0.200 E0.26707 ; infill
G1 X103.397 Y102.443 Z0.200 E0.01679 ; infill
G1 X109.943 Y95.897 Z0.200 E0.29081 ; infill
G1 X110.477 Y95.897 Z0.200 E0.01679 ; infill
G1 X103.397 Y102.977 Z0.200 E0.31455 ; infill
G1 X103.397 Y103.512 Z0.200 E0.01679 ; infill
G1 X111.012 Y95.897 Z0.200 E0.33829 ; infill
G1 X111.546 Y95.897 Z0.200 E0.01679 ; infill
G1 X103.397 Y104.046 Z0.200 E0.36203 ; infill
G1 X103.397 Y104.580 Z0.200 E0.01679 ; infill
G1 X112.080 Y95.897 Z0.200 E0.38577 ; infill
G1 X112.615 Y95.897 Z0.200 E0.01679 ; infill
G1 X103.397 Y105.115 Z0.200 E0.40951 ; infill
G1 X103.397 Y105.649 Z0.200 E0.01679 ; infill
G1 X113.149 Y95.897 Z0.200 E0.43325 ; infill
G1 X113.683 Y95.897 Z0.200 E0.01679 ; infill
G1 X103.397 Y106.183 Z0.200 E0.45699 ; infill
G1 X103.397 Y106.718 Z0.200 E0.01679 ; infill
G1 X114.218 Y95.897 Z0.200 E0.48073 ; infill
G1 X114.752 Y95.897 Z0.200 E0.01679 ; infill
G1 X103.397 Y107.252 Z0.200 E0.50447 ; infill
G1 X103.397 Y107.786 Z0.200 E0.01679 ; infill
G1 X115.286 Y95.897 Z0.200 E0.52821 ; infill
G1 X115.821 Y95.897 Z0.200 E0.01679 ; infill
G1 X103.397 Y108.320 Z0.200 E0.55195 ; infill
G1 X103.397 Y108.855 Z0.200 E0.01679 ; infill
G1 X116.355 Y95.897 Z0.200 E0.57569 ; infill
G1 X116.603 Y95.897 Z0.200 E0.00778 ; infill
G1 X116.603 Y95.897 Z0.200 E0.00000 ; infill
G1 X116.603 Y96.184 Z0.200 E0.00900 ; infill
G1 X103.397 Y109.389 Z0.200 E0.58669 ; infill
G1 X103.397 Y109.923 Z0.200 E0.01679 ; infill
G1 X116.603 Y96.718 Z0.200 E0.58669 ; infill
G1 X116.603 Y97.253 Z0.200 E0.01679 ; infill
G1 X103.397 Y110.458 Z0.200 E0.58669 ; infill
G1 X103.397 Y110.992 Z0.200 E0.01679 ; infill
G1 X116.603 Y97.787 Z0.200 E0.58669 ; infill
G1 X116.603 Y98.321 Z0.200 E0.01679 ; infill
G1 X103.397 Y111.526 Z0.200 E0.58669 ; infill
G1 X103.397 Y112.061 Z0.200 E0.01679 ; infill
G1 X116.603 Y98.856 Z0.200 E0.58669 ; infill
G1 X116.603 Y99.390 Z0.200 E0.01679 ; infill
G1 X103.397 Y112.595 Z0.200 E0.58669 ; infill
G1 X103.397 Y113.129 Z0.200 E0.01679 ; infill
G1 X116.603 Y99.924 Z0.200 E0.58669 ; infill
G1 X116.603 Y100.459 Z0.200 E0.01679 ; infill
G1 X103.397 Y113.664 Z0.200 E0.58669 ; infill
G1 X103.397 Y114.198 Z0.200 E0.01679 ; infill
G1 X116.603 Y100.993 Z0.200 E0.58669 ; infill
G1 X116.603 Y101.527 Z0.200 E0.01679 ; infill
G1 X103.397 Y114.732 Z0.200 E0.58669 ; infill
G1 X103.397 Y115.267 Z0.200 E0.01679 ; infill
G1 X116.603 Y102.062 Z0.200 E0.58669 ; infill
G1 X116.603 Y102.596 Z0.200 E0.01679 ; infill
G1 X103.397 Y115.801 Z0.200 E0.58669 ; infill
G1 X103.397 Y116.335 Z0.200 E0.01679 ; infill
G1 X116.603 Y103.130 Z0.200 E0.58669 ; infill
G1 X116.603 Y103.665 Z0.200 E0.01679 ; infill
G1 X103.397 Y116.870 Z0.200 E0.58669 ; infill
G1 X103.397 Y117.404 Z0.200 E0.01679 ; infill
G1 X116.603 Y104.199 Z0.200 E0.58669 ; infill
G1 X116.603 Y104.733 Z0.200 E0.01679 ; infill
G1 X103.397 Y117.938 Z0.200 E0.58669 ; infill
G1 X103.397 Y118.473 Z0.200 E0.01679 ; infill
G1 X116.603 Y105.268 Z0.200 E0.58669 ; infill
G1 X116.603 Y105.802 Z0.200 E0.01679 ; infill
G1 X103.397 Y119.007 Z0.200 E0.58669 ; infill
G1 X103.397 Y119.541 Z0.200 E0.01679 ; infill
G1 X116.603 Y106.336 Z0.200 E0.58669 ; infill
G1 X116.603 Y106.871 Z0.200 E0.01679 ; infill
G1 X103.397 Y120.076 Z0.200 E0.58669 ; infill
G1 X103.397 Y120.610 Z0.200 E0.01679 ; infill
G1 X116.603 Y107.405 Z0.200 E0.58669 ; infill
G1 X116.603 Y107.939 Z0.200 E0.01679 ; infill
G1 X103.397 Y121.144 Z0.200 E0.58669 ; infill
G1 X103.397 Y121.679 Z0.200 E0.01679 ; infill
G1 X116.603 Y108.474 Z0.200 E0.58669 ; infill
G1 X116.603 Y109.008 Z0.200 E0.01679 ; infill
G1 X103.397 Y122.213 Z0.200 E0.58669 ; infill
G1 X103.397 Y122.747 Z0.200 E0.01679 ; infill
G1 X116.603 Y109.542 Z0.200 E0.58669 ; infill
G1 X116.603 Y110.077 Z0.200 E0.01679 ; infill
G1 X103.397 Y123.282 Z0.200 E0.58669 ; infill
G1 X103.397 Y123.816 Z0.200 E0.01679 ; infill
G1 X116.603 Y110.611 Z0.200 E0.58669 ; infill
G1 X116.603 Y111.145 Z0.200 E0.01679 ; infill
G1 X103.645 Y124.103 Z0.200 E0.57569 ; infill
G1 X104.180 Y124.103 Z0.200 E0.01679 ; infill
G1 X116.603 Y111.680 Z0.200 E0.55195 ; infill
G1 X116.603 Y112.214 Z0.200 E0.01679 ; infill
G1 X104.714 Y124.103 Z0.200 E0.52821 ; infill
G1 X105.248 Y124.103 Z0.200 E0.01679 ; infill
G1 X116.603 Y112.748 Z0.200 E0.50447 ; infill
G1 X116.603 Y113.283 Z0.200 E0.01679 ; infill
G1 X105.783 Y124.103 Z0.200 E0.48073 ; infill
G1 X106.317 Y124.103 Z0.200 E0.01679 ; infill
G1 X116.603 Y113.817 Z0.200 E0.45699 ; infill
G1 X116.603 Y114.351 Z0.200 E0.01679 ; infill
G1 X106.851 Y124.103 Z0.200 E0.43325 ; infill
G1 X107.386 Y124.103 Z0.200 E0.01679 ; infill
G1 X116.603 Y114.886 Z0.200 E0.40951 ; infill
G1 X116.603 Y115.420 Z0.200 E0.01679 ; infill
G1 X107.920 Y124.103 Z0.200 E0.38577 ; infill
G1 X108.454 Y124.103 Z0.200 E0.01679 ; infill
G1 X116.603 Y115.954 Z0.200 E0.36203 ; infill
G1 X116.603 Y116.489 Z0.200 E0.01679 ; infill
G1 X108.989 Y124.103 Z0.200 E0.33829 ; infill
G1 X109.523 Y124.103 Z0.200 E0.01679 ; infill
G1 X116.603 Y117.023 Z0.200 E0.31455 ; infill
G1 X116.603 Y117.557 Z0.200 E0.01679 ; infill
G1 X110.057 Y124.103 Z0.200 E0.29081 ; infill
G1 X110.591 Y124.103 Z0.200 E0.01679 ; infill
G1 X116.603 Y118.091 Z0.200 E0.26707 ; infill
G1 X116.603 Y118.626 Z0.200 E0.01679 ; infill
G1 X111.126 Y124.103 Z0.200 E0.24333 ; infill
G1 X111.660 Y124.103 Z0.200 E0.01679 ; infill
G1 X116.603 Y119.160 Z0.200 E0.21959 ; infill
G1 X116.603 Y119.694 Z0.200 E0.01679 ; infill
G1 X112.194 Y124.103 Z0.200 E0.19585 ; infill
G1 X112.729 Y124.103 Z0.200 E0.01679 ; infill
G1 X116.603 Y120.229 Z0.200 E0.17211 ; infill
G1 X116.603 Y120.763 Z0.200 E0.01679 ; infill
G1 X113.263 Y124.103 Z0.200 E0.14837 ; infill
G1 X113.797 Y124.103 Z0.200 E0.01679 ; infill
G1 X116.603 Y121.297 Z0.200 E0.12463 ; infill
G1 X116.603 Y121.832 Z0.200 E0.01679 ; infill
G1 X114.332 Y124.103 Z0.200 E0.10089 ; infill
G1 X114.866 Y124.103 Z0.200 E0.01679 ; infill
G1 X116.603 Y122.366 Z0.200 E0.07715 ; infill
G1 X116.603 Y122.900 Z0.200 E0.01679 ; infill
G1 X115.400 Y124.103 Z0.200 E0.05341 ; infill
G1 X115.935 Y124.103 Z0.200 E0.01679 ; infill
G1 X116.603 Y123.435 Z0.200 E0.02967 ; infill
G1 X116.603 Y123.969 Z0.200 E0.01679 ; infill
G1 X116.469 Y124.103 Z0.200 E0.00593 ; infill
M106 S178.5 ; enable fan
G1 Z0.320 F7800.000 ; move to next layer (1)
G1 X103.149 Y95.649 Z0.320 F7800.000 ; move to first perimeter point
G1 F4800
G1 X116.851 Y95.649 Z0.320 E0.29000 ; perimeter
G1 X116.851 Y124.351 Z0.320 E0.60749 ; perimeter
G1 X103.149 Y124.351 Z0.320 E0.29000 ; perimeter
G1 X103.149 Y95.709 Z0.320 E0.60622 ; perimeter
G1 X102.725 Y95.225 Z0.320 F7800.000 ; move to first perimeter point
G1 F2400
G1 X117.275 Y95.225 Z0.320 E0.30796 ; perimeter
G1 X117.275 Y124.775 Z0.320 E0.62545 ; perimeter
G1 X102.725 Y124.775 Z0.320 E0.30796 ; perimeter
G1 X102.725 Y95.285 Z0.320 E0.62418 ; perimeter
G1 X103.098 Y95.370 F7800.000 ; move inwards before travel
G1 X116.502 Y96.149 Z0.320 F7800.000 ; move to first infill point
G1 F1800
G1 X116.351 Y95.998 Z0.320 E0.00455 ; infill
G1 X115.744 Y95.998 Z0.320 E0.01302 ; infill
G1 X116.502 Y96.756 Z0.320 E0.02297 ; infill
G1 X116.502 Y97.364 Z0.320 E0.01302 ; infill
G1 X115.136 Y95.998 Z0.320 E0.04138 ; infill
G1 X114.529 Y95.998 Z0.320 E0.01302 ; infill
G1 X116.502 Y97.971 Z0.320 E0.05980 ; infill
G1 X116.502 Y98.579 Z0.320 E0.01302 ; infill
G1 X113.921 Y95.998 Z0.320 E0.07821 ; infill
G1 X113.314 Y95.998 Z0.320 E0.01302 ; infill
G1 X116.502 Y99.186 Z0.320 E0.09663 ; infill
G1 X116.502 Y99.794 Z0.320 E0.01302 ; infill
G1 X112.706 Y95.998 Z0.320 E0.11504 ; infill
G1 X112.099 Y95.998 Z0.320 E0.01302 ; infill
G1 X116.502 Y100.401 Z0.320 E0.13346 ; infill
G1 X116.502 Y101.009 Z0.320 E0.01302 ; infill
G1 X111.491 Y95.998 Z0.320 E0.15187 ; infill
G1 X110.883 Y95.998 Z0.320 E0.01302 ; infill
G1 X116.502 Y101.617 Z0.320 E0.17029 ; infill
G1 X116.502 Y102.224 Z0.320 E0.01302 ; infill
G1 X110.276 Y95.998 Z0.320 E0.18870 ; infill
G1 X109.668 Y95.998 Z0.320 E0.01302 ; infill
G1 X116.502 Y102.832 Z0.320 E0.20712 ; infill
G1 X116.502 Y103.439 Z0.320 E0.01302 ; infill
G1 X109.061 Y95.998 Z0.320 E0.22553 ; infill
G1 X108.453 Y95.998 Z0.320 E0.01302 ; infill
G1 X116.502 Y104.047 Z0.320 E0.24395 ; infill
G1 X116.502 Y104.654 Z0.320 E0.01302 ; infill
G1 X107.846 Y95.998 Z0.320 E0.26236 ; infill
G1 X107.238 Y95.998 Z0.320 E0.01302 ; infill
G1 X116.502 Y105.262 Z0.320 E0.28078 ; infill
G1 X116.502 Y105.869 Z0.320 E0.01302 ; infill
G1 X106.631 Y95.998 Z0.320 E0.29919 ; infill
G1 X106.023 Y95.998 Z0.320 E0.01302 ; infill
G1 X116.502 Y106.477 Z0.320 E0.31761 ; infill
G1 X116.502 Y107.084 Z0.320 E0.01302 ; infill
G1 X105.416 Y95.998 Z0.320 E0.33603 ; infill
G1 X104.808 Y95.998 Z0.320 E0.01302 ; infill
G1 X116.502 Y107.692 Z0.320 E0.35444 ; infill
G1 X116.502 Y108.300 Z0.320 E0.01302 ; infill
G1 X104.200 Y95.998 Z0.320 E0.37286 ; infill
G1 X103.593 Y95.998 Z0.320 E0.01302 ; infill
G1 X116.502 Y108.907 Z0.320 E0.39127 ; infill
G1 X116.502 Y109.515 Z0.320 E0.01302 ; infill
G1 X103.498 Y96.512 Z0.320 E0.39413 ; infill
G1 X103.498 Y97.119 Z0.320 E0.01302 ; infill
G1 X116.502 Y110.122 Z0.320 E0.39413 ; infill
G1 X116.502 Y110.730 Z0.320 E0.01302 ; infill
G1 X103.498 Y97.727 Z0.320 E0.39413 ; infill
G1 X103.498 Y98.334 Z0.320 E0.01302 ; infill
G1 X116.502 Y111.337 Z0.320 E0.39413 ; infill
G1 X116.502 Y111.945 Z0.320 E0.01302 ; infill
G1 X103.498 Y98.942 Z0.320 E0.39413 ; infill
G1 X103.498 Y99.549 Z0.320 E0.01302 ; infill
G1 X116.502 Y112.552 Z0.320 E0.39413 ; infill
G1 X116.502 Y113.160 Z0.320 E0.01302 ; infill
G1 X103.498 Y100.157 Z0.320 E0.39413 ; infill
G1 X103.498 Y100.764 Z0.320 E0.01302 ; infill
G1 X116.502 Y113.768 Z0.320 E0.39413 ; infill
G1 X116.502 Y114.375 Z0.320 E0.01302 ; infill
G1 X103.498 Y101.372 Z0.320 E0.39413 ; infill
G1 X103.498 Y101.980 Z0.320 E0.01302 ; infill
G1 X116.502 Y114.983 Z0.320 E0.39413 ; infill
G1 X116.502 Y115.590 Z0.320 E0.01302 ; infill
G1 X103.498 Y102.587 Z0.320 E0.39413 ; infill
G1 X103.498 Y103.195 Z0.320 E0.01302 ; infill
G1 X116.502 Y116.198 Z0.320 E0.39413 ; infill
G1 X116.502 Y116.805 Z0.320 E0.01302 ; infill
G1 X103.498 Y103.802 Z0.320 E0.39413 ; infill
G1 X103.498 Y104.410 Z0.320 E0.01302 ; infill
G1 X116.502 Y117.413 Z0.320 E0.39413 ; infill
G1 X116.502 Y118.020 Z0.320 E0.01302 ; infill
G1 X103.498 Y105.017 Z0.320 E0.39413 ; infill
G1 X103.498 Y105.625 Z0.320 E0.01302 ; infill
G1 X116.502 Y118.628 Z0.320 E0.39413 ; infill
G1 X116.502 Y119.235 Z0.320 E0.01302 ; infill
G1 X103.498 Y106.232 Z0.320 E0.39413 ; infill
G1 X103.498 Y106.840 Z0.320 E0.01302 ; infill
G1 X116.502 Y119.843 Z0.320 E0.39413 ; infill
G1 X116.502 Y120.451 Z0.320 E0.01302 ; infill
G1 X103.498 Y107.447 Z0.320 E0.39413 ; infill
G1 X103.498 Y108.055 Z0.320 E0.01302 ; infill
G1 X116.502 Y121.058 Z0.320 E0.39413 ; infill
G1 X116.502 Y121.666 Z0.320 E0.01302 ; infill
G1 X103.498 Y108.663 Z0.320 E0.39413 ; infill
G1 X103.498 Y109.270 Z0.320 E0.01302 ; infill
G1 X116.502 Y122.273 Z0.320 E0.39413 ; infill
G1 X116.502 Y122.881 Z0.320 E0.01302 ; infill
G1 X103.498 Y109.878 Z0.320 E0.39413 ; infill
G1 X103.498 Y110.485 Z0.320 E0.01302 ; infill
G1 X116.502 Y123.488 Z0.320 E0.39413 ; infill
G1 X116.502 Y124.002 Z0.320 E0.01100 ; infill
G1 X116.502 Y124.002 Z0.320 E0.00000 ; infill
G1 X116.407 Y124.002 Z0.320 E0.00202 ; infill
G1 X103.498 Y111.093 Z0.320 E0.39127 ; infill
G1 X103.498 Y111.700 Z0.320 E0.01302 ; infill
G1 X115.800 Y124.002 Z0.320 E0.37286 ; infill
G1 X115.192 Y124.002 Z0.320 E0.01302 ; infill
G1 X103.498 Y112.308 Z0.320 E0.35444 ; infill
G1 X103.498 Y112.915 Z0.320 E0.01302 ; infill
G1 X114.585 Y124.002 Z0.320 E0.33603 ; infill
G1 X113.977 Y124.002 Z0.320 E0.01302 ; infill
G1 X103.498 Y113.523 Z0.320 E0.31761 ; infill
G1 X103.498 Y114.131 Z0.320 E0.01302 ; infill
G1 X113.369 Y124.002 Z0.320 E0.29920 ; infill
G1 X112.762 Y124.002 Z0.320 E0.01302 ; infill
G1 X103.498 Y114.738 Z0.320 E0.28078 ; infill
G1 X103.498 Y115.346 Z0.320 E0.01302 ; infill
G1 X112.154 Y124.002 Z0.320 E0.26237 ; infill
G1 X111.547 Y124.002 Z0.320 E0.01302 ; infill
G1 X103.498 Y115.953 Z0.320 E0.24395 ; infill
G1 X103.498 Y116.561 Z0.320 E0.01302 ; infill
G1 X110.939 Y124.002 Z0.320 E0.22554 ; infill
G1 X110.332 Y124.002 Z0.320 E0.01302 ; infill
G1 X103.498 Y117.168 Z0.320 E0.20712 ; infill
G1 X103.498 Y117.776 Z0.320 E0.01302 ; infill
G1 X109.724 Y124.002 Z0.320 E0.18871 ; infill
G1 X109.117 Y124.002 Z0.320 E0.01302 ; infill
G1 X103.498 Y118.383 Z0.320 E0.17029 ; infill
G1 X103.498 Y118.991 Z0.320 E0.01302 ; infill
G1 X108.509 Y124.002 Z0.320 E0.15188 ; infill
G1 X107.902 Y124.002 Z0.320 E0.01302 ; infill
G1 X103.498 Y119.598 Z0.320 E0.13346 ; infill
G1 X103.498 Y120.206 Z0.320 E0.01302 ; infill
G1 X107.294 Y124.002 Z0.320 E0.11504 ; infill
G1 X106.686 Y124.002 Z0.320 E0.01302 ; infill
G1 X103.498 Y120.814 Z0.320 E0.09663 ; infill
G1 X103.498 Y121.421 Z0.320 E0.01302 ; infill
G1 X106.079 Y124.002 Z0.320 E0.07821 ; infill
G1 X105.471 Y124.002 Z0.320 E0.01302 ; infill
G1 X103.498 Y122.029 Z0.320 E0.05980 ; infill
G1 X103.498 Y122.636 Z0.320 E0.01302 ; infill
G1 X104.864 Y124.002 Z0.320 E0.04138 ; infill
G1 X104.256 Y124.002 Z0.320 E0.01302 ; infill
G1 X103.498 Y123.244 Z0.320 E0.02297 ; infill
G1 X103.498 Y123.851 Z0.320 E0.01302 ; infill
