; generated by Slic3r 1.3.0-dev on 2020-10-23 at 12:51:38

; external perimeters extrusion width = 0.45mm (2.04mm^3/s)
; perimeters extrusion width = 0.45mm (4.07mm^3/s)
; infill extrusion width = 0.45mm (4.07mm^3/s)
; solid infill extrusion width = 0.45mm (1.53mm^3/s)
; top infill extrusion width = 0.40mm (0.90mm^3/s)

M109 S200 ;Heat nozzle to 200C
M190 S70 ;Heat nozzle to 70C
G28 ;Home all axes
M117 ; Purge extruder
G92 E0 ;Reset extruder
G1 Z2.0 F3000 ;Move Z Axis up
G1 X0.1 Y20 Z0.3 F5000.0 ; Move to start position
G1 X0.1 Y200.0 Z0.3 F1500.0 E15 ; Draw the first line
G1 X0.4 Y200.0 Z0.3 F5000.0 ; Move to side a little
G1 X0.4 Y20 Z0.3 F1500.0 E30 ; Draw the second line
G92 E0 ;Reset extruder
G1 Z1.0 F3000 ;Move z up little to prevent scratching of surface
; Filament gcode

G21 ; set units to millimeters
G90 ; use absolute coordinates
M83 ; use relative distances for extrusion
G1 Z5.000 F7800.000 ; move to next layer (40)
G1 E-5.00000 F2400.00000 ; retract extruder 0
G1 X103.149 Y97.229 F7800.000 ; move to first perimeter point
G1 E5.00000 F2400.00000 ; unretract extruder 0

G1 F4800
G1 X103.149 Y97.229 Z9.237 E0.00000 ; perimeter
G1 X105.778 Y97.229 Z9.237 E0.13732 ; perimeter
G1 X112.558 Y97.230 Z9.235 E0.35426 ; perimeter
G1 X113.186 Y97.230 Z9.235 E0.03279 ; perimeter
G1 X113.186 Y97.230 Z9.235 E0.00001 ; perimeter
G1 X113.439 Y97.230 Z9.235 E0.01323 ; perimeter
G1 X113.439 Y97.230 Z9.235 E0.00000 ; perimeter
G1 X116.177 Y97.229 Z9.237 E0.14303 ; perimeter
G1 X116.851 Y97.229 Z9.237 E0.03521 ; perimeter
G1 X116.851 Y97.440 Z9.081 E0.01178 ; perimeter
G1 X116.851 Y97.503 Z9.035 E0.00353 ; perimeter
G1 X116.851 Y97.860 Z8.783 E0.01979 ; perimeter
G1 X116.851 Y97.925 Z8.738 E0.00356 ; perimeter
G1 X116.851 Y98.288 Z8.495 E0.01995 ; perimeter
G1 X116.851 Y98.354 Z8.452 E0.00359 ; perimeter
G1 X116.851 Y98.723 Z8.218 E0.02012 ; perimeter
G1 X116.851 Y98.789 Z8.177 E0.00362 ; perimeter
G1 X116.851 Y99.164 Z7.951 E0.02030 ; perimeter
G1 X116.851 Y99.231 Z7.912 E0.00365 ; perimeter
G1 X116.851 Y99.611 Z7.695 E0.02047 ; perimeter
G1 X116.851 Y99.679 Z7.657 E0.00368 ; perimeter
G1 X116.851 Y100.064 Z7.450 E0.02064 ; perimeter
G1 X116.851 Y100.134 Z7.414 E0.00371 ; perimeter
G1 X116.851 Y100.523 Z7.216 E0.02080 ; perimeter
G1 X116.851 Y100.594 Z7.182 E0.00374 ; perimeter
G1 X116.851 Y100.988 Z6.993 E0.02097 ; perimeter
G1 X116.851 Y101.059 Z6.960 E0.00377 ; perimeter
G1 X116.851 Y101.458 Z6.782 E0.02113 ; perimeter
G1 X116.851 Y101.530 Z6.750 E0.00380 ; perimeter
G1 X116.851 Y101.933 Z6.581 E0.02130 ; perimeter
G1 X116.851 Y102.005 Z6.552 E0.00383 ; perimeter
G1 X116.851 Y102.412 Z6.393 E0.02145 ; perimeter
G1 X116.851 Y102.486 Z6.365 E0.00386 ; perimeter
G1 X116.851 Y102.896 Z6.215 E0.02161 ; perimeter
G1 X116.851 Y102.970 Z6.189 E0.00389 ; perimeter
G1 X116.851 Y103.384 Z6.050 E0.02175 ; perimeter
G1 X116.851 Y103.459 Z6.026 E0.00391 ; perimeter
G1 X116.851 Y103.876 Z5.896 E0.02189 ; perimeter
G1 X116.851 Y103.951 Z5.874 E0.00394 ; perimeter
G1 X116.851 Y104.372 Z5.755 E0.02203 ; perimeter
G1 X116.851 Y104.447 Z5.734 E0.00396 ; perimeter
G1 X116.851 Y104.871 Z5.625 E0.02215 ; perimeter
G1 X116.851 Y104.947 Z5.606 E0.00398 ; perimeter
G1 X116.851 Y105.372 Z5.507 E0.02227 ; perimeter
G1 X116.851 Y105.449 Z5.490 E0.00400 ; perimeter
G1 X116.851 Y105.877 Z5.402 E0.02238 ; perimeter
G1 X116.851 Y105.954 Z5.387 E0.00402 ; perimeter
G1 X116.851 Y106.384 Z5.308 E0.02247 ; perimeter
G1 X116.851 Y106.461 Z5.295 E0.00404 ; perimeter
G1 X116.851 Y106.893 Z5.227 E0.02256 ; perimeter
G1 X116.851 Y106.970 Z5.216 E0.00405 ; perimeter
G1 X116.851 Y107.042 Z5.207 E0.00373 ; perimeter

G1 F4800
G1 X116.851 Y107.403 Z5.158 E0.00766 ; perimeter
G1 X116.851 Y107.481 Z5.149 E0.00165 ; perimeter
G1 X116.851 Y107.916 Z5.102 E0.00920 ; perimeter
G1 X116.851 Y107.994 Z5.095 E0.00165 ; perimeter
G1 X116.851 Y108.429 Z5.058 E0.00922 ; perimeter
G1 X116.851 Y108.507 Z5.053 E0.00165 ; perimeter
G1 X116.851 Y108.944 Z5.026 E0.00923 ; perimeter
G1 X116.851 Y109.022 Z5.023 E0.00166 ; perimeter
G1 X116.851 Y109.459 Z5.007 E0.00924 ; perimeter
G1 X116.851 Y109.537 Z5.005 E0.00166 ; perimeter
G1 X116.851 Y109.974 Z5.000 E0.00925 ; perimeter
G1 X116.851 Y110.052 Z5.000 E0.00166 ; perimeter
G1 X116.851 Y110.489 Z5.006 E0.00925 ; perimeter
G1 X116.851 Y110.568 Z5.008 E0.00166 ; perimeter
G1 X116.851 Y111.004 Z5.024 E0.00924 ; perimeter
G1 X116.851 Y111.083 Z5.028 E0.00166 ; perimeter
G1 X116.851 Y111.519 Z5.054 E0.00923 ; perimeter
G1 X116.851 Y111.597 Z5.060 E0.00165 ; perimeter
G1 X116.851 Y112.032 Z5.097 E0.00922 ; perimeter
G1 X116.851 Y112.110 Z5.105 E0.00165 ; perimeter
G1 X116.851 Y112.545 Z5.152 E0.00920 ; perimeter
G1 X116.851 Y112.622 Z5.162 E0.00164 ; perimeter
G1 X116.851 Y112.958 Z5.207 E0.00710 ; perimeter

G1 F4800
G1 X116.851 Y113.056 Z5.220 E0.00510 ; perimeter
G1 X116.851 Y113.133 Z5.231 E0.00405 ; perimeter
G1 X116.851 Y113.565 Z5.299 E0.02256 ; perimeter
G1 X116.851 Y113.642 Z5.313 E0.00403 ; perimeter
G1 X116.851 Y113.642 Z5.313 E0.00000 ; perimeter
G1 X116.851 Y114.072 Z5.392 E0.02247 ; perimeter
G1 X116.851 Y114.072 Z5.392 E0.00000 ; perimeter
G1 X116.851 Y114.149 Z5.407 E0.00401 ; perimeter
G1 X116.851 Y114.577 Z5.496 E0.02238 ; perimeter
G1 X116.851 Y114.653 Z5.513 E0.00400 ; perimeter
G1 X116.851 Y114.653 Z5.513 E0.00000 ; perimeter
G1 X116.851 Y115.079 Z5.612 E0.02227 ; perimeter
G1 X116.851 Y115.155 Z5.631 E0.00397 ; perimeter
G1 X116.851 Y115.578 Z5.741 E0.02215 ; perimeter
G1 X116.851 Y115.653 Z5.762 E0.00395 ; perimeter
G1 X116.851 Y116.074 Z5.881 E0.02203 ; perimeter
G1 X116.851 Y116.074 Z5.881 E0.00000 ; perimeter
G1 X116.851 Y116.149 Z5.904 E0.00393 ; perimeter
G1 X116.851 Y116.149 Z5.904 E0.00000 ; perimeter
G1 X116.851 Y116.566 Z6.034 E0.02189 ; perimeter
G1 X116.851 Y116.640 Z6.058 E0.00390 ; perimeter
G1 X116.851 Y117.055 Z6.198 E0.02175 ; perimeter
G1 X116.851 Y117.128 Z6.224 E0.00388 ; perimeter
G1 X116.851 Y117.128 Z6.224 E0.00000 ; perimeter
G1 X116.851 Y117.539 Z6.374 E0.02160 ; perimeter
G1 X116.851 Y117.539 Z6.374 E0.00000 ; perimeter
G1 X116.851 Y117.612 Z6.402 E0.00385 ; perimeter
G1 X116.851 Y118.019 Z6.561 E0.02145 ; perimeter
G1 X116.851 Y118.091 Z6.592 E0.00382 ; perimeter
G1 X116.851 Y118.494 Z6.761 E0.02130 ; perimeter
G1 X116.851 Y118.566 Z6.792 E0.00379 ; perimeter
G1 X116.851 Y118.965 Z6.971 E0.02113 ; perimeter
G1 X116.851 Y118.965 Z6.971 E0.00000 ; perimeter
G1 X116.851 Y119.035 Z7.005 E0.00376 ; perimeter
G1 X116.851 Y119.430 Z7.193 E0.02097 ; perimeter
G1 X116.851 Y119.500 Z7.228 E0.00373 ; perimeter
G1 X116.851 Y119.500 Z7.228 E0.00000 ; perimeter
G1 X116.851 Y119.890 Z7.426 E0.02080 ; perimeter
G1 X116.851 Y119.890 Z7.426 E0.00000 ; perimeter
G1 X116.851 Y119.959 Z7.463 E0.00370 ; perimeter
G1 X116.851 Y120.344 Z7.670 E0.02064 ; perimeter
G1 X116.851 Y120.344 Z7.670 E0.00000 ; perimeter
G1 X116.851 Y120.412 Z7.708 E0.00367 ; perimeter
G1 X116.851 Y120.792 Z7.925 E0.02047 ; perimeter
G1 X116.851 Y120.859 Z7.965 E0.00364 ; perimeter
G1 X116.851 Y121.233 Z8.190 E0.02030 ; perimeter
G1 X116.851 Y121.299 Z8.232 E0.00361 ; perimeter
G1 X116.851 Y121.668 Z8.466 E0.02012 ; perimeter
G1 X116.851 Y121.734 Z8.510 E0.00358 ; perimeter
G1 X116.851 Y122.097 Z8.753 E0.01995 ; perimeter
G1 X116.851 Y122.097 Z8.753 E0.00000 ; perimeter
G1 X116.851 Y122.161 Z8.798 E0.00355 ; perimeter
G1 X116.851 Y122.518 Z9.050 E0.01979 ; perimeter
G1 X116.851 Y122.581 Z9.096 E0.00352 ; perimeter
G1 X116.851 Y122.581 Z9.096 E0.00000 ; perimeter
G1 X116.851 Y122.771 Z9.237 E0.01059 ; perimeter
G1 X114.825 Y122.771 Z9.237 E0.10585 ; perimeter
G1 X114.825 Y122.771 Z9.237 E0.00000 ; perimeter
G1 X114.466 Y122.771 Z9.237 E0.01876 ; perimeter
G1 X113.186 Y122.771 Z9.237 E0.06687 ; perimeter
G1 X110.928 Y122.771 Z9.237 E0.11798 ; perimeter
G1 X109.124 Y122.771 Z9.237 E0.09422 ; perimeter
G1 X103.149 Y122.771 Z9.237 E0.31216 ; perimeter
G1 X103.149 Y122.545 Z9.070 E0.01262 ; perimeter
G1 X103.149 Y122.545 Z9.070 E0.00000 ; perimeter
G1 X103.149 Y122.519 Z9.051 E0.00142 ; perimeter
G1 X103.149 Y122.519 Z9.051 E0.00000 ; perimeter
G1 X103.149 Y122.124 Z8.772 E0.02188 ; perimeter
G1 X103.149 Y122.098 Z8.754 E0.00143 ; perimeter
G1 X103.149 Y121.697 Z8.485 E0.02206 ; perimeter
G1 X103.149 Y121.671 Z8.468 E0.00144 ; perimeter
G1 X103.149 Y121.263 Z8.209 E0.02225 ; perimeter
G1 X103.149 Y121.236 Z8.192 E0.00146 ; perimeter
G1 X103.149 Y120.822 Z7.943 E0.02244 ; perimeter
G1 X103.149 Y120.795 Z7.927 E0.00147 ; perimeter
G1 X103.149 Y120.375 Z7.688 E0.02263 ; perimeter
G1 X103.149 Y120.347 Z7.672 E0.00148 ; perimeter
G1 X103.149 Y120.347 Z7.672 E0.00000 ; perimeter
G1 X103.149 Y119.922 Z7.443 E0.02282 ; perimeter
G1 X103.149 Y119.894 Z7.428 E0.00149 ; perimeter
G1 X103.149 Y119.463 Z7.210 E0.02300 ; perimeter
G1 X103.149 Y119.435 Z7.195 E0.00151 ; perimeter
G1 X103.149 Y119.435 Z7.195 E0.00000 ; perimeter
G1 X103.149 Y118.999 Z6.987 E0.02319 ; perimeter
G1 X103.149 Y118.970 Z6.974 E0.00152 ; perimeter
G1 X103.149 Y118.529 Z6.776 E0.02337 ; perimeter
G1 X103.149 Y118.529 Z6.776 E0.00000 ; perimeter
G1 X103.149 Y118.500 Z6.763 E0.00153 ; perimeter
G1 X103.149 Y118.055 Z6.576 E0.02355 ; perimeter
G1 X103.149 Y118.025 Z6.564 E0.00154 ; perimeter
G1 X103.149 Y118.025 Z6.564 E0.00000 ; perimeter
G1 X103.149 Y117.575 Z6.388 E0.02372 ; perimeter
G1 X103.149 Y117.546 Z6.377 E0.00155 ; perimeter
G1 X103.149 Y117.092 Z6.211 E0.02389 ; perimeter
G1 X103.149 Y117.062 Z6.201 E0.00156 ; perimeter
G1 X103.149 Y116.604 Z6.046 E0.02405 ; perimeter
G1 X103.149 Y116.574 Z6.036 E0.00158 ; perimeter
G1 X103.149 Y116.574 Z6.036 E0.00000 ; perimeter
G1 X103.149 Y116.113 Z5.893 E0.02420 ; perimeter
G1 X103.149 Y116.113 Z5.893 E0.00000 ; perimeter
G1 X103.149 Y116.082 Z5.884 E0.00159 ; perimeter
G1 X103.149 Y116.082 Z5.884 E0.00000 ; perimeter
G1 X103.149 Y115.618 Z5.752 E0.02435 ; perimeter
G1 X103.149 Y115.618 Z5.752 E0.00000 ; perimeter
G1 X103.149 Y115.587 Z5.743 E0.00160 ; perimeter
G1 X103.149 Y115.119 Z5.622 E0.02449 ; perimeter
G1 X103.149 Y115.089 Z5.615 E0.00160 ; perimeter
G1 X103.149 Y114.618 Z5.505 E0.02462 ; perimeter
G1 X103.149 Y114.587 Z5.498 E0.00161 ; perimeter
G1 X103.149 Y114.114 Z5.400 E0.02474 ; perimeter
G1 X103.149 Y114.083 Z5.394 E0.00162 ; perimeter
G1 X103.149 Y114.083 Z5.394 E0.00000 ; perimeter
G1 X103.149 Y113.608 Z5.307 E0.02485 ; perimeter
G1 X103.149 Y113.577 Z5.301 E0.00163 ; perimeter
G1 X103.149 Y113.099 Z5.226 E0.02494 ; perimeter
G1 X103.149 Y113.068 Z5.221 E0.00163 ; perimeter
G1 X103.149 Y112.957 Z5.207 E0.00578 ; perimeter

G1 F4800
G1 X103.149 Y112.589 Z5.158 E0.00780 ; perimeter
G1 X103.149 Y112.558 Z5.154 E0.00066 ; perimeter
G1 X103.149 Y112.077 Z5.101 E0.01017 ; perimeter
G1 X103.149 Y112.046 Z5.098 E0.00067 ; perimeter
G1 X103.149 Y111.564 Z5.058 E0.01019 ; perimeter
G1 X103.149 Y111.533 Z5.055 E0.00067 ; perimeter
G1 X103.149 Y111.050 Z5.026 E0.01021 ; perimeter
G1 X103.149 Y111.019 Z5.024 E0.00067 ; perimeter
G1 X103.149 Y110.536 Z5.007 E0.01022 ; perimeter
G1 X103.149 Y110.504 Z5.006 E0.00067 ; perimeter
G1 X103.149 Y110.021 Z5.000 E0.01023 ; perimeter
G1 X103.149 Y109.989 Z5.000 E0.00067 ; perimeter
G1 X103.149 Y109.506 Z5.006 E0.01023 ; perimeter
G1 X103.149 Y109.475 Z5.007 E0.00067 ; perimeter
G1 X103.149 Y108.992 Z5.024 E0.01022 ; perimeter
G1 X103.149 Y108.960 Z5.025 E0.00067 ; perimeter
G1 X103.149 Y108.478 Z5.054 E0.01021 ; perimeter
G1 X103.149 Y108.446 Z5.057 E0.00067 ; perimeter
G1 X103.149 Y107.965 Z5.097 E0.01019 ; perimeter
G1 X103.149 Y107.933 Z5.100 E0.00067 ; perimeter
G1 X103.149 Y107.453 Z5.152 E0.01017 ; perimeter
G1 X103.149 Y107.422 Z5.156 E0.00066 ; perimeter
G1 X103.149 Y107.043 Z5.207 E0.00802 ; perimeter

G1 F4800
G1 X103.149 Y106.943 Z5.220 E0.00523 ; perimeter
G1 X103.149 Y106.911 Z5.224 E0.00164 ; perimeter
G1 X103.149 Y106.434 Z5.300 E0.02494 ; perimeter
G1 X103.149 Y106.403 Z5.305 E0.00163 ; perimeter
G1 X103.149 Y105.927 Z5.392 E0.02485 ; perimeter
G1 X103.149 Y105.927 Z5.392 E0.00000 ; perimeter
G1 X103.149 Y105.896 Z5.398 E0.00162 ; perimeter
G1 X103.149 Y105.423 Z5.496 E0.02474 ; perimeter
G1 X103.149 Y105.423 Z5.496 E0.00000 ; perimeter
G1 X103.149 Y105.392 Z5.503 E0.00162 ; perimeter
G1 X103.149 Y104.922 Z5.612 E0.02462 ; perimeter
G1 X103.149 Y104.891 Z5.620 E0.00161 ; perimeter
G1 X103.149 Y104.423 Z5.741 E0.02449 ; perimeter
G1 X103.149 Y104.393 Z5.749 E0.00160 ; perimeter
G1 X103.149 Y103.928 Z5.881 E0.02435 ; perimeter
G1 X103.149 Y103.897 Z5.890 E0.00159 ; perimeter
G1 X103.149 Y103.897 Z5.890 E0.00000 ; perimeter
G1 X103.149 Y103.436 Z6.033 E0.02420 ; perimeter
G1 X103.149 Y103.406 Z6.043 E0.00158 ; perimeter
G1 X103.149 Y102.948 Z6.197 E0.02405 ; perimeter
G1 X103.149 Y102.918 Z6.208 E0.00157 ; perimeter
G1 X103.149 Y102.464 Z6.373 E0.02389 ; perimeter
G1 X103.149 Y102.434 Z6.384 E0.00156 ; perimeter
G1 X103.149 Y101.984 Z6.560 E0.02372 ; perimeter
G1 X103.149 Y101.955 Z6.572 E0.00155 ; perimeter
G1 X103.149 Y101.510 Z6.759 E0.02355 ; perimeter
G1 X103.149 Y101.481 Z6.772 E0.00153 ; perimeter
G1 X103.149 Y101.040 Z6.969 E0.02337 ; perimeter
G1 X103.149 Y101.011 Z6.983 E0.00152 ; perimeter
G1 X103.149 Y100.575 Z7.191 E0.02319 ; perimeter
G1 X103.149 Y100.546 Z7.205 E0.00151 ; perimeter
G1 X103.149 Y100.115 Z7.423 E0.02300 ; perimeter
G1 X103.149 Y100.087 Z7.438 E0.00150 ; perimeter
G1 X103.149 Y99.662 Z7.667 E0.02282 ; perimeter
G1 X103.149 Y99.634 Z7.682 E0.00149 ; perimeter
G1 X103.149 Y99.214 Z7.921 E0.02263 ; perimeter
G1 X103.149 Y99.187 Z7.937 E0.00147 ; perimeter
G1 X103.149 Y98.773 Z8.187 E0.02244 ; perimeter
G1 X103.149 Y98.746 Z8.203 E0.00146 ; perimeter
G1 X103.149 Y98.338 Z8.462 E0.02225 ; perimeter
G1 X103.149 Y98.312 Z8.480 E0.00145 ; perimeter
G1 X103.149 Y97.910 Z8.748 E0.02206 ; perimeter
G1 X103.149 Y97.884 Z8.766 E0.00144 ; perimeter
G1 X103.149 Y97.489 Z9.045 E0.02188 ; perimeter
G1 X103.149 Y97.464 Z9.063 E0.00142 ; perimeter
G1 X103.149 Y97.277 Z9.237 E0.01099 ; perimeter

G1 X102.725 Y96.805 Z9.561 F7800.000 ; move to first perimeter point

G1 F4800
G1 X102.725 Y96.805 Z9.561 E0.00000 ; perimeter
G1 X105.778 Y96.804 Z9.561 E0.15948 ; perimeter
G1 X112.998 Y96.806 Z9.559 E0.37725 ; perimeter
G1 X112.998 Y96.806 Z9.559 E0.00000 ; perimeter
G1 X113.186 Y96.806 Z9.559 E0.00979 ; perimeter
G1 X113.186 Y96.806 Z9.559 E0.00000 ; perimeter
G1 X113.261 Y96.806 Z9.559 E0.00395 ; perimeter
G1 X116.177 Y96.804 Z9.561 E0.15231 ; perimeter
G1 X117.275 Y96.805 Z9.561 E0.05738 ; perimeter
G1 X117.275 Y97.053 Z9.368 E0.01397 ; perimeter
G1 X117.275 Y97.074 Z9.352 E0.00121 ; perimeter
G1 X117.275 Y97.466 Z9.062 E0.02189 ; perimeter
G1 X117.275 Y97.488 Z9.046 E0.00122 ; perimeter
G1 X117.275 Y97.886 Z8.765 E0.02208 ; perimeter
G1 X117.275 Y97.909 Z8.749 E0.00123 ; perimeter
G1 X117.275 Y98.314 Z8.478 E0.02226 ; perimeter
G1 X117.275 Y98.337 Z8.463 E0.00124 ; perimeter
G1 X117.275 Y98.748 Z8.202 E0.02245 ; perimeter
G1 X117.275 Y98.771 Z8.187 E0.00125 ; perimeter
G1 X117.275 Y99.189 Z7.936 E0.02264 ; perimeter
G1 X117.275 Y99.213 Z7.922 E0.00126 ; perimeter
G1 X117.275 Y99.637 Z7.681 E0.02283 ; perimeter
G1 X117.275 Y99.660 Z7.668 E0.00128 ; perimeter
G1 X117.275 Y100.090 Z7.437 E0.02302 ; perimeter
G1 X117.275 Y100.114 Z7.424 E0.00129 ; perimeter
G1 X117.275 Y100.549 Z7.204 E0.02321 ; perimeter
G1 X117.275 Y100.573 Z7.192 E0.00130 ; perimeter
G1 X117.275 Y101.013 Z6.982 E0.02340 ; perimeter
G1 X117.275 Y101.038 Z6.970 E0.00131 ; perimeter
G1 X117.275 Y101.483 Z6.771 E0.02358 ; perimeter
G1 X117.275 Y101.508 Z6.760 E0.00132 ; perimeter
G1 X117.275 Y101.957 Z6.571 E0.02376 ; perimeter
G1 X117.275 Y101.982 Z6.561 E0.00133 ; perimeter
G1 X117.275 Y102.436 Z6.383 E0.02394 ; perimeter
G1 X117.275 Y102.462 Z6.374 E0.00134 ; perimeter
G1 X117.275 Y102.920 Z6.207 E0.02411 ; perimeter
G1 X117.275 Y102.946 Z6.198 E0.00135 ; perimeter
G1 X117.275 Y103.408 Z6.042 E0.02427 ; perimeter
G1 X117.275 Y103.434 Z6.034 E0.00136 ; perimeter
G1 X117.275 Y103.899 Z5.889 E0.02443 ; perimeter
G1 X117.275 Y103.925 Z5.882 E0.00136 ; perimeter
