; generated by Slic3r 1.3.0-dev on 2020-10-26 at 17:37:54

; external perimeters extrusion width = 0.45mm (2.04mm^3/s)
; perimeters extrusion width = 0.45mm (4.07mm^3/s)
; infill extrusion width = 0.45mm (4.07mm^3/s)
; solid infill extrusion width = 0.45mm (1.53mm^3/s)
; top infill extrusion width = 0.40mm (0.90mm^3/s)

M109 S200 ;Heat nozzle to 200C
M190 S70 ;Heat nozzle to 70C
G28 ;Home all axes
M117 ; Purge extruder
G92 E0 ;Reset extruder
G1 Z2.0 F3000 ;Move Z Axis up
G1 X0.1 Y20 Z0.3 F5000.0 ; Move to start position
G1 X0.1 Y200.0 Z0.3 F1500.0 E15 ; Draw the first line
G1 X0.4 Y200.0 Z0.3 F5000.0 ; Move to side a little
G1 X0.4 Y20 Z0.3 F1500.0 E30 ; Draw the second line
G92 E0 ;Reset extruder
G1 Z1.0 F3000 ;Move z up little to prevent scratching of surface
; Filament gcode

G21 ; set units to millimeters
G90 ; use absolute coordinates
M83 ; use relative distances for extrusion
G1 Z0.200 F7800.000 ; move to next layer (0)
G1 E-5.00000 F2400.00000 ; retract extruder 0
G1 X95.587 Y103.087 Z0.200 F7800.000 ; move to first perimeter point
G1 E5.00000 F2400.00000 ; unretract extruder 0
G1 F2400
G1 X124.413 Y103.087 Z0.200 E0.90381 ; perimeter
G1 X124.413 Y116.913 Z0.200 E0.43350 ; perimeter
G1 X95.587 Y116.913 Z0.200 E0.90381 ; perimeter
G1 X95.587 Y103.147 Z0.200 E0.43162 ; perimeter
G1 X95.210 Y102.710 Z0.200 F7800.000 ; move to first perimeter point
G1 F2400
G1 X124.790 Y102.710 Z0.200 E0.92746 ; perimeter
G1 X124.790 Y117.290 Z0.200 E0.45715 ; perimeter
G1 X95.210 Y117.290 Z0.200 E0.92746 ; perimeter
G1 X95.210 Y102.770 Z0.200 E0.45527 ; perimeter
G1 X95.605 Y102.771 F7800.000 ; move inwards before travel
G1 X95.898 Y103.531 Z0.200 F7800.000 ; move to first infill point
G1 F2400
G1 X95.897 Y103.531 Z0.200 E0.00001 ; infill
G1 X95.897 Y103.531 Z0.200 E0.00000 ; infill
G1 X95.897 Y103.531 Z0.200 E0.00001 ; infill
G1 X96.031 Y103.397 Z0.200 E0.00593 ; infill
G1 X96.565 Y103.397 Z0.200 E0.01679 ; infill
G1 X95.897 Y104.065 Z0.200 E0.02967 ; infill
G1 X95.897 Y104.600 Z0.200 E0.01679 ; infill
G1 X97.100 Y103.397 Z0.200 E0.05341 ; infill
G1 X97.634 Y103.397 Z0.200 E0.01679 ; infill
G1 X95.897 Y105.134 Z0.200 E0.07715 ; infill
G1 X95.897 Y105.668 Z0.200 E0.01679 ; infill
G1 X98.168 Y103.397 Z0.200 E0.10089 ; infill
G1 X98.703 Y103.397 Z0.200 E0.01679 ; infill
G1 X95.897 Y106.203 Z0.200 E0.12463 ; infill
G1 X95.897 Y106.737 Z0.200 E0.01679 ; infill
G1 X99.237 Y103.397 Z0.200 E0.14837 ; infill
G1 X99.771 Y103.397 Z0.200 E0.01679 ; infill
G1 X95.897 Y107.271 Z0.200 E0.17211 ; infill
G1 X95.897 Y107.806 Z0.200 E0.01679 ; infill
G1 X100.306 Y103.397 Z0.200 E0.19585 ; infill
G1 X100.840 Y103.397 Z0.200 E0.01679 ; infill
G1 X95.897 Y108.340 Z0.200 E0.21959 ; infill
G1 X95.897 Y108.874 Z0.200 E0.01679 ; infill
G1 X101.374 Y103.397 Z0.200 E0.24333 ; infill
G1 X101.909 Y103.397 Z0.200 E0.01679 ; infill
G1 X95.897 Y109.409 Z0.200 E0.26707 ; infill
G1 X95.897 Y109.943 Z0.200 E0.01679 ; infill
G1 X102.443 Y103.397 Z0.200 E0.29081 ; infill
G1 X102.977 Y103.397 Z0.200 E0.01679 ; infill
G1 X95.897 Y110.477 Z0.200 E0.31455 ; infill
G1 X95.897 Y111.012 Z0.200 E0.01679 ; infill
G1 X103.512 Y103.397 Z0.200 E0.33829 ; infill
G1 X104.046 Y103.397 Z0.200 E0.01679 ; infill
G1 X95.897 Y111.546 Z0.200 E0.36203 ; infill
G1 X95.897 Y112.080 Z0.200 E0.01679 ; infill
G1 X104.580 Y103.397 Z0.200 E0.38577 ; infill
G1 X105.115 Y103.397 Z0.200 E0.01679 ; infill
G1 X95.897 Y112.615 Z0.200 E0.40951 ; infill
G1 X95.897 Y113.149 Z0.200 E0.01679 ; infill
G1 X105.649 Y103.397 Z0.200 E0.43325 ; infill
G1 X106.183 Y103.397 Z0.200 E0.01679 ; infill
G1 X95.897 Y113.683 Z0.200 E0.45699 ; infill
G1 X95.897 Y114.218 Z0.200 E0.01679 ; infill
G1 X106.718 Y103.397 Z0.200 E0.48073 ; infill
G1 X107.252 Y103.397 Z0.200 E0.01679 ; infill
G1 X95.897 Y114.752 Z0.200 E0.50447 ; infill
G1 X95.897 Y115.286 Z0.200 E0.01679 ; infill
G1 X107.786 Y103.397 Z0.200 E0.52821 ; infill
G1 X108.320 Y103.397 Z0.200 E0.01679 ; infill
G1 X95.897 Y115.820 Z0.200 E0.55195 ; infill
G1 X95.897 Y116.355 Z0.200 E0.01679 ; infill
G1 X108.855 Y103.397 Z0.200 E0.57569 ; infill
G1 X109.389 Y103.397 Z0.200 E0.01679 ; infill
G1 X96.184 Y116.603 Z0.200 E0.58669 ; infill
G1 X96.718 Y116.603 Z0.200 E0.01679 ; infill
G1 X109.923 Y103.397 Z0.200 E0.58669 ; infill
G1 X110.458 Y103.397 Z0.200 E0.01679 ; infill
G1 X97.253 Y116.603 Z0.200 E0.58669 ; infill
G1 X97.787 Y116.603 Z0.200 E0.01679 ; infill
G1 X110.992 Y103.397 Z0.200 E0.58669 ; infill
G1 X111.526 Y103.397 Z0.200 E0.01679 ; infill
G1 X98.321 Y116.603 Z0.200 E0.58669 ; infill
G1 X98.856 Y116.603 Z0.200 E0.01679 ; infill
G1 X112.061 Y103.397 Z0.200 E0.58669 ; infill
G1 X112.595 Y103.397 Z0.200 E0.01679 ; infill
G1 X99.390 Y116.603 Z0.200 E0.58669 ; infill
G1 X99.924 Y116.603 Z0.200 E0.01679 ; infill
G1 X113.129 Y103.397 Z0.200 E0.58669 ; infill
G1 X113.664 Y103.397 Z0.200 E0.01679 ; infill
G1 X100.459 Y116.603 Z0.200 E0.58669 ; infill
G1 X100.993 Y116.603 Z0.200 E0.01679 ; infill
G1 X114.198 Y103.397 Z0.200 E0.58669 ; infill
G1 X114.732 Y103.397 Z0.200 E0.01679 ; infill
G1 X101.527 Y116.603 Z0.200 E0.58669 ; infill
G1 X102.062 Y116.603 Z0.200 E0.01679 ; infill
G1 X115.267 Y103.397 Z0.200 E0.58669 ; infill
G1 X115.801 Y103.397 Z0.200 E0.01679 ; infill
G1 X102.596 Y116.603 Z0.200 E0.58669 ; infill
G1 X103.130 Y116.603 Z0.200 E0.01679 ; infill
G1 X116.335 Y103.397 Z0.200 E0.58669 ; infill
G1 X116.870 Y103.397 Z0.200 E0.01679 ; infill
G1 X103.665 Y116.603 Z0.200 E0.58669 ; infill
G1 X104.199 Y116.603 Z0.200 E0.01679 ; infill
G1 X117.404 Y103.397 Z0.200 E0.58669 ; infill
G1 X117.938 Y103.397 Z0.200 E0.01679 ; infill
G1 X104.733 Y116.603 Z0.200 E0.58669 ; infill
G1 X105.268 Y116.603 Z0.200 E0.01679 ; infill
G1 X118.473 Y103.397 Z0.200 E0.58669 ; infill
G1 X119.007 Y103.397 Z0.200 E0.01679 ; infill
G1 X105.802 Y116.603 Z0.200 E0.58669 ; infill
G1 X106.336 Y116.603 Z0.200 E0.01679 ; infill
G1 X119.541 Y103.397 Z0.200 E0.58669 ; infill
G1 X120.076 Y103.397 Z0.200 E0.01679 ; infill
G1 X106.871 Y116.603 Z0.200 E0.58669 ; infill
G1 X107.405 Y116.603 Z0.200 E0.01679 ; infill
G1 X120.610 Y103.397 Z0.200 E0.58669 ; infill
G1 X121.144 Y103.397 Z0.200 E0.01679 ; infill
G1 X107.939 Y116.603 Z0.200 E0.58669 ; infill
G1 X108.474 Y116.603 Z0.200 E0.01679 ; infill
G1 X121.679 Y103.397 Z0.200 E0.58669 ; infill
G1 X122.213 Y103.397 Z0.200 E0.01679 ; infill
G1 X109.008 Y116.603 Z0.200 E0.58669 ; infill
G1 X109.542 Y116.603 Z0.200 E0.01679 ; infill
G1 X122.747 Y103.397 Z0.200 E0.58669 ; infill
G1 X123.282 Y103.397 Z0.200 E0.01679 ; infill
G1 X110.077 Y116.603 Z0.200 E0.58669 ; infill
G1 X110.611 Y116.603 Z0.200 E0.01679 ; infill
G1 X123.816 Y103.397 Z0.200 E0.58669 ; infill
G1 X124.103 Y103.397 Z0.200 E0.00900 ; infill
G1 X124.103 Y103.397 Z0.200 E0.00000 ; infill
G1 X124.103 Y103.645 Z0.200 E0.00778 ; infill
G1 X111.145 Y116.603 Z0.200 E0.57569 ; infill
G1 X111.680 Y116.603 Z0.200 E0.01679 ; infill
G1 X124.103 Y104.180 Z0.200 E0.55195 ; infill
G1 X124.103 Y104.714 Z0.200 E0.01679 ; infill
G1 X112.214 Y116.603 Z0.200 E0.52821 ; infill
G1 X112.748 Y116.603 Z0.200 E0.01679 ; infill
G1 X124.103 Y105.248 Z0.200 E0.50447 ; infill
G1 X124.103 Y105.783 Z0.200 E0.01679 ; infill
G1 X113.283 Y116.603 Z0.200 E0.48073 ; infill
G1 X113.817 Y116.603 Z0.200 E0.01679 ; infill
G1 X124.103 Y106.317 Z0.200 E0.45699 ; infill
G1 X124.103 Y106.851 Z0.200 E0.01679 ; infill
G1 X114.351 Y116.603 Z0.200 E0.43325 ; infill
G1 X114.886 Y116.603 Z0.200 E0.01679 ; infill
G1 X124.103 Y107.386 Z0.200 E0.40951 ; infill
G1 X124.103 Y107.920 Z0.200 E0.01679 ; infill
G1 X115.420 Y116.603 Z0.200 E0.38577 ; infill
G1 X115.954 Y116.603 Z0.200 E0.01679 ; infill
G1 X124.103 Y108.454 Z0.200 E0.36203 ; infill
G1 X124.103 Y108.989 Z0.200 E0.01679 ; infill
G1 X116.488 Y116.603 Z0.200 E0.33829 ; infill
G1 X117.023 Y116.603 Z0.200 E0.01679 ; infill
G1 X124.103 Y109.523 Z0.200 E0.31455 ; infill
G1 X124.103 Y110.057 Z0.200 E0.01679 ; infill
G1 X117.557 Y116.603 Z0.200 E0.29081 ; infill
G1 X118.091 Y116.603 Z0.200 E0.01679 ; infill
G1 X124.103 Y110.591 Z0.200 E0.26707 ; infill
G1 X124.103 Y111.126 Z0.200 E0.01679 ; infill
G1 X118.626 Y116.603 Z0.200 E0.24333 ; infill
G1 X119.160 Y116.603 Z0.200 E0.01679 ; infill
G1 X124.103 Y111.660 Z0.200 E0.21959 ; infill
G1 X124.103 Y112.194 Z0.200 E0.01679 ; infill
G1 X119.694 Y116.603 Z0.200 E0.19585 ; infill
G1 X120.229 Y116.603 Z0.200 E0.01679 ; infill
G1 X124.103 Y112.729 Z0.200 E0.17211 ; infill
G1 X124.103 Y113.263 Z0.200 E0.01679 ; infill
G1 X120.763 Y116.603 Z0.200 E0.14837 ; infill
G1 X121.297 Y116.603 Z0.200 E0.01679 ; infill
G1 X124.103 Y113.797 Z0.200 E0.12463 ; infill
G1 X124.103 Y114.332 Z0.200 E0.01679 ; infill
G1 X121.832 Y116.603 Z0.200 E0.10089 ; infill
G1 X122.366 Y116.603 Z0.200 E0.01679 ; infill
G1 X124.103 Y114.866 Z0.200 E0.07715 ; infill
G1 X124.103 Y115.400 Z0.200 E0.01679 ; infill
G1 X122.900 Y116.603 Z0.200 E0.05341 ; infill
G1 X123.435 Y116.603 Z0.200 E0.01679 ; infill
G1 X124.103 Y115.935 Z0.200 E0.02967 ; infill
G1 X124.103 Y116.469 Z0.200 E0.01679 ; infill
G1 X123.969 Y116.603 Z0.200 E0.00593 ; infill
M106 S178.5 ; enable fan
G1 Z0.320 F7800.000 ; move to next layer (1)
G1 X95.649 Y103.149 Z0.320 F7800.000 ; move to first perimeter point
G1 F4800
G1 X124.351 Y103.149 Z0.320 E0.60749 ; perimeter
G1 X124.351 Y116.851 Z0.320 E0.29000 ; perimeter
G1 X95.649 Y116.851 Z0.320 E0.60749 ; perimeter
G1 X95.649 Y103.209 Z0.320 E0.28873 ; perimeter
G1 X95.225 Y102.725 Z0.320 F7800.000 ; move to first perimeter point
G1 F2400
G1 X124.775 Y102.725 Z0.320 E0.62545 ; perimeter
G1 X124.775 Y117.275 Z0.320 E0.30796 ; perimeter
G1 X95.225 Y117.275 Z0.320 E0.62545 ; perimeter
G1 X95.225 Y102.785 Z0.320 E0.30669 ; perimeter
G1 X95.620 Y102.786 F7800.000 ; move inwards before travel
G1 X96.148 Y116.501 Z0.320 F7800.000 ; move to first infill point
G1 F1800
G1 X96.148 Y116.502 Z0.320 E0.00000 ; infill
G1 X96.148 Y116.502 Z0.320 E0.00000 ; infill
G1 X96.149 Y116.502 Z0.320 E0.00000 ; infill
G1 X95.998 Y116.351 Z0.320 E0.00455 ; infill
G1 X95.998 Y115.744 Z0.320 E0.01302 ; infill
G1 X96.756 Y116.502 Z0.320 E0.02297 ; infill
G1 X97.364 Y116.502 Z0.320 E0.01302 ; infill
G1 X95.998 Y115.136 Z0.320 E0.04138 ; infill
G1 X95.998 Y114.529 Z0.320 E0.01302 ; infill
G1 X97.971 Y116.502 Z0.320 E0.05980 ; infill
G1 X98.579 Y116.502 Z0.320 E0.01302 ; infill
G1 X95.998 Y113.921 Z0.320 E0.07821 ; infill
G1 X95.998 Y113.314 Z0.320 E0.01302 ; infill
G1 X99.186 Y116.502 Z0.320 E0.09663 ; infill
G1 X99.794 Y116.502 Z0.320 E0.01302 ; infill
G1 X95.998 Y112.706 Z0.320 E0.11504 ; infill
G1 X95.998 Y112.098 Z0.320 E0.01302 ; infill
G1 X100.402 Y116.502 Z0.320 E0.13346 ; infill
G1 X101.009 Y116.502 Z0.320 E0.01302 ; infill
G1 X95.998 Y111.491 Z0.320 E0.15188 ; infill
G1 X95.998 Y110.883 Z0.320 E0.01302 ; infill
G1 X101.617 Y116.502 Z0.320 E0.17029 ; infill
G1 X102.224 Y116.502 Z0.320 E0.01302 ; infill
G1 X95.998 Y110.276 Z0.320 E0.18871 ; infill
G1 X95.998 Y109.668 Z0.320 E0.01302 ; infill
G1 X102.832 Y116.502 Z0.320 E0.20712 ; infill
G1 X103.439 Y116.502 Z0.320 E0.01302 ; infill
G1 X95.998 Y109.061 Z0.320 E0.22554 ; infill
G1 X95.998 Y108.453 Z0.320 E0.01302 ; infill
G1 X104.047 Y116.502 Z0.320 E0.24395 ; infill
G1 X104.654 Y116.502 Z0.320 E0.01302 ; infill
G1 X95.998 Y107.846 Z0.320 E0.26237 ; infill
G1 X95.998 Y107.238 Z0.320 E0.01302 ; infill
G1 X105.262 Y116.502 Z0.320 E0.28078 ; infill
G1 X105.869 Y116.502 Z0.320 E0.01302 ; infill
G1 X95.998 Y106.631 Z0.320 E0.29920 ; infill
G1 X95.998 Y106.023 Z0.320 E0.01302 ; infill
G1 X106.477 Y116.502 Z0.320 E0.31761 ; infill
G1 X107.085 Y116.502 Z0.320 E0.01302 ; infill
G1 X95.998 Y105.415 Z0.320 E0.33603 ; infill
G1 X95.998 Y104.808 Z0.320 E0.01302 ; infill
G1 X107.692 Y116.502 Z0.320 E0.35444 ; infill
G1 X108.300 Y116.502 Z0.320 E0.01302 ; infill
G1 X95.998 Y104.200 Z0.320 E0.37286 ; infill
G1 X95.998 Y103.593 Z0.320 E0.01302 ; infill
G1 X108.907 Y116.502 Z0.320 E0.39127 ; infill
G1 X109.515 Y116.502 Z0.320 E0.01302 ; infill
G1 X96.512 Y103.498 Z0.320 E0.39413 ; infill
G1 X97.119 Y103.498 Z0.320 E0.01302 ; infill
G1 X110.122 Y116.502 Z0.320 E0.39413 ; infill
G1 X110.730 Y116.502 Z0.320 E0.01302 ; infill
G1 X97.727 Y103.498 Z0.320 E0.39413 ; infill
G1 X98.334 Y103.498 Z0.320 E0.01302 ; infill
G1 X111.337 Y116.502 Z0.320 E0.39413 ; infill
G1 X111.945 Y116.502 Z0.320 E0.01302 ; infill
G1 X98.942 Y103.498 Z0.320 E0.39413 ; infill
G1 X99.549 Y103.498 Z0.320 E0.01302 ; infill
G1 X112.553 Y116.502 Z0.320 E0.39413 ; infill
G1 X113.160 Y116.502 Z0.320 E0.01302 ; infill
G1 X100.157 Y103.498 Z0.320 E0.39413 ; infill
G1 X100.765 Y103.498 Z0.320 E0.01302 ; infill
G1 X113.768 Y116.502 Z0.320 E0.39413 ; infill
G1 X114.375 Y116.502 Z0.320 E0.01302 ; infill
G1 X101.372 Y103.498 Z0.320 E0.39413 ; infill
G1 X101.980 Y103.498 Z0.320 E0.01302 ; infill
G1 X114.983 Y116.502 Z0.320 E0.39413 ; infill
G1 X115.590 Y116.502 Z0.320 E0.01302 ; infill
G1 X102.587 Y103.498 Z0.320 E0.39413 ; infill
G1 X103.195 Y103.498 Z0.320 E0.01302 ; infill
G1 X116.198 Y116.502 Z0.320 E0.39413 ; infill
G1 X116.805 Y116.502 Z0.320 E0.01302 ; infill
G1 X103.802 Y103.498 Z0.320 E0.39413 ; infill
G1 X104.410 Y103.498 Z0.320 E0.01302 ; infill
G1 X117.413 Y116.502 Z0.320 E0.39413 ; infill
G1 X118.020 Y116.502 Z0.320 E0.01302 ; infill
G1 X105.017 Y103.498 Z0.320 E0.39413 ; infill
G1 X105.625 Y103.498 Z0.320 E0.01302 ; infill
G1 X118.628 Y116.502 Z0.320 E0.39413 ; infill
G1 X119.236 Y116.502 Z0.320 E0.01302 ; infill
G1 X106.232 Y103.498 Z0.320 E0.39413 ; infill
G1 X106.840 Y103.498 Z0.320 E0.01302 ; infill
G1 X119.843 Y116.502 Z0.320 E0.39413 ; infill
G1 X120.451 Y116.502 Z0.320 E0.01302 ; infill
G1 X107.448 Y103.498 Z0.320 E0.39413 ; infill
G1 X108.055 Y103.498 Z0.320 E0.01302 ; infill
G1 X121.058 Y116.502 Z0.320 E0.39413 ; infill
G1 X121.666 Y116.502 Z0.320 E0.01302 ; infill
G1 X108.663 Y103.498 Z0.320 E0.39413 ; infill
G1 X109.270 Y103.498 Z0.320 E0.01302 ; infill
G1 X122.273 Y116.502 Z0.320 E0.39413 ; infill
G1 X122.881 Y116.502 Z0.320 E0.01302 ; infill
G1 X109.878 Y103.498 Z0.320 E0.39413 ; infill
G1 X110.485 Y103.498 Z0.320 E0.01302 ; infill
G1 X123.488 Y116.502 Z0.320 E0.39413 ; infill
G1 X124.002 Y116.502 Z0.320 E0.01100 ; infill
G1 X124.002 Y116.502 Z0.320 E0.00000 ; infill
G1 X124.002 Y116.407 Z0.320 E0.00202 ; infill
G1 X111.093 Y103.498 Z0.320 E0.39127 ; infill
G1 X111.700 Y103.498 Z0.320 E0.01302 ; infill
G1 X124.002 Y115.800 Z0.320 E0.37286 ; infill
G1 X124.002 Y115.192 Z0.320 E0.01302 ; infill
G1 X112.308 Y103.498 Z0.320 E0.35444 ; infill
G1 X112.916 Y103.498 Z0.320 E0.01302 ; infill
G1 X124.002 Y114.584 Z0.320 E0.33603 ; infill
G1 X124.002 Y113.977 Z0.320 E0.01302 ; infill
G1 X113.523 Y103.498 Z0.320 E0.31761 ; infill
G1 X114.131 Y103.498 Z0.320 E0.01302 ; infill
G1 X124.002 Y113.369 Z0.320 E0.29919 ; infill
G1 X124.002 Y112.762 Z0.320 E0.01302 ; infill
G1 X114.738 Y103.498 Z0.320 E0.28078 ; infill
G1 X115.346 Y103.498 Z0.320 E0.01302 ; infill
G1 X124.002 Y112.154 Z0.320 E0.26236 ; infill
G1 X124.002 Y111.547 Z0.320 E0.01302 ; infill
G1 X115.953 Y103.498 Z0.320 E0.24395 ; infill
G1 X116.561 Y103.498 Z0.320 E0.01302 ; infill
G1 X124.002 Y110.939 Z0.320 E0.22553 ; infill
G1 X124.002 Y110.332 Z0.320 E0.01302 ; infill
G1 X117.168 Y103.498 Z0.320 E0.20712 ; infill
G1 X117.776 Y103.498 Z0.320 E0.01302 ; infill
G1 X124.002 Y109.724 Z0.320 E0.18870 ; infill
G1 X124.002 Y109.117 Z0.320 E0.01302 ; infill
G1 X118.383 Y103.498 Z0.320 E0.17029 ; infill
G1 X118.991 Y103.498 Z0.320 E0.01302 ; infill
G1 X124.002 Y108.509 Z0.320 E0.15187 ; infill
G1 X124.002 Y107.901 Z0.320 E0.01302 ; infill
G1 X119.599 Y103.498 Z0.320 E0.13346 ; infill
G1 X120.206 Y103.498 Z0.320 E0.01302 ; infill
G1 X124.002 Y107.294 Z0.320 E0.11504 ; infill
G1 X124.002 Y106.686 Z0.320 E0.01302 ; infill
G1 X120.814 Y103.498 Z0.320 E0.09663 ; infill
G1 X121.421 Y103.498 Z0.320 E0.01302 ; infill
G1 X124.002 Y106.079 Z0.320 E0.07821 ; infill
G1 X124.002 Y105.471 Z0.320 E0.01302 ; infill
G1 X122.029 Y103.498 Z0.320 E0.05980 ; infill
G1 X122.636 Y103.498 Z0.320 E0.01302 ; infill
G1 X124.002 Y104.864 Z0.320 E0.04138 ; infill
