; flipped by Team Print at 2021-02-18 16:59:23
; Used offset z = 3.0 mm

; generated by Slic3r 1.3.0-dev on 2021-02-18 at 16:47:00

; external perimeters extrusion width = 0.45mm (2.04mm^3/s)
; perimeters extrusion width = 0.45mm (4.07mm^3/s)
; infill extrusion width = 0.45mm (4.07mm^3/s)
; solid infill extrusion width = 0.45mm (1.53mm^3/s)
; top infill extrusion width = 0.40mm (0.90mm^3/s)

M109 S200 ;Heat nozzle to 200C
M190 S70 ;Heat nozzle to 70C
G28 ;Home all axes
M117 ; Purge extruder
G92 E0 ;Reset extruder
G1 Z2.0 F3000 ;Move Z Axis up
G1 X0.1 Y20 Z0.3 F5000.0 ; Move to start position
G1 X0.1 Y200.0 Z0.3 F1500.0 E15 ; Draw the first line
G1 X0.4 Y200.0 Z0.3 F5000.0 ; Move to side a little
G1 X0.4 Y20 Z0.3 F1500.0 E30 ; Draw the second line
G92 E0 ;Reset extruder
G1 Z1.0 F3000 ;Move z up little to prevent scratching of surface
; Filament gcode

G21 ; set units to millimeters
G90 ; use absolute coordinates
M83 ; use relative distances for extrusion
G1 Z30.000 F7800.000 ; move to next layer (57)
G1 E-5.00000 F2400.00000 ; retract extruder 0
G1 X103.149 Y109.419 F7800.000 ; move to first perimeter point
G1 E5.00000 F2400.00000 ; unretract extruder 0

G1 F4800
G1 X103.149 Y98.837 Z9.445 E0.57100 ; perimeter
G1 X103.689 Y98.837 Z9.445 E0.02820 ; perimeter
G1 X103.689 Y98.837 Z9.445 E0.00000 ; perimeter
G1 X116.851 Y98.837 Z9.445 E0.68764 ; perimeter
G1 X116.851 Y109.419 Z3.335 E0.57100 ; perimeter

G1 F4800
G1 X116.851 Y109.475 Z3.303 E0.00123 ; perimeter
G1 X116.851 Y110.000 Z3.000 E0.01147 ; perimeter
G1 X116.851 Y110.581 Z3.335 E0.01270 ; perimeter

G1 F4800
G1 X116.851 Y121.163 Z9.445 E0.57100 ; perimeter
G1 X116.311 Y121.163 Z9.445 E0.02820 ; perimeter
G1 X103.149 Y121.163 Z9.445 E0.68764 ; perimeter
G1 X103.149 Y110.581 Z3.335 E0.57100 ; perimeter

G1 F4800
G1 X103.149 Y110.525 Z3.303 E0.00123 ; perimeter
G1 X103.149 Y110.525 Z3.303 E0.00000 ; perimeter
G1 X103.149 Y110.000 Z3.000 E0.01147 ; perimeter
G1 X103.149 Y110.000 Z3.000 E0.00000 ; perimeter
G1 X103.149 Y109.471 Z3.335 E0.01169 ; perimeter
G1 E-5.00000 F2400.00000 ; retract extruder 0
G1 E5.00000 F2400.00000 ; unretract extruder 0

G1 F4800
G1 X103.164 Y98.412 Z9.690 E0.00000 ; perimeter
G1 X117.275 Y98.412 Z9.690 E0.73722 ; perimeter
G1 X117.275 Y109.419 Z3.335 E0.59389 ; perimeter

G1 F2400
G1 X117.275 Y109.818 Z3.105 E0.00873 ; perimeter
G1 X117.275 Y110.000 Z3.000 E0.00398 ; perimeter
G1 X117.275 Y110.581 Z3.335 E0.01270 ; perimeter

G1 F4800
G1 X117.275 Y121.588 Z9.690 E0.59389 ; perimeter
G1 X116.836 Y121.588 Z9.690 E0.02294 ; perimeter
G1 X116.836 Y121.588 Z9.690 E0.00000 ; perimeter
G1 X102.725 Y121.588 Z9.690 E0.73722 ; perimeter
G1 X102.725 Y110.581 Z3.335 E0.59389 ; perimeter

G1 F2400
G1 X102.725 Y110.182 Z3.105 E0.00873 ; perimeter
G1 X102.725 Y110.000 Z3.000 E0.00398 ; perimeter
G1 X102.725 Y109.419 Z3.335 E0.01270 ; perimeter

G1 F4800
G1 X102.725 Y98.412 Z9.690 E0.59389 ; perimeter
G1 X103.104 Y98.412 Z9.690 E0.01980 ; perimeter

G1 E-5.00000 F2400.00000 ; retract extruder 0
G1 X116.522 Y99.307 F7800.000 ; move to first infill point
G1 E5.00000 F2400.00000 ; unretract extruder 0
G1 F1200
G1 X116.381 Y99.165 Z9.255 E0.00377 ; infill
G1 X115.851 Y99.165 Z9.255 E0.00990 ; infill
G1 X116.522 Y99.836 Z8.868 E0.01792 ; infill
G1 X116.522 Y100.366 Z8.562 E0.01022 ; infill
G1 X115.321 Y99.165 Z9.255 E0.03206 ; infill
G1 X114.792 Y99.165 Z9.255 E0.00990 ; infill
G1 X116.522 Y100.896 Z8.256 E0.04620 ; infill
G1 X116.522 Y101.425 Z7.951 E0.01022 ; infill
G1 X114.262 Y99.165 Z9.255 E0.06035 ; infill
G1 X113.732 Y99.165 Z9.255 E0.00990 ; infill
G1 X116.522 Y101.955 Z7.645 E0.07449 ; infill
G1 X116.522 Y102.485 Z7.339 E0.01022 ; infill
G1 X113.203 Y99.165 Z9.255 E0.08864 ; infill
G1 X112.673 Y99.165 Z9.255 E0.00990 ; infill
G1 X116.522 Y103.015 Z7.033 E0.10278 ; infill
G1 X116.522 Y103.544 Z6.727 E0.01022 ; infill
G1 X112.143 Y99.165 Z9.255 E0.11692 ; infill
G1 X111.613 Y99.165 Z9.255 E0.00990 ; infill
G1 X116.522 Y104.074 Z6.421 E0.13107 ; infill
G1 X116.522 Y104.604 Z6.116 E0.01022 ; infill
G1 X111.084 Y99.165 Z9.255 E0.14521 ; infill
G1 X110.554 Y99.165 Z9.255 E0.00990 ; infill
G1 X116.522 Y105.133 Z5.810 E0.15935 ; infill
G1 X116.522 Y105.663 Z5.504 E0.01022 ; infill
G1 X110.024 Y99.165 Z9.255 E0.17350 ; infill
G1 X109.495 Y99.165 Z9.255 E0.00990 ; infill
G1 X116.522 Y106.193 Z5.198 E0.18764 ; infill
G1 X116.522 Y106.723 Z4.892 E0.01022 ; infill
G1 X108.965 Y99.165 Z9.255 E0.20179 ; infill
G1 X108.435 Y99.165 Z9.255 E0.00990 ; infill
G1 X116.522 Y107.252 Z4.586 E0.21593 ; infill
G1 X116.522 Y107.782 Z4.281 E0.01022 ; infill
G1 X107.905 Y99.165 Z9.255 E0.23007 ; infill
G1 X107.376 Y99.165 Z9.255 E0.00990 ; infill
G1 X116.522 Y108.312 Z3.975 E0.24422 ; infill
G1 X116.522 Y108.841 Z3.669 E0.01022 ; infill
G1 X106.846 Y99.165 Z9.255 E0.25836 ; infill
G1 X106.316 Y99.165 Z9.255 E0.00990 ; infill
G1 X115.680 Y108.529 Z3.849 E0.25002 ; infill
G1 X115.680 Y108.529 Z3.849 E0.00000 ; infill
G1 X116.522 Y109.371 Z3.363 E0.02249 ; infill
G1 X116.522 Y109.901 Z3.057 E0.01022 ; infill
G1 X112.917 Y106.295 Z5.139 E0.09626 ; infill
G1 X112.917 Y106.295 Z5.139 E0.00000 ; infill
G1 X105.787 Y99.165 Z9.255 E0.19038 ; infill
G1 X105.257 Y99.165 Z9.255 E0.00990 ; infill
G1 X110.154 Y104.062 Z6.428 E0.13075 ; infill
G1 X116.092 Y110.000 Z3.000 E0.15855 ; infill
G1 X116.522 Y110.430 Z3.249 E0.01149 ; infill
G1 X116.522 Y110.960 Z3.554 E0.01022 ; infill
G1 X115.562 Y110.000 Z3.000 E0.02564 ; infill
G1 X107.391 Y101.829 Z7.718 E0.21818 ; infill
G1 X107.391 Y101.829 Z7.718 E0.00000 ; infill
G1 X104.727 Y99.165 Z9.255 E0.07112 ; infill
G1 X104.198 Y99.165 Z9.255 E0.00990 ; infill
G1 X104.628 Y99.595 Z9.007 E0.01148 ; infill
G1 X104.628 Y99.595 Z9.007 E0.00000 ; infill
G1 X115.032 Y110.000 Z3.000 E0.27781 ; infill
G1 X116.522 Y111.490 Z3.860 E0.03978 ; infill
G1 X116.522 Y112.020 Z4.166 E0.01022 ; infill
G1 X114.503 Y110.000 Z3.000 E0.05393 ; infill
G1 X114.503 Y110.000 Z3.000 E0.00000 ; infill
G1 X103.668 Y99.165 Z9.255 E0.28930 ; infill
G1 X103.478 Y99.165 Z9.255 E0.00355 ; infill
G1 X103.478 Y99.165 Z9.255 E0.00000 ; infill
G1 X103.478 Y99.505 Z9.059 E0.00656 ; infill
G1 X113.973 Y110.000 Z3.000 E0.28023 ; infill
G1 X116.522 Y112.549 Z4.472 E0.06807 ; infill
G1 X116.522 Y113.079 Z4.778 E0.01022 ; infill
G1 X113.443 Y110.000 Z3.000 E0.08221 ; infill
G1 X113.443 Y110.000 Z3.000 E0.00000 ; infill
G1 X103.478 Y100.035 Z8.753 E0.26608 ; infill
G1 X103.478 Y100.564 Z8.448 E0.01022 ; infill
G1 X112.913 Y110.000 Z3.000 E0.25194 ; infill
G1 X116.522 Y113.609 Z5.083 E0.09636 ; infill
G1 X116.522 Y114.138 Z5.389 E0.01022 ; infill
G1 X112.384 Y110.000 Z3.000 E0.11050 ; infill
G1 X103.478 Y101.094 Z8.142 E0.23780 ; infill
G1 X103.478 Y101.624 Z7.836 E0.01022 ; infill
G1 X111.854 Y110.000 Z3.000 E0.22365 ; infill
G1 X116.522 Y114.668 Z5.695 E0.12464 ; infill
G1 X116.522 Y115.198 Z6.001 E0.01022 ; infill
G1 X111.324 Y110.000 Z3.000 E0.13879 ; infill
G1 X103.478 Y102.154 Z7.530 E0.20951 ; infill
G1 X103.478 Y102.683 Z7.224 E0.01022 ; infill
G1 X110.795 Y110.000 Z3.000 E0.19536 ; infill
G1 X116.522 Y115.728 Z6.307 E0.15293 ; infill
G1 X116.522 Y116.257 Z6.613 E0.01022 ; infill
G1 X110.265 Y110.000 Z3.000 E0.16708 ; infill
G1 X103.478 Y103.213 Z6.918 E0.18122 ; infill
G1 X103.478 Y103.743 Z6.613 E0.01022 ; infill
G1 X109.735 Y110.000 Z3.000 E0.16708 ; infill
G1 X116.522 Y116.787 Z6.918 E0.18122 ; infill
G1 X116.522 Y117.317 Z7.224 E0.01022 ; infill
G1 X109.205 Y110.000 Z3.000 E0.19536 ; infill
G1 X109.205 Y110.000 Z3.000 E0.00000 ; infill
G1 X103.478 Y104.272 Z6.307 E0.15293 ; infill
G1 X103.478 Y104.802 Z6.001 E0.01022 ; infill
G1 X108.676 Y110.000 Z3.000 E0.13879 ; infill
G1 X116.522 Y117.846 Z7.530 E0.20951 ; infill
G1 X116.522 Y118.376 Z7.836 E0.01022 ; infill
G1 X108.146 Y110.000 Z3.000 E0.22365 ; infill
G1 X108.146 Y110.000 Z3.000 E0.00000 ; infill
G1 X103.478 Y105.332 Z5.695 E0.12464 ; infill
G1 X103.478 Y105.862 Z5.389 E0.01022 ; infill
G1 X107.616 Y110.000 Z3.000 E0.11050 ; infill
G1 X116.522 Y118.906 Z8.142 E0.23779 ; infill
G1 X116.522 Y119.435 Z8.448 E0.01022 ; infill
G1 X107.087 Y110.000 Z3.000 E0.25194 ; infill
G1 X103.478 Y106.391 Z5.084 E0.09636 ; infill
G1 X103.478 Y106.921 Z4.778 E0.01022 ; infill
G1 X106.557 Y110.000 Z3.000 E0.08221 ; infill
G1 X116.522 Y119.965 Z8.753 E0.26608 ; infill
G1 X116.522 Y120.495 Z9.059 E0.01022 ; infill
G1 X106.027 Y110.000 Z3.000 E0.28023 ; infill
G1 X103.478 Y107.451 Z4.472 E0.06807 ; infill
G1 X103.478 Y107.980 Z4.166 E0.01022 ; infill
G1 X105.497 Y110.000 Z3.000 E0.05393 ; infill
G1 X105.498 Y110.000 Z3.000 E0.00000 ; infill
G1 X116.332 Y120.835 Z9.255 E0.28930 ; infill
G1 X115.904 Y120.835 Z9.255 E0.00799 ; infill
G1 X115.904 Y120.835 Z9.255 E0.00000 ; infill
G1 X115.802 Y120.835 Z9.255 E0.00191 ; infill
G1 X115.373 Y120.405 Z9.007 E0.01148 ; infill
G1 X115.373 Y120.405 Z9.007 E0.00000 ; infill
G1 X104.968 Y110.000 Z3.000 E0.27782 ; infill
G1 X103.478 Y108.510 Z3.860 E0.03978 ; infill
G1 X103.478 Y109.040 Z3.554 E0.01022 ; infill
G1 X104.438 Y110.000 Z3.000 E0.02564 ; infill
G1 X112.609 Y118.171 Z7.718 E0.21819 ; infill
G1 X112.609 Y118.171 Z7.718 E0.00000 ; infill
G1 X115.273 Y120.835 Z9.255 E0.07111 ; infill
G1 X114.743 Y120.835 Z9.255 E0.00990 ; infill
G1 X109.846 Y115.938 Z6.428 E0.13075 ; infill
G1 X103.908 Y110.000 Z3.000 E0.15855 ; infill
G1 X103.478 Y109.570 Z3.249 E0.01149 ; infill
G1 X103.478 Y110.000 Z3.000 E0.00831 ; infill
G1 X103.478 Y110.000 Z3.000 E0.00000 ; infill
G1 X103.478 Y110.099 Z3.057 E0.00191 ; infill
G1 X107.083 Y113.705 Z5.139 E0.09627 ; infill
G1 X107.083 Y113.705 Z5.139 E0.00000 ; infill
G1 X114.213 Y120.835 Z9.255 E0.19038 ; infill
G1 X113.684 Y120.835 Z9.255 E0.00990 ; infill
G1 X104.320 Y111.471 Z3.849 E0.25001 ; infill
G1 X103.478 Y110.629 Z3.363 E0.02249 ; infill
G1 X103.478 Y110.790 Z3.456 E0.00312 ; infill
G1 X103.478 Y111.159 Z3.669 E0.00711 ; infill
G1 X113.154 Y120.835 Z9.255 E0.25836 ; infill
G1 X112.624 Y120.835 Z9.255 E0.00990 ; infill
G1 X103.478 Y111.688 Z3.975 E0.24422 ; infill
G1 X103.478 Y112.218 Z4.281 E0.01022 ; infill
G1 X112.095 Y120.835 Z9.255 E0.23007 ; infill
G1 X111.565 Y120.835 Z9.255 E0.00990 ; infill
G1 X103.478 Y112.748 Z4.586 E0.21593 ; infill
G1 X103.478 Y113.277 Z4.892 E0.01022 ; infill
G1 X111.035 Y120.835 Z9.255 E0.20179 ; infill
G1 X110.505 Y120.835 Z9.255 E0.00990 ; infill
G1 X103.478 Y113.807 Z5.198 E0.18764 ; infill
G1 X103.478 Y114.337 Z5.504 E0.01022 ; infill
G1 X109.976 Y120.835 Z9.255 E0.17350 ; infill
G1 X109.446 Y120.835 Z9.255 E0.00990 ; infill
G1 X103.478 Y114.867 Z5.810 E0.15936 ; infill
G1 X103.478 Y115.396 Z6.116 E0.01022 ; infill
G1 X108.916 Y120.835 Z9.255 E0.14521 ; infill
G1 X108.387 Y120.835 Z9.255 E0.00990 ; infill
G1 X103.478 Y115.926 Z6.421 E0.13107 ; infill
G1 X103.478 Y116.456 Z6.727 E0.01022 ; infill
G1 X107.857 Y120.835 Z9.255 E0.11692 ; infill
G1 X107.327 Y120.835 Z9.255 E0.00990 ; infill
G1 X103.478 Y116.985 Z7.033 E0.10278 ; infill
G1 X103.478 Y117.515 Z7.339 E0.01022 ; infill
G1 X106.797 Y120.835 Z9.255 E0.08864 ; infill
G1 X106.268 Y120.835 Z9.255 E0.00990 ; infill
G1 X103.478 Y118.045 Z7.645 E0.07449 ; infill
G1 X103.478 Y118.575 Z7.951 E0.01022 ; infill
G1 X105.738 Y120.835 Z9.255 E0.06035 ; infill
G1 X105.208 Y120.835 Z9.255 E0.00990 ; infill
G1 X103.478 Y119.104 Z8.256 E0.04620 ; infill
G1 X103.478 Y119.634 Z8.562 E0.01022 ; infill
G1 X104.679 Y120.835 Z9.255 E0.03206 ; infill
G1 X104.149 Y120.835 Z9.255 E0.00990 ; infill
G1 X103.478 Y120.164 Z8.868 E0.01792 ; infill
G1 X103.478 Y120.693 Z9.174 E0.01022 ; infill
G1 X103.619 Y120.835 Z9.255 E0.00377 ; infill
G1 X103.619 Y120.835 Z9.255 E0.00000 ; infill
G1 X103.619 Y120.835 Z9.255 E0.00000 ; infill
G1 X103.619 Y120.835 Z9.255 E0.00000 ; infill
G1 E-5.00000 F2400.00000 ; retract extruder 0
G1 X102.725 Y109.844 Z3.240 F7800.000 ; move to first perimeter point
G1 F1200
G1 X117.275 Y109.844 Z3.240 E0.30796 ; perimeter
G1 X117.275 Y110.156 Z3.240 E0.00661 ; perimeter
G1 X102.725 Y110.156 Z3.240 E0.30796 ; perimeter
G1 X102.725 Y109.904 Z3.240 E0.00534 ; perimeter
G1 X103.125 Y109.847 F7800.000 ; move inwards before travel
G1 Z3.360 F7800.000 ; move to next layer (54)
G1 X102.725 Y109.636 Z3.360 F7800.000 ; move to first perimeter point
G1 F1200
G1 X117.275 Y109.636 Z3.360 E0.30796 ; perimeter
G1 X117.275 Y110.364 Z3.360 E0.01540 ; perimeter
G1 X102.725 Y110.364 Z3.360 E0.30796 ; perimeter
G1 X102.725 Y109.696 Z3.360 E0.01413 ; perimeter
G1 X103.125 Y109.643 F7800.000 ; move inwards before travel
G1 X102.937 Y110.000 Z3.360 F7800.000 ; move to first infill point
G1 F1800
G1 X117.063 Y110.000 Z3.360 E0.19579 ; infill
G1 Z3.480 F7800.000 ; move to next layer (53)
G1 X103.149 Y109.852 Z3.480 F7800.000 ; move to first perimeter point
G1 F1200
G1 X116.851 Y109.852 Z3.480 E0.29000 ; perimeter
G1 X116.851 Y110.148 Z3.480 E0.00624 ; perimeter
G1 X103.149 Y110.148 Z3.480 E0.29000 ; perimeter
G1 X103.149 Y109.912 Z3.480 E0.00497 ; perimeter
G1 X102.725 Y109.428 Z3.480 F7800.000 ; move to first perimeter point
G1 F1200
G1 X117.275 Y109.428 Z3.480 E0.30796 ; perimeter
G1 X117.275 Y110.572 Z3.480 E0.02420 ; perimeter
G1 X102.725 Y110.572 Z3.480 E0.30796 ; perimeter
G1 X102.725 Y109.488 Z3.480 E0.02293 ; perimeter
G1 X103.125 Y109.439 F7800.000 ; move inwards before travel
G1 Z3.600 F7800.000 ; move to next layer (52)
G1 X103.149 Y109.645 Z3.600 F7800.000 ; move to first perimeter point
G1 F1200
G1 X116.851 Y109.645 Z3.600 E0.29000 ; perimeter
G1 X116.851 Y110.355 Z3.600 E0.01504 ; perimeter
G1 X103.149 Y110.355 Z3.600 E0.29000 ; perimeter
G1 X103.149 Y109.705 Z3.600 E0.01377 ; perimeter
G1 X102.725 Y109.220 Z3.600 F7800.000 ; move to first perimeter point
G1 F1200
G1 X117.275 Y109.220 Z3.600 E0.30796 ; perimeter
G1 X117.275 Y110.780 Z3.600 E0.03300 ; perimeter
G1 X102.725 Y110.780 Z3.600 E0.30796 ; perimeter
G1 X102.725 Y109.280 Z3.600 E0.03173 ; perimeter
G1 X103.125 Y109.235 F7800.000 ; move inwards before travel
G1 X103.361 Y110.000 Z3.600 F7800.000 ; move to first infill point
G1 F1800
G1 X116.639 Y110.000 Z3.600 E0.17270 ; infill
G1 Z3.720 F7800.000 ; move to next layer (51)
G1 X103.149 Y109.437 Z3.720 F7800.000 ; move to first perimeter point
G1 F1200
G1 X116.851 Y109.437 Z3.720 E0.29000 ; perimeter
G1 X116.851 Y110.563 Z3.720 E0.02384 ; perimeter
G1 X103.149 Y110.563 Z3.720 E0.29000 ; perimeter
G1 X103.149 Y109.497 Z3.720 E0.02257 ; perimeter
G1 X102.725 Y109.013 Z3.720 F7800.000 ; move to first perimeter point
G1 F1200
G1 X117.275 Y109.013 Z3.720 E0.30796 ; perimeter
G1 X117.275 Y110.987 Z3.720 E0.04180 ; perimeter
G1 X102.725 Y110.987 Z3.720 E0.30796 ; perimeter
G1 X102.725 Y109.073 Z3.720 E0.04053 ; perimeter
G1 X103.125 Y109.031 F7800.000 ; move inwards before travel
G1 X103.648 Y110.214 Z3.720 F7800.000 ; move to first infill point
G1 F1800
G1 X103.648 Y110.214 Z3.720 E0.00000 ; infill
G1 X103.648 Y110.214 Z3.720 E0.00000 ; infill
G1 X103.649 Y110.214 Z3.720 E0.00000 ; infill
G1 X103.498 Y110.064 Z3.720 E0.00468 ; infill
G1 X103.498 Y109.786 Z3.720 E0.00613 ; infill
G1 X103.498 Y109.786 Z3.720 E0.00000 ; infill
G1 X103.846 Y109.786 Z3.720 E0.00767 ; infill
G1 X104.274 Y110.214 Z3.720 E0.01335 ; infill
G1 X104.899 Y110.214 Z3.720 E0.01379 ; infill
G1 X104.471 Y109.786 Z3.720 E0.01335 ; infill
G1 X105.097 Y109.786 Z3.720 E0.01379 ; infill
G1 X105.524 Y110.214 Z3.720 E0.01335 ; infill
G1 X106.150 Y110.214 Z3.720 E0.01379 ; infill
G1 X105.722 Y109.786 Z3.720 E0.01335 ; infill
G1 X106.347 Y109.786 Z3.720 E0.01379 ; infill
G1 X106.775 Y110.214 Z3.720 E0.01335 ; infill
G1 X107.400 Y110.214 Z3.720 E0.01379 ; infill
G1 X106.972 Y109.786 Z3.720 E0.01335 ; infill
G1 X107.598 Y109.786 Z3.720 E0.01379 ; infill
G1 X108.026 Y110.214 Z3.720 E0.01335 ; infill
G1 X108.651 Y110.214 Z3.720 E0.01379 ; infill
G1 X108.223 Y109.786 Z3.720 E0.01335 ; infill
G1 X108.848 Y109.786 Z3.720 E0.01379 ; infill
G1 X109.276 Y110.214 Z3.720 E0.01335 ; infill
G1 X109.901 Y110.214 Z3.720 E0.01379 ; infill
G1 X109.473 Y109.786 Z3.720 E0.01335 ; infill
G1 X110.099 Y109.786 Z3.720 E0.01379 ; infill
