; flipped by Team Print at 2021-02-02 17:06:07
; Used offset z = 6.5 mm

; generated by Slic3r 1.3.0-dev on 2021-02-02 at 16:52:50

; external perimeters extrusion width = 0.45mm (2.04mm^3/s)
; perimeters extrusion width = 0.45mm (4.07mm^3/s)
; infill extrusion width = 0.45mm (4.07mm^3/s)
; solid infill extrusion width = 0.45mm (1.53mm^3/s)
; top infill extrusion width = 0.40mm (0.90mm^3/s)

M109 S200 ;Heat nozzle to 200C
M190 S70 ;Heat nozzle to 70C
G28 ;Home all axes
M117 ; Purge extruder
G92 E0 ;Reset extruder
G1 Z2.0 F3000 ;Move Z Axis up
G1 X0.1 Y20 Z0.3 F5000.0 ; Move to start position
G1 X0.1 Y200.0 Z0.3 F1500.0 E15 ; Draw the first line
G1 X0.4 Y200.0 Z0.3 F5000.0 ; Move to side a little
G1 X0.4 Y20 Z0.3 F1500.0 E30 ; Draw the second line
G92 E0 ;Reset extruder
G1 Z1.0 F3000 ;Move z up little to prevent scratching of surface
; Filament gcode

G21 ; set units to millimeters
G90 ; use absolute coordinates
M83 ; use relative distances for extrusion
G1 Z6.500 F7800.000 ; move to next layer (28)
G1 E-5.00000 F2400.00000 ; retract extruder 0
G1 X100 Z20 ;
G1 X111.687 Y103.846 F7800.000 ; move to first perimeter point
G1 E5.00000 F2400.00000 ; unretract extruder 0

G1 F4800
G1 X111.687 Y103.846 Z8.864 E0.00000 ; perimeter
G1 X111.864 Y103.897 Z8.864 E0.00961 ; perimeter
G1 X111.864 Y103.897 Z8.864 E0.00000 ; perimeter
G1 X111.869 Y103.899 Z8.864 E0.00027 ; perimeter
G1 X112.041 Y103.954 Z8.864 E0.00948 ; perimeter
G1 X112.044 Y103.955 Z8.864 E0.00013 ; perimeter
G1 X112.049 Y103.957 Z8.864 E0.00027 ; perimeter
G1 X112.199 Y104.010 Z8.864 E0.00835 ; perimeter
G1 X112.221 Y104.018 Z8.864 E0.00123 ; perimeter
G1 X112.222 Y104.018 Z8.864 E0.00003 ; perimeter
G1 X112.227 Y104.020 Z8.864 E0.00027 ; perimeter
G1 X112.325 Y104.058 Z8.864 E0.00552 ; perimeter
G1 X112.397 Y104.086 Z8.864 E0.00402 ; perimeter
G1 X112.398 Y104.087 Z8.864 E0.00006 ; perimeter
G1 X112.403 Y104.089 Z8.864 E0.00027 ; perimeter
G1 X112.572 Y104.160 Z8.864 E0.00961 ; perimeter
G1 X112.572 Y104.160 Z8.864 E0.00001 ; perimeter
G1 X112.577 Y104.163 Z8.864 E0.00026 ; perimeter
G1 X112.596 Y104.171 Z8.864 E0.00108 ; perimeter
G1 X112.744 Y104.239 Z8.864 E0.00852 ; perimeter
G1 X112.744 Y104.239 Z8.864 E0.00001 ; perimeter
G1 X112.749 Y104.241 Z8.864 E0.00027 ; perimeter
G1 X112.912 Y104.322 Z8.864 E0.00948 ; perimeter
G1 X112.914 Y104.323 Z8.864 E0.00013 ; perimeter
G1 X112.918 Y104.326 Z8.864 E0.00027 ; perimeter
G1 X113.081 Y104.412 Z8.864 E0.00961 ; perimeter
G1 X113.081 Y104.412 Z8.864 E0.00001 ; perimeter
G1 X113.085 Y104.414 Z8.864 E0.00026 ; perimeter
G1 X113.233 Y104.499 Z8.864 E0.00890 ; perimeter
G1 X113.245 Y104.506 Z8.864 E0.00071 ; perimeter
G1 X113.245 Y104.506 Z8.864 E0.00000 ; perimeter
G1 X113.249 Y104.508 Z8.864 E0.00027 ; perimeter
G1 X113.406 Y104.604 Z8.864 E0.00961 ; perimeter
G1 X113.407 Y104.605 Z8.864 E0.00004 ; perimeter
G1 X113.411 Y104.607 Z8.864 E0.00023 ; perimeter
G1 X113.564 Y104.707 Z8.864 E0.00959 ; perimeter
G1 X113.565 Y104.708 Z8.864 E0.00002 ; perimeter
G1 X113.569 Y104.710 Z8.864 E0.00027 ; perimeter
G1 X113.700 Y104.801 Z8.864 E0.00831 ; perimeter
G1 X113.720 Y104.815 Z8.864 E0.00130 ; perimeter
G1 X113.720 Y104.816 Z8.864 E0.00001 ; perimeter
G1 X113.724 Y104.819 Z8.864 E0.00026 ; perimeter
G1 X113.872 Y104.928 Z8.864 E0.00961 ; perimeter
G1 X113.872 Y104.928 Z8.864 E0.00001 ; perimeter
G1 X113.876 Y104.931 Z8.864 E0.00026 ; perimeter
G1 X114.019 Y105.044 Z8.864 E0.00952 ; perimeter
G1 X114.021 Y105.045 Z8.864 E0.00009 ; perimeter
G1 X114.025 Y105.048 Z8.864 E0.00027 ; perimeter
G1 X114.166 Y105.166 Z8.864 E0.00960 ; perimeter
G1 X114.166 Y105.166 Z8.864 E0.00000 ; perimeter
G1 X114.170 Y105.170 Z8.864 E0.00027 ; perimeter
G1 X114.307 Y105.292 Z8.864 E0.00961 ; perimeter
G1 X114.307 Y105.292 Z8.864 E0.00000 ; perimeter
G1 X114.311 Y105.295 Z8.864 E0.00027 ; perimeter
G1 X114.445 Y105.421 Z8.864 E0.00961 ; perimeter
G1 X114.445 Y105.422 Z8.864 E0.00000 ; perimeter
G1 X114.448 Y105.425 Z8.864 E0.00027 ; perimeter
G1 X114.578 Y105.555 Z8.864 E0.00957 ; perimeter
G1 X114.578 Y105.555 Z8.864 E0.00004 ; perimeter
G1 X114.582 Y105.559 Z8.864 E0.00027 ; perimeter
G1 X114.708 Y105.693 Z8.864 E0.00961 ; perimeter
G1 X114.708 Y105.693 Z8.864 E0.00000 ; perimeter
G1 X114.712 Y105.697 Z8.864 E0.00027 ; perimeter
G1 X114.834 Y105.834 Z8.864 E0.00961 ; perimeter
G1 X114.834 Y105.835 Z8.864 E0.00003 ; perimeter
G1 X114.837 Y105.838 Z8.864 E0.00024 ; perimeter
G1 X114.953 Y105.977 Z8.864 E0.00946 ; perimeter
G1 X114.955 Y105.979 Z8.864 E0.00015 ; perimeter
G1 X114.958 Y105.984 Z8.864 E0.00027 ; perimeter
G1 X115.072 Y106.128 Z8.864 E0.00961 ; perimeter
G1 X115.072 Y106.128 Z8.864 E0.00001 ; perimeter
G1 X115.075 Y106.132 Z8.864 E0.00026 ; perimeter
G1 X115.184 Y106.279 Z8.864 E0.00957 ; perimeter
G1 X115.185 Y106.280 Z8.864 E0.00004 ; perimeter
G1 X115.188 Y106.284 Z8.864 E0.00027 ; perimeter
G1 X115.291 Y106.433 Z8.864 E0.00947 ; perimeter
G1 X115.293 Y106.435 Z8.864 E0.00014 ; perimeter
G1 X115.293 Y106.435 Z8.864 E0.00000 ; perimeter
G1 X115.295 Y106.440 Z8.864 E0.00027 ; perimeter
G1 X115.396 Y106.594 Z8.864 E0.00961 ; perimeter
G1 X115.396 Y106.594 Z8.864 E0.00004 ; perimeter
G1 X115.399 Y106.598 Z8.864 E0.00023 ; perimeter
G1 X115.494 Y106.754 Z8.864 E0.00956 ; perimeter
G1 X115.494 Y106.755 Z8.864 E0.00005 ; perimeter
G1 X115.497 Y106.760 Z8.864 E0.00027 ; perimeter
G1 X115.561 Y106.871 Z8.864 E0.00672 ; perimeter
G1 X115.588 Y106.919 Z8.864 E0.00287 ; perimeter
G1 X115.588 Y106.919 Z8.864 E0.00002 ; perimeter
G1 X115.591 Y106.924 Z8.864 E0.00027 ; perimeter
G1 X115.677 Y107.086 Z8.864 E0.00957 ; perimeter
G1 X115.677 Y107.086 Z8.864 E0.00004 ; perimeter
G1 X115.679 Y107.091 Z8.864 E0.00027 ; perimeter
G1 X115.761 Y107.256 Z8.864 E0.00961 ; perimeter
G1 X115.761 Y107.256 Z8.864 E0.00000 ; perimeter
G1 X115.763 Y107.260 Z8.864 E0.00027 ; perimeter
G1 X115.839 Y107.426 Z8.864 E0.00951 ; perimeter
G1 X115.840 Y107.428 Z8.864 E0.00010 ; perimeter
G1 X115.842 Y107.432 Z8.864 E0.00027 ; perimeter
G1 X115.913 Y107.602 Z8.864 E0.00960 ; perimeter
G1 X115.913 Y107.602 Z8.864 E0.00001 ; perimeter
G1 X115.915 Y107.607 Z8.864 E0.00027 ; perimeter
G1 X115.977 Y107.766 Z8.864 E0.00892 ; perimeter
G1 X115.982 Y107.778 Z8.864 E0.00066 ; perimeter
G1 X115.982 Y107.778 Z8.864 E0.00003 ; perimeter
G1 X115.983 Y107.783 Z8.864 E0.00027 ; perimeter
G1 X116.045 Y107.955 Z8.864 E0.00955 ; perimeter
G1 X116.045 Y107.956 Z8.864 E0.00006 ; perimeter
G1 X116.047 Y107.961 Z8.864 E0.00027 ; perimeter
G1 X116.102 Y108.135 Z8.864 E0.00952 ; perimeter
G1 X116.103 Y108.136 Z8.864 E0.00008 ; perimeter
G1 X116.104 Y108.141 Z8.864 E0.00027 ; perimeter
G1 X116.155 Y108.317 Z8.864 E0.00955 ; perimeter
G1 X116.155 Y108.318 Z8.864 E0.00006 ; perimeter
G1 X116.157 Y108.323 Z8.864 E0.00027 ; perimeter
G1 X116.202 Y108.498 Z8.864 E0.00944 ; perimeter
G1 X116.203 Y108.501 Z8.864 E0.00016 ; perimeter
G1 X116.203 Y108.501 Z8.864 E0.00001 ; perimeter
G1 X116.204 Y108.506 Z8.864 E0.00027 ; perimeter
G1 X116.205 Y108.510 Z8.864 E0.00019 ; perimeter
G1 X116.244 Y108.686 Z8.864 E0.00941 ; perimeter
G1 X116.244 Y108.686 Z8.864 E0.00000 ; perimeter
G1 X116.245 Y108.691 Z8.864 E0.00027 ; perimeter
G1 X116.280 Y108.871 Z8.864 E0.00961 ; perimeter
G1 X116.281 Y108.872 Z8.864 E0.00005 ; perimeter
G1 X116.281 Y108.876 Z8.864 E0.00022 ; perimeter
G1 X116.311 Y109.058 Z8.864 E0.00960 ; perimeter
G1 X116.311 Y109.058 Z8.864 E0.00001 ; perimeter
G1 X116.311 Y109.058 Z8.864 E0.00000 ; perimeter
G1 X116.312 Y109.063 Z8.864 E0.00027 ; perimeter
G1 X116.336 Y109.245 Z8.864 E0.00961 ; perimeter
G1 X116.336 Y109.246 Z8.864 E0.00003 ; perimeter
G1 X116.337 Y109.250 Z8.864 E0.00024 ; perimeter
G1 X116.356 Y109.433 Z8.864 E0.00961 ; perimeter
G1 X116.356 Y109.434 Z8.864 E0.00002 ; perimeter
G1 X116.356 Y109.439 Z8.864 E0.00025 ; perimeter
G1 X116.370 Y109.622 Z8.864 E0.00959 ; perimeter
G1 X116.370 Y109.622 Z8.864 E0.00002 ; perimeter
G1 X116.370 Y109.627 Z8.864 E0.00027 ; perimeter
G1 X116.378 Y109.798 Z8.864 E0.00893 ; perimeter
G1 X116.378 Y109.810 Z8.864 E0.00065 ; perimeter
G1 X116.378 Y109.811 Z8.864 E0.00002 ; perimeter
G1 X116.378 Y109.816 Z8.864 E0.00027 ; perimeter
G1 X116.380 Y109.950 Z8.864 E0.00698 ; perimeter
G1 X116.381 Y109.999 Z8.864 E0.00259 ; perimeter
G1 X116.381 Y110.000 Z8.864 E0.00004 ; perimeter
G1 X116.381 Y110.005 Z8.864 E0.00027 ; perimeter
G1 X116.378 Y110.188 Z8.864 E0.00957 ; perimeter
G1 X116.378 Y110.189 Z8.864 E0.00004 ; perimeter
G1 X116.378 Y110.194 Z8.864 E0.00027 ; perimeter
G1 X116.371 Y110.354 Z8.864 E0.00834 ; perimeter
G1 X116.370 Y110.376 Z8.864 E0.00118 ; perimeter
G1 X116.370 Y110.378 Z8.864 E0.00008 ; perimeter
G1 X116.369 Y110.383 Z8.864 E0.00027 ; perimeter
G1 X116.359 Y110.530 Z8.864 E0.00770 ; perimeter
G1 X116.356 Y110.567 Z8.864 E0.00190 ; perimeter
G1 X116.356 Y110.567 Z8.864 E0.00003 ; perimeter
G1 X116.355 Y110.572 Z8.864 E0.00025 ; perimeter
G1 X116.354 Y110.584 Z8.864 E0.00065 ; perimeter
G1 X116.336 Y110.755 Z8.864 E0.00895 ; perimeter
G1 X116.336 Y110.755 Z8.864 E0.00001 ; perimeter
G1 X116.336 Y110.760 Z8.864 E0.00026 ; perimeter
G1 X116.311 Y110.942 Z8.864 E0.00958 ; perimeter
G1 X116.311 Y110.942 Z8.864 E0.00003 ; perimeter
G1 X116.310 Y110.947 Z8.864 E0.00027 ; perimeter
G1 X116.280 Y111.129 Z8.864 E0.00961 ; perimeter
G1 X116.280 Y111.129 Z8.864 E0.00000 ; perimeter
G1 X116.279 Y111.134 Z8.864 E0.00027 ; perimeter
G1 X116.244 Y111.314 Z8.864 E0.00961 ; perimeter
G1 X116.244 Y111.315 Z8.864 E0.00001 ; perimeter
G1 X116.243 Y111.319 Z8.864 E0.00026 ; perimeter
G1 X116.203 Y111.498 Z8.864 E0.00959 ; perimeter
G1 X116.203 Y111.499 Z8.864 E0.00002 ; perimeter
G1 X116.201 Y111.504 Z8.864 E0.00027 ; perimeter
G1 X116.155 Y111.682 Z8.864 E0.00960 ; perimeter
G1 X116.155 Y111.682 Z8.864 E0.00000 ; perimeter
G1 X116.154 Y111.687 Z8.864 E0.00027 ; perimeter
G1 X116.154 Y111.687 Z8.864 E0.00000 ; perimeter
G1 X116.103 Y111.864 Z8.864 E0.00961 ; perimeter
G1 X116.103 Y111.864 Z8.864 E0.00000 ; perimeter
G1 X116.101 Y111.869 Z8.864 E0.00027 ; perimeter
G1 X116.046 Y112.041 Z8.864 E0.00948 ; perimeter
G1 X116.045 Y112.044 Z8.864 E0.00013 ; perimeter
G1 X116.043 Y112.049 Z8.864 E0.00027 ; perimeter
G1 X115.982 Y112.222 Z8.864 E0.00959 ; perimeter
G1 X115.982 Y112.222 Z8.864 E0.00002 ; perimeter
G1 X115.980 Y112.227 Z8.864 E0.00027 ; perimeter
G1 X115.914 Y112.398 Z8.864 E0.00958 ; perimeter
G1 X115.913 Y112.398 Z8.864 E0.00003 ; perimeter
G1 X115.911 Y112.403 Z8.864 E0.00027 ; perimeter
G1 X115.840 Y112.572 Z8.864 E0.00961 ; perimeter
G1 X115.840 Y112.572 Z8.864 E0.00000 ; perimeter
G1 X115.837 Y112.577 Z8.864 E0.00027 ; perimeter
G1 X115.761 Y112.744 Z8.864 E0.00961 ; perimeter
G1 X115.761 Y112.744 Z8.864 E0.00000 ; perimeter
G1 X115.759 Y112.749 Z8.864 E0.00027 ; perimeter
G1 X115.678 Y112.912 Z8.864 E0.00949 ; perimeter
G1 X115.677 Y112.914 Z8.864 E0.00012 ; perimeter
G1 X115.674 Y112.918 Z8.864 E0.00027 ; perimeter
G1 X115.588 Y113.081 Z8.864 E0.00961 ; perimeter
G1 X115.588 Y113.081 Z8.864 E0.00001 ; perimeter
G1 X115.586 Y113.085 Z8.864 E0.00026 ; perimeter
G1 X115.501 Y113.233 Z8.864 E0.00890 ; perimeter
G1 X115.494 Y113.245 Z8.864 E0.00070 ; perimeter
G1 X115.494 Y113.245 Z8.864 E0.00001 ; perimeter
G1 X115.492 Y113.249 Z8.864 E0.00027 ; perimeter
G1 X115.396 Y113.406 Z8.864 E0.00961 ; perimeter
G1 X115.395 Y113.407 Z8.864 E0.00004 ; perimeter
G1 X115.393 Y113.411 Z8.864 E0.00023 ; perimeter
G1 X115.292 Y113.565 Z8.864 E0.00961 ; perimeter
G1 X115.292 Y113.565 Z8.864 E0.00001 ; perimeter
G1 X115.290 Y113.569 Z8.864 E0.00026 ; perimeter
G1 X115.190 Y113.712 Z8.864 E0.00909 ; perimeter
G1 X115.185 Y113.720 Z8.864 E0.00050 ; perimeter
G1 X115.185 Y113.720 Z8.864 E0.00002 ; perimeter
G1 X115.181 Y113.724 Z8.864 E0.00027 ; perimeter
G1 X115.074 Y113.869 Z8.864 E0.00943 ; perimeter
G1 X115.072 Y113.872 Z8.864 E0.00017 ; perimeter
G1 X115.072 Y113.872 Z8.864 E0.00001 ; perimeter
G1 X115.069 Y113.876 Z8.864 E0.00027 ; perimeter
G1 X114.956 Y114.019 Z8.864 E0.00951 ; perimeter
G1 X114.955 Y114.021 Z8.864 E0.00010 ; perimeter
G1 X114.952 Y114.025 Z8.864 E0.00027 ; perimeter
G1 X114.834 Y114.166 Z8.864 E0.00960 ; perimeter
G1 X114.834 Y114.166 Z8.864 E0.00001 ; perimeter
G1 X114.830 Y114.170 Z8.864 E0.00027 ; perimeter
G1 X114.708 Y114.307 Z8.864 E0.00961 ; perimeter
G1 X114.708 Y114.307 Z8.864 E0.00000 ; perimeter
G1 X114.705 Y114.311 Z8.864 E0.00027 ; perimeter
G1 X114.579 Y114.445 Z8.864 E0.00960 ; perimeter
G1 X114.578 Y114.445 Z8.864 E0.00000 ; perimeter
G1 X114.575 Y114.448 Z8.864 E0.00027 ; perimeter
G1 X114.445 Y114.578 Z8.864 E0.00959 ; perimeter
G1 X114.445 Y114.578 Z8.864 E0.00002 ; perimeter
G1 X114.441 Y114.582 Z8.864 E0.00027 ; perimeter
G1 X114.307 Y114.708 Z8.864 E0.00961 ; perimeter
G1 X114.307 Y114.708 Z8.864 E0.00000 ; perimeter
G1 X114.303 Y114.712 Z8.864 E0.00027 ; perimeter
G1 X114.166 Y114.834 Z8.864 E0.00961 ; perimeter
G1 X114.165 Y114.834 Z8.864 E0.00003 ; perimeter
G1 X114.162 Y114.837 Z8.864 E0.00024 ; perimeter
G1 X114.023 Y114.953 Z8.864 E0.00945 ; perimeter
G1 X114.021 Y114.955 Z8.864 E0.00016 ; perimeter
G1 X114.016 Y114.958 Z8.864 E0.00028 ; perimeter
G1 X113.872 Y115.072 Z8.864 E0.00960 ; perimeter
G1 X113.872 Y115.072 Z8.864 E0.00000 ; perimeter
G1 X113.868 Y115.075 Z8.864 E0.00027 ; perimeter
G1 X113.774 Y115.145 Z8.864 E0.00609 ; perimeter
G1 X113.720 Y115.185 Z8.864 E0.00352 ; perimeter
G1 X113.720 Y115.185 Z8.864 E0.00001 ; perimeter
G1 X113.716 Y115.188 Z8.864 E0.00027 ; perimeter
G1 X113.565 Y115.292 Z8.864 E0.00960 ; perimeter
G1 X113.565 Y115.293 Z8.864 E0.00000 ; perimeter
G1 X113.560 Y115.295 Z8.864 E0.00027 ; perimeter
G1 X113.406 Y115.396 Z8.864 E0.00961 ; perimeter
G1 X113.406 Y115.396 Z8.864 E0.00003 ; perimeter
G1 X113.402 Y115.399 Z8.864 E0.00024 ; perimeter
G1 X113.281 Y115.472 Z8.864 E0.00738 ; perimeter
G1 X113.246 Y115.494 Z8.864 E0.00216 ; perimeter
G1 X113.245 Y115.494 Z8.864 E0.00006 ; perimeter
G1 X113.240 Y115.497 Z8.864 E0.00027 ; perimeter
G1 X113.128 Y115.561 Z8.864 E0.00677 ; perimeter
G1 X113.081 Y115.588 Z8.864 E0.00282 ; perimeter
G1 X113.081 Y115.588 Z8.864 E0.00001 ; perimeter
G1 X113.076 Y115.591 Z8.864 E0.00027 ; perimeter
G1 X112.915 Y115.677 Z8.864 E0.00956 ; perimeter
G1 X112.914 Y115.677 Z8.864 E0.00004 ; perimeter
G1 X112.909 Y115.679 Z8.864 E0.00027 ; perimeter
G1 X112.744 Y115.761 Z8.864 E0.00961 ; perimeter
G1 X112.744 Y115.761 Z8.864 E0.00000 ; perimeter
G1 X112.740 Y115.763 Z8.864 E0.00027 ; perimeter
G1 X112.574 Y115.839 Z8.864 E0.00950 ; perimeter
G1 X112.572 Y115.840 Z8.864 E0.00011 ; perimeter
G1 X112.568 Y115.842 Z8.864 E0.00027 ; perimeter
G1 X112.398 Y115.913 Z8.864 E0.00960 ; perimeter
G1 X112.398 Y115.913 Z8.864 E0.00001 ; perimeter
G1 X112.393 Y115.915 Z8.864 E0.00027 ; perimeter
G1 X112.273 Y115.962 Z8.864 E0.00676 ; perimeter
G1 X112.222 Y115.982 Z8.864 E0.00283 ; perimeter
G1 X112.222 Y115.982 Z8.864 E0.00002 ; perimeter
G1 X112.217 Y115.983 Z8.864 E0.00027 ; perimeter
G1 X112.045 Y116.045 Z8.864 E0.00955 ; perimeter
G1 X112.044 Y116.045 Z8.864 E0.00006 ; perimeter
G1 X112.039 Y116.047 Z8.864 E0.00027 ; perimeter
G1 X111.865 Y116.102 Z8.864 E0.00952 ; perimeter
G1 X111.864 Y116.103 Z8.864 E0.00009 ; perimeter
G1 X111.859 Y116.104 Z8.864 E0.00027 ; perimeter
G1 X111.695 Y116.152 Z8.864 E0.00892 ; perimeter
G1 X111.683 Y116.155 Z8.864 E0.00063 ; perimeter
G1 X111.682 Y116.155 Z8.864 E0.00006 ; perimeter
G1 X111.677 Y116.157 Z8.864 E0.00027 ; perimeter
G1 X111.499 Y116.203 Z8.864 E0.00961 ; perimeter
G1 X111.499 Y116.203 Z8.864 E0.00000 ; perimeter
G1 X111.494 Y116.204 Z8.864 E0.00027 ; perimeter
G1 X111.314 Y116.244 Z8.864 E0.00961 ; perimeter
G1 X111.314 Y116.244 Z8.864 E0.00001 ; perimeter
G1 X111.309 Y116.245 Z8.864 E0.00026 ; perimeter
G1 X111.129 Y116.280 Z8.864 E0.00961 ; perimeter
G1 X111.128 Y116.281 Z8.864 E0.00004 ; perimeter
G1 X111.124 Y116.281 Z8.864 E0.00023 ; perimeter
G1 X110.944 Y116.311 Z8.864 E0.00954 ; perimeter
G1 X110.942 Y116.311 Z8.864 E0.00007 ; perimeter
G1 X110.942 Y116.311 Z8.864 E0.00000 ; perimeter
