; generated by Slic3r 1.3.0-dev on 2020-10-26 at 17:41:04

; external perimeters extrusion width = 0.45mm (2.04mm^3/s)
; perimeters extrusion width = 0.45mm (4.07mm^3/s)
; infill extrusion width = 0.45mm (4.07mm^3/s)
; solid infill extrusion width = 0.45mm (1.53mm^3/s)
; top infill extrusion width = 0.40mm (0.90mm^3/s)

M109 S200 ;Heat nozzle to 200C
M190 S70 ;Heat nozzle to 70C
G28 ;Home all axes
M117 ; Purge extruder
G92 E0 ;Reset extruder
G1 Z2.0 F3000 ;Move Z Axis up
G1 X0.1 Y20 Z0.3 F5000.0 ; Move to start position
G1 X0.1 Y200.0 Z0.3 F1500.0 E15 ; Draw the first line
G1 X0.4 Y200.0 Z0.3 F5000.0 ; Move to side a little
G1 X0.4 Y20 Z0.3 F1500.0 E30 ; Draw the second line
G92 E0 ;Reset extruder
G1 Z1.0 F3000 ;Move z up little to prevent scratching of surface
; Filament gcode

G21 ; set units to millimeters
G90 ; use absolute coordinates
M83 ; use relative distances for extrusion
G1 Z0.120 F7800.000 ; move to next layer (0)
G1 E-5.00000 F2400.00000 ; retract extruder 0
G1 X97.658 Y103.104 Z0.120 F7800.000 ; move to first perimeter point
G1 E5.00000 F2400.00000 ; unretract extruder 0
G1 F2400
G1 X122.342 Y103.104 Z0.120 E0.48553 ; perimeter
G1 X122.342 Y116.896 Z0.120 E0.27127 ; perimeter
G1 X97.658 Y116.896 Z0.120 E0.48553 ; perimeter
G1 X97.658 Y103.164 Z0.120 E0.27009 ; perimeter
G1 X97.263 Y102.710 Z0.120 F7800.000 ; move to first perimeter point
G1 F2400
G1 X122.737 Y102.710 Z0.120 E0.50104 ; perimeter
G1 X122.737 Y117.290 Z0.120 E0.28678 ; perimeter
G1 X97.263 Y117.290 Z0.120 E0.50104 ; perimeter
G1 X97.263 Y102.770 Z0.120 E0.28560 ; perimeter
G1 X97.657 Y102.779 F7800.000 ; move inwards before travel
G1 X98.122 Y103.429 Z0.120 F7800.000 ; move to first infill point
G1 F2400
G1 X97.982 Y103.568 Z0.120 E0.00389 ; infill
G1 X97.982 Y104.127 Z0.120 E0.01103 ; infill
G1 X98.681 Y103.429 Z0.120 E0.01949 ; infill
G1 X99.240 Y103.429 Z0.120 E0.01103 ; infill
G1 X97.982 Y104.686 Z0.120 E0.03508 ; infill
G1 X97.982 Y105.246 Z0.120 E0.01103 ; infill
G1 X99.799 Y103.429 Z0.120 E0.05068 ; infill
G1 X100.358 Y103.429 Z0.120 E0.01103 ; infill
G1 X97.982 Y105.805 Z0.120 E0.06627 ; infill
G1 X97.982 Y106.364 Z0.120 E0.01103 ; infill
G1 X100.917 Y103.429 Z0.120 E0.08186 ; infill
G1 X101.476 Y103.429 Z0.120 E0.01103 ; infill
G1 X97.982 Y106.923 Z0.120 E0.09746 ; infill
G1 X97.982 Y107.482 Z0.120 E0.01103 ; infill
G1 X102.035 Y103.429 Z0.120 E0.11305 ; infill
G1 X102.594 Y103.429 Z0.120 E0.01103 ; infill
G1 X97.982 Y108.041 Z0.120 E0.12865 ; infill
G1 X97.982 Y108.600 Z0.120 E0.01103 ; infill
G1 X103.153 Y103.429 Z0.120 E0.14424 ; infill
G1 X103.712 Y103.429 Z0.120 E0.01103 ; infill
G1 X97.982 Y109.159 Z0.120 E0.15983 ; infill
G1 X97.982 Y109.718 Z0.120 E0.01103 ; infill
G1 X104.271 Y103.429 Z0.120 E0.17543 ; infill
G1 X104.831 Y103.429 Z0.120 E0.01103 ; infill
G1 X97.982 Y110.277 Z0.120 E0.19102 ; infill
G1 X97.982 Y110.836 Z0.120 E0.01103 ; infill
G1 X105.390 Y103.429 Z0.120 E0.20662 ; infill
G1 X105.949 Y103.429 Z0.120 E0.01103 ; infill
G1 X97.982 Y111.395 Z0.120 E0.22221 ; infill
G1 X97.982 Y111.955 Z0.120 E0.01103 ; infill
G1 X106.508 Y103.429 Z0.120 E0.23781 ; infill
G1 X107.067 Y103.429 Z0.120 E0.01103 ; infill
G1 X97.982 Y112.514 Z0.120 E0.25340 ; infill
G1 X97.982 Y113.073 Z0.120 E0.01103 ; infill
G1 X107.626 Y103.429 Z0.120 E0.26899 ; infill
G1 X108.185 Y103.429 Z0.120 E0.01103 ; infill
G1 X97.982 Y113.632 Z0.120 E0.28459 ; infill
G1 X97.982 Y114.191 Z0.120 E0.01103 ; infill
G1 X108.744 Y103.429 Z0.120 E0.30018 ; infill
G1 X109.303 Y103.429 Z0.120 E0.01103 ; infill
G1 X97.982 Y114.750 Z0.120 E0.31578 ; infill
G1 X97.982 Y115.309 Z0.120 E0.01103 ; infill
G1 X109.862 Y103.429 Z0.120 E0.33137 ; infill
G1 X110.421 Y103.429 Z0.120 E0.01103 ; infill
G1 X97.982 Y115.868 Z0.120 E0.34696 ; infill
G1 X97.982 Y116.427 Z0.120 E0.01103 ; infill
G1 X110.980 Y103.429 Z0.120 E0.36256 ; infill
G1 X111.540 Y103.429 Z0.120 E0.01103 ; infill
G1 X98.397 Y116.571 Z0.120 E0.36658 ; infill
G1 X98.956 Y116.571 Z0.120 E0.01103 ; infill
G1 X112.099 Y103.429 Z0.120 E0.36658 ; infill
G1 X112.658 Y103.429 Z0.120 E0.01103 ; infill
G1 X99.515 Y116.571 Z0.120 E0.36658 ; infill
G1 X100.074 Y116.571 Z0.120 E0.01103 ; infill
G1 X113.217 Y103.429 Z0.120 E0.36658 ; infill
G1 X113.776 Y103.429 Z0.120 E0.01103 ; infill
G1 X100.633 Y116.571 Z0.120 E0.36658 ; infill
G1 X101.192 Y116.571 Z0.120 E0.01103 ; infill
G1 X114.335 Y103.429 Z0.120 E0.36658 ; infill
G1 X114.894 Y103.429 Z0.120 E0.01103 ; infill
G1 X101.752 Y116.571 Z0.120 E0.36658 ; infill
G1 X102.311 Y116.571 Z0.120 E0.01103 ; infill
G1 X115.453 Y103.429 Z0.120 E0.36658 ; infill
G1 X116.012 Y103.429 Z0.120 E0.01103 ; infill
G1 X102.870 Y116.571 Z0.120 E0.36658 ; infill
G1 X103.429 Y116.571 Z0.120 E0.01103 ; infill
G1 X116.571 Y103.429 Z0.120 E0.36658 ; infill
G1 X117.130 Y103.429 Z0.120 E0.01103 ; infill
G1 X103.988 Y116.571 Z0.120 E0.36658 ; infill
G1 X104.547 Y116.571 Z0.120 E0.01103 ; infill
G1 X117.689 Y103.429 Z0.120 E0.36658 ; infill
G1 X118.248 Y103.429 Z0.120 E0.01103 ; infill
G1 X105.106 Y116.571 Z0.120 E0.36658 ; infill
G1 X105.665 Y116.571 Z0.120 E0.01103 ; infill
G1 X118.808 Y103.429 Z0.120 E0.36658 ; infill
G1 X119.367 Y103.429 Z0.120 E0.01103 ; infill
G1 X106.224 Y116.571 Z0.120 E0.36658 ; infill
G1 X106.783 Y116.571 Z0.120 E0.01103 ; infill
G1 X119.926 Y103.429 Z0.120 E0.36658 ; infill
G1 X120.485 Y103.429 Z0.120 E0.01103 ; infill
G1 X107.342 Y116.571 Z0.120 E0.36658 ; infill
G1 X107.901 Y116.571 Z0.120 E0.01103 ; infill
G1 X121.044 Y103.429 Z0.120 E0.36658 ; infill
G1 X121.603 Y103.429 Z0.120 E0.01103 ; infill
G1 X108.461 Y116.571 Z0.120 E0.36658 ; infill
G1 X109.020 Y116.571 Z0.120 E0.01103 ; infill
G1 X122.018 Y103.573 Z0.120 E0.36256 ; infill
G1 X122.018 Y104.132 Z0.120 E0.01103 ; infill
G1 X109.579 Y116.571 Z0.120 E0.34696 ; infill
G1 X110.138 Y116.571 Z0.120 E0.01103 ; infill
G1 X122.018 Y104.691 Z0.120 E0.33137 ; infill
G1 X122.018 Y105.250 Z0.120 E0.01103 ; infill
G1 X110.697 Y116.571 Z0.120 E0.31578 ; infill
G1 X111.256 Y116.571 Z0.120 E0.01103 ; infill
G1 X122.018 Y105.809 Z0.120 E0.30018 ; infill
G1 X122.018 Y106.368 Z0.120 E0.01103 ; infill
G1 X111.815 Y116.571 Z0.120 E0.28459 ; infill
G1 X112.374 Y116.571 Z0.120 E0.01103 ; infill
G1 X122.018 Y106.927 Z0.120 E0.26899 ; infill
G1 X122.018 Y107.486 Z0.120 E0.01103 ; infill
G1 X112.933 Y116.571 Z0.120 E0.25340 ; infill
G1 X113.492 Y116.571 Z0.120 E0.01103 ; infill
G1 X122.018 Y108.046 Z0.120 E0.23780 ; infill
G1 X122.018 Y108.605 Z0.120 E0.01103 ; infill
G1 X114.051 Y116.571 Z0.120 E0.22221 ; infill
G1 X114.610 Y116.571 Z0.120 E0.01103 ; infill
G1 X122.018 Y109.164 Z0.120 E0.20662 ; infill
G1 X122.018 Y109.723 Z0.120 E0.01103 ; infill
G1 X115.169 Y116.571 Z0.120 E0.19102 ; infill
G1 X115.729 Y116.571 Z0.120 E0.01103 ; infill
G1 X122.018 Y110.282 Z0.120 E0.17543 ; infill
G1 X122.018 Y110.841 Z0.120 E0.01103 ; infill
G1 X116.288 Y116.571 Z0.120 E0.15983 ; infill
G1 X116.847 Y116.571 Z0.120 E0.01103 ; infill
G1 X122.018 Y111.400 Z0.120 E0.14424 ; infill
G1 X122.018 Y111.959 Z0.120 E0.01103 ; infill
G1 X117.406 Y116.571 Z0.120 E0.12865 ; infill
G1 X117.965 Y116.571 Z0.120 E0.01103 ; infill
G1 X122.018 Y112.518 Z0.120 E0.11305 ; infill
G1 X122.018 Y113.077 Z0.120 E0.01103 ; infill
G1 X118.524 Y116.571 Z0.120 E0.09746 ; infill
G1 X119.083 Y116.571 Z0.120 E0.01103 ; infill
G1 X122.018 Y113.636 Z0.120 E0.08186 ; infill
G1 X122.018 Y114.195 Z0.120 E0.01103 ; infill
G1 X119.642 Y116.571 Z0.120 E0.06627 ; infill
G1 X120.201 Y116.571 Z0.120 E0.01103 ; infill
G1 X122.018 Y114.754 Z0.120 E0.05067 ; infill
G1 X122.018 Y115.314 Z0.120 E0.01103 ; infill
G1 X120.760 Y116.571 Z0.120 E0.03508 ; infill
G1 X121.319 Y116.571 Z0.120 E0.01103 ; infill
G1 X122.018 Y115.873 Z0.120 E0.01949 ; infill
G1 X122.018 Y116.432 Z0.120 E0.01103 ; infill
G1 X121.878 Y116.571 Z0.120 E0.00389 ; infill
M106 S178.5 ; enable fan
G1 Z0.240 F7800.000 ; move to next layer (1)
G1 X97.809 Y103.149 Z0.240 F7800.000 ; move to first perimeter point
G1 F4800
G1 X122.191 Y103.149 Z0.240 E0.51606 ; perimeter
G1 X122.191 Y116.851 Z0.240 E0.29000 ; perimeter
G1 X97.809 Y116.851 Z0.240 E0.51606 ; perimeter
G1 X97.809 Y103.209 Z0.240 E0.28873 ; perimeter
G1 X97.385 Y102.725 Z0.240 F7800.000 ; move to first perimeter point
G1 F2400
G1 X122.615 Y102.725 Z0.240 E0.53402 ; perimeter
G1 X122.615 Y117.275 Z0.240 E0.30796 ; perimeter
G1 X97.385 Y117.275 Z0.240 E0.53402 ; perimeter
G1 X97.385 Y102.785 Z0.240 E0.30669 ; perimeter
G1 X97.779 Y102.794 F7800.000 ; move inwards before travel
G1 X98.158 Y116.351 Z0.240 F7800.000 ; move to first infill point
G1 F1800
G1 X98.309 Y116.502 Z0.240 E0.00454 ; infill
G1 X98.915 Y116.502 Z0.240 E0.01297 ; infill
G1 X98.158 Y115.745 Z0.240 E0.02289 ; infill
G1 X98.158 Y115.138 Z0.240 E0.01297 ; infill
G1 X99.521 Y116.502 Z0.240 E0.04124 ; infill
G1 X100.128 Y116.502 Z0.240 E0.01297 ; infill
G1 X98.158 Y114.532 Z0.240 E0.05959 ; infill
G1 X98.158 Y113.926 Z0.240 E0.01297 ; infill
G1 X100.734 Y116.502 Z0.240 E0.07794 ; infill
G1 X101.341 Y116.502 Z0.240 E0.01297 ; infill
G1 X98.158 Y113.319 Z0.240 E0.09628 ; infill
G1 X98.158 Y112.713 Z0.240 E0.01297 ; infill
G1 X101.947 Y116.502 Z0.240 E0.11463 ; infill
G1 X102.554 Y116.502 Z0.240 E0.01297 ; infill
G1 X98.158 Y112.106 Z0.240 E0.13298 ; infill
G1 X98.158 Y111.500 Z0.240 E0.01297 ; infill
G1 X103.160 Y116.502 Z0.240 E0.15133 ; infill
G1 X103.766 Y116.502 Z0.240 E0.01297 ; infill
G1 X98.158 Y110.893 Z0.240 E0.16967 ; infill
G1 X98.158 Y110.287 Z0.240 E0.01297 ; infill
G1 X104.373 Y116.502 Z0.240 E0.18802 ; infill
G1 X104.979 Y116.502 Z0.240 E0.01297 ; infill
G1 X98.158 Y109.681 Z0.240 E0.20637 ; infill
G1 X98.158 Y109.074 Z0.240 E0.01297 ; infill
G1 X105.586 Y116.502 Z0.240 E0.22472 ; infill
G1 X106.192 Y116.502 Z0.240 E0.01297 ; infill
G1 X98.158 Y108.468 Z0.240 E0.24307 ; infill
G1 X98.158 Y107.861 Z0.240 E0.01297 ; infill
G1 X106.799 Y116.502 Z0.240 E0.26141 ; infill
G1 X107.405 Y116.502 Z0.240 E0.01297 ; infill
G1 X98.158 Y107.255 Z0.240 E0.27976 ; infill
G1 X98.158 Y106.648 Z0.240 E0.01297 ; infill
G1 X108.011 Y116.502 Z0.240 E0.29811 ; infill
G1 X108.618 Y116.502 Z0.240 E0.01297 ; infill
G1 X98.158 Y106.042 Z0.240 E0.31646 ; infill
G1 X98.158 Y105.436 Z0.240 E0.01297 ; infill
G1 X109.224 Y116.502 Z0.240 E0.33480 ; infill
G1 X109.831 Y116.502 Z0.240 E0.01297 ; infill
G1 X98.158 Y104.829 Z0.240 E0.35315 ; infill
G1 X98.158 Y104.223 Z0.240 E0.01297 ; infill
G1 X110.437 Y116.502 Z0.240 E0.37150 ; infill
G1 X111.044 Y116.502 Z0.240 E0.01297 ; infill
G1 X98.158 Y103.616 Z0.240 E0.38985 ; infill
G1 X98.158 Y103.498 Z0.240 E0.00252 ; infill
G1 X98.158 Y103.498 Z0.240 E0.00000 ; infill
G1 X98.647 Y103.498 Z0.240 E0.01045 ; infill
G1 X111.650 Y116.502 Z0.240 E0.39341 ; infill
G1 X112.257 Y116.502 Z0.240 E0.01297 ; infill
G1 X99.253 Y103.498 Z0.240 E0.39341 ; infill
G1 X99.860 Y103.498 Z0.240 E0.01297 ; infill
G1 X112.863 Y116.502 Z0.240 E0.39341 ; infill
G1 X113.469 Y116.502 Z0.240 E0.01297 ; infill
G1 X100.466 Y103.498 Z0.240 E0.39341 ; infill
G1 X101.073 Y103.498 Z0.240 E0.01297 ; infill
G1 X114.076 Y116.502 Z0.240 E0.39341 ; infill
G1 X114.682 Y116.502 Z0.240 E0.01297 ; infill
G1 X101.679 Y103.498 Z0.240 E0.39341 ; infill
G1 X102.286 Y103.498 Z0.240 E0.01297 ; infill
G1 X115.289 Y116.502 Z0.240 E0.39341 ; infill
G1 X115.895 Y116.502 Z0.240 E0.01297 ; infill
G1 X102.892 Y103.498 Z0.240 E0.39341 ; infill
G1 X103.498 Y103.498 Z0.240 E0.01297 ; infill
G1 X116.502 Y116.502 Z0.240 E0.39341 ; infill
G1 X117.108 Y116.502 Z0.240 E0.01297 ; infill
G1 X104.105 Y103.498 Z0.240 E0.39341 ; infill
G1 X104.711 Y103.498 Z0.240 E0.01297 ; infill
G1 X117.714 Y116.502 Z0.240 E0.39341 ; infill
G1 X118.321 Y116.502 Z0.240 E0.01297 ; infill
G1 X105.318 Y103.498 Z0.240 E0.39341 ; infill
G1 X105.924 Y103.498 Z0.240 E0.01297 ; infill
G1 X118.927 Y116.502 Z0.240 E0.39341 ; infill
G1 X119.534 Y116.502 Z0.240 E0.01297 ; infill
G1 X106.531 Y103.498 Z0.240 E0.39341 ; infill
G1 X107.137 Y103.498 Z0.240 E0.01297 ; infill
G1 X120.140 Y116.502 Z0.240 E0.39341 ; infill
G1 X120.747 Y116.502 Z0.240 E0.01297 ; infill
G1 X107.744 Y103.498 Z0.240 E0.39341 ; infill
G1 X108.350 Y103.498 Z0.240 E0.01297 ; infill
G1 X121.353 Y116.502 Z0.240 E0.39341 ; infill
G1 X121.842 Y116.502 Z0.240 E0.01045 ; infill
G1 X121.842 Y116.502 Z0.240 E0.00000 ; infill
G1 X121.842 Y116.384 Z0.240 E0.00252 ; infill
G1 X108.956 Y103.498 Z0.240 E0.38985 ; infill
G1 X109.563 Y103.498 Z0.240 E0.01297 ; infill
G1 X121.842 Y115.777 Z0.240 E0.37150 ; infill
G1 X121.842 Y115.171 Z0.240 E0.01297 ; infill
G1 X110.169 Y103.498 Z0.240 E0.35315 ; infill
G1 X110.776 Y103.498 Z0.240 E0.01297 ; infill
G1 X121.842 Y114.564 Z0.240 E0.33480 ; infill
G1 X121.842 Y113.958 Z0.240 E0.01297 ; infill
G1 X111.382 Y103.498 Z0.240 E0.31645 ; infill
G1 X111.989 Y103.498 Z0.240 E0.01297 ; infill
G1 X121.842 Y113.352 Z0.240 E0.29811 ; infill
G1 X121.842 Y112.745 Z0.240 E0.01297 ; infill
G1 X112.595 Y103.498 Z0.240 E0.27976 ; infill
G1 X113.201 Y103.498 Z0.240 E0.01297 ; infill
G1 X121.842 Y112.139 Z0.240 E0.26141 ; infill
G1 X121.842 Y111.532 Z0.240 E0.01297 ; infill
G1 X113.808 Y103.498 Z0.240 E0.24306 ; infill
G1 X114.414 Y103.498 Z0.240 E0.01297 ; infill
G1 X121.842 Y110.926 Z0.240 E0.22472 ; infill
G1 X121.842 Y110.319 Z0.240 E0.01297 ; infill
G1 X115.021 Y103.498 Z0.240 E0.20637 ; infill
G1 X115.627 Y103.498 Z0.240 E0.01297 ; infill
G1 X121.842 Y109.713 Z0.240 E0.18802 ; infill
G1 X121.842 Y109.107 Z0.240 E0.01297 ; infill
G1 X116.234 Y103.498 Z0.240 E0.16967 ; infill
G1 X116.840 Y103.498 Z0.240 E0.01297 ; infill
G1 X121.842 Y108.500 Z0.240 E0.15132 ; infill
G1 X121.842 Y107.894 Z0.240 E0.01297 ; infill
G1 X117.446 Y103.498 Z0.240 E0.13298 ; infill
G1 X118.053 Y103.498 Z0.240 E0.01297 ; infill
G1 X121.842 Y107.287 Z0.240 E0.11463 ; infill
G1 X121.842 Y106.681 Z0.240 E0.01297 ; infill
G1 X118.659 Y103.498 Z0.240 E0.09628 ; infill
G1 X119.266 Y103.498 Z0.240 E0.01297 ; infill
G1 X121.842 Y106.074 Z0.240 E0.07793 ; infill
G1 X121.842 Y105.468 Z0.240 E0.01297 ; infill
G1 X119.872 Y103.498 Z0.240 E0.05959 ; infill
G1 X120.479 Y103.498 Z0.240 E0.01297 ; infill
G1 X121.842 Y104.861 Z0.240 E0.04124 ; infill
G1 X121.842 Y104.255 Z0.240 E0.01297 ; infill
G1 X121.085 Y103.498 Z0.240 E0.02289 ; infill
G1 X121.692 Y103.498 Z0.240 E0.01297 ; infill
G1 X121.842 Y103.649 Z0.240 E0.00454 ; infill
G1 Z0.360 F7800.000 ; move to next layer (2)
G1 X98.070 Y103.149 Z0.360 F7800.000 ; move to first perimeter point
G1 F4800
G1 X121.930 Y103.149 Z0.360 E0.50504 ; perimeter
G1 X121.930 Y116.851 Z0.360 E0.29000 ; perimeter
G1 X98.070 Y116.851 Z0.360 E0.50504 ; perimeter
G1 X98.070 Y103.209 Z0.360 E0.28873 ; perimeter
G1 X97.645 Y102.725 Z0.360 F7800.000 ; move to first perimeter point
G1 F2400
G1 X122.355 Y102.725 Z0.360 E0.52299 ; perimeter
G1 X122.355 Y117.275 Z0.360 E0.30796 ; perimeter
G1 X97.645 Y117.275 Z0.360 E0.52299 ; perimeter
G1 X97.645 Y102.785 Z0.360 E0.30669 ; perimeter
G1 X98.039 Y102.796 F7800.000 ; move inwards before travel
G1 X98.419 Y103.648 Z0.360 F7800.000 ; move to first infill point
G1 F1800
G1 X98.419 Y103.648 Z0.360 E0.00000 ; infill
G1 X98.419 Y103.648 Z0.360 E0.00000 ; infill
G1 X98.419 Y103.649 Z0.360 E0.00000 ; infill
G1 X98.569 Y103.498 Z0.360 E0.00456 ; infill
G1 X99.177 Y103.498 Z0.360 E0.01304 ; infill
G1 X98.419 Y104.257 Z0.360 E0.02299 ; infill
G1 X98.419 Y104.864 Z0.360 E0.01304 ; infill
G1 X99.785 Y103.498 Z0.360 E0.04143 ; infill
G1 X100.393 Y103.498 Z0.360 E0.01304 ; infill
G1 X98.419 Y105.472 Z0.360 E0.05986 ; infill
G1 X98.419 Y106.080 Z0.360 E0.01304 ; infill
G1 X101.001 Y103.498 Z0.360 E0.07830 ; infill
G1 X101.608 Y103.498 Z0.360 E0.01304 ; infill
G1 X98.419 Y106.688 Z0.360 E0.09673 ; infill
G1 X98.419 Y107.296 Z0.360 E0.01304 ; infill
G1 X102.216 Y103.498 Z0.360 E0.11517 ; infill
G1 X102.824 Y103.498 Z0.360 E0.01304 ; infill
G1 X98.419 Y107.904 Z0.360 E0.13360 ; infill
G1 X98.419 Y108.512 Z0.360 E0.01304 ; infill
G1 X103.432 Y103.498 Z0.360 E0.15204 ; infill
G1 X104.040 Y103.498 Z0.360 E0.01304 ; infill
G1 X98.419 Y109.120 Z0.360 E0.17048 ; infill
