; flipped by Team Print at 2020-10-27 17:24:28
; Used offset z = 6.5 mm

; generated by Slic3r 1.3.0-dev on 2020-10-26 at 17:41:04

; external perimeters extrusion width = 0.45mm (2.04mm^3/s)
; perimeters extrusion width = 0.45mm (4.07mm^3/s)
; infill extrusion width = 0.45mm (4.07mm^3/s)
; solid infill extrusion width = 0.45mm (1.53mm^3/s)
; top infill extrusion width = 0.40mm (0.90mm^3/s)

M109 S200 ;Heat nozzle to 200C
M190 S70 ;Heat nozzle to 70C
G28 ;Home all axes
M117 ; Purge extruder
G92 E0 ;Reset extruder
G1 Z2.0 F3000 ;Move Z Axis up
G1 X0.1 Y20 Z0.3 F5000.0 ; Move to start position
G1 X0.1 Y200.0 Z0.3 F1500.0 E15 ; Draw the first line
G1 X0.4 Y200.0 Z0.3 F5000.0 ; Move to side a little
G1 X0.4 Y20 Z0.3 F1500.0 E30 ; Draw the second line
G92 E0 ;Reset extruder
G1 Z1.0 F3000 ;Move z up little to prevent scratching of surface
; Filament gcode

G21 ; set units to millimeters
G90 ; use absolute coordinates
M83 ; use relative distances for extrusion
G1 Z6.500 F7800.000 ; move to next layer (28)
G1 E-5.00000 F2400.00000 ; retract extruder 0
G1 X106.943 Y103.149 F7800.000 ; move to first perimeter point
G1 E5.00000 F2400.00000 ; unretract extruder 0

G1 F4800
G1 X106.943 Y103.149 Z7.554 E0.00000 ; perimeter
G1 X107.332 Y103.149 Z7.270 E0.02164 ; perimeter
G1 X107.332 Y103.149 Z7.270 E0.00000 ; perimeter
G1 X107.349 Y103.149 Z7.257 E0.00098 ; perimeter
G1 X107.349 Y103.149 Z7.257 E0.00000 ; perimeter
G1 X107.371 Y103.149 Z7.241 E0.00122 ; perimeter
G1 X107.371 Y103.149 Z7.241 E0.00000 ; perimeter
G1 X107.851 Y103.149 Z6.876 E0.02694 ; perimeter
G1 X107.851 Y103.149 Z6.876 E0.00000 ; perimeter
G1 X107.876 Y103.149 Z6.865 E0.00132 ; perimeter
G1 X107.876 Y103.149 Z6.865 E0.00000 ; perimeter
G1 X107.987 Y103.149 Z6.815 E0.00591 ; perimeter

G1 F4800
G1 X108.426 Y103.149 Z6.620 E0.00941 ; perimeter
G1 X108.453 Y103.149 Z6.614 E0.00057 ; perimeter
G1 X109.044 Y103.149 Z6.500 E0.01253 ; perimeter
G1 X109.085 Y103.149 Z6.501 E0.00088 ; perimeter
G1 X110.000 Y103.149 Z6.526 E0.01936 ; perimeter
G1 X110.041 Y103.149 Z6.525 E0.00088 ; perimeter
G1 X110.956 Y103.149 Z6.500 E0.01936 ; perimeter
G1 X110.983 Y103.149 Z6.505 E0.00057 ; perimeter
G1 X111.574 Y103.149 Z6.620 E0.01253 ; perimeter
G1 X111.599 Y103.149 Z6.631 E0.00053 ; perimeter
G1 X112.013 Y103.149 Z6.815 E0.00888 ; perimeter

G1 F4800
G1 X112.149 Y103.149 Z6.876 E0.00723 ; perimeter
G1 X112.171 Y103.149 Z6.893 E0.00122 ; perimeter
G1 X112.651 Y103.149 Z7.257 E0.02694 ; perimeter
G1 X113.039 Y103.149 Z7.541 E0.02164 ; perimeter
G1 X113.057 Y103.149 Z7.554 E0.00098 ; perimeter
G1 X113.506 Y103.149 Z7.727 E0.02365 ; perimeter
G1 X113.526 Y103.149 Z7.735 E0.00107 ; perimeter
G1 X114.004 Y103.149 Z7.786 E0.02500 ; perimeter
G1 X114.004 Y103.149 Z7.786 E0.00000 ; perimeter
G1 X114.026 Y103.149 Z7.788 E0.00113 ; perimeter
G1 X114.501 Y103.149 Z7.712 E0.02483 ; perimeter
G1 X114.501 Y103.149 Z7.712 E0.00000 ; perimeter
G1 X114.523 Y103.149 Z7.709 E0.00112 ; perimeter
G1 X114.545 Y103.149 Z7.705 E0.00116 ; perimeter
G1 X115.034 Y103.149 Z7.631 E0.02556 ; perimeter
G1 X115.056 Y103.149 Z7.633 E0.00116 ; perimeter
G1 X115.547 Y103.149 Z7.696 E0.02564 ; perimeter
G1 X115.567 Y103.149 Z7.704 E0.00109 ; perimeter
G1 X115.567 Y103.149 Z7.704 E0.00000 ; perimeter
G1 X116.022 Y103.149 Z7.899 E0.02406 ; perimeter
G1 X116.040 Y103.149 Z7.913 E0.00099 ; perimeter
G1 X116.424 Y103.149 Z8.224 E0.02187 ; perimeter
G1 X116.758 Y103.149 Z8.486 E0.01888 ; perimeter
G1 X116.773 Y103.149 Z8.497 E0.00085 ; perimeter
G1 X117.172 Y103.149 Z8.642 E0.02098 ; perimeter
G1 X117.190 Y103.149 Z8.649 E0.00095 ; perimeter
G1 X117.614 Y103.149 Z8.664 E0.02216 ; perimeter
G1 X117.634 Y103.149 Z8.664 E0.00100 ; perimeter
G1 X118.041 Y103.149 Z8.547 E0.02137 ; perimeter
G1 X118.060 Y103.149 Z8.542 E0.00097 ; perimeter
G1 X118.074 Y103.149 Z8.538 E0.00075 ; perimeter
G1 X118.074 Y103.149 Z8.538 E0.00000 ; perimeter
G1 X118.389 Y103.149 Z8.443 E0.01653 ; perimeter
G1 X118.404 Y103.149 Z8.443 E0.00078 ; perimeter
G1 X118.404 Y103.149 Z8.443 E0.00000 ; perimeter
G1 X118.734 Y103.149 Z8.443 E0.01720 ; perimeter
G1 X118.748 Y103.149 Z8.448 E0.00075 ; perimeter
G1 X118.748 Y103.149 Z8.448 E0.00000 ; perimeter
G1 X119.063 Y103.149 Z8.542 E0.01653 ; perimeter
G1 X119.098 Y103.149 Z8.559 E0.00187 ; perimeter
G1 X119.879 Y103.149 Z8.922 E0.04144 ; perimeter
G1 X120.332 Y103.149 Z9.136 E0.02408 ; perimeter
G1 X120.353 Y103.149 Z9.145 E0.00109 ; perimeter
G1 X120.848 Y103.149 Z9.219 E0.02590 ; perimeter
G1 X120.848 Y103.149 Z9.219 E0.00000 ; perimeter
G1 X120.871 Y103.149 Z9.222 E0.00117 ; perimeter
G1 X120.896 Y103.149 Z9.222 E0.00134 ; perimeter
G1 X121.465 Y103.149 Z9.222 E0.02970 ; perimeter
G1 X121.484 Y103.149 Z9.224 E0.00101 ; perimeter
G1 X121.911 Y103.149 Z9.276 E0.02230 ; perimeter
G1 X121.929 Y103.149 Z9.283 E0.00096 ; perimeter
G1 X122.062 Y103.149 Z9.333 E0.00700 ; perimeter
G1 X122.062 Y107.896 Z9.333 E0.24800 ; perimeter
G1 X122.062 Y107.896 Z9.333 E0.00000 ; perimeter
G1 X122.062 Y116.851 Z9.333 E0.46783 ; perimeter
G1 X121.911 Y116.851 Z9.276 E0.00796 ; perimeter
G1 X121.892 Y116.851 Z9.274 E0.00101 ; perimeter
G1 X121.465 Y116.851 Z9.222 E0.02230 ; perimeter
G1 X121.439 Y116.851 Z9.222 E0.00134 ; perimeter
G1 X120.871 Y116.851 Z9.222 E0.02970 ; perimeter
G1 X120.375 Y116.851 Z9.149 E0.02590 ; perimeter
G1 X120.375 Y116.851 Z9.149 E0.00000 ; perimeter
G1 X120.353 Y116.851 Z9.145 E0.00117 ; perimeter
G1 X119.899 Y116.851 Z8.932 E0.02408 ; perimeter
G1 X119.879 Y116.851 Z8.922 E0.00109 ; perimeter
G1 X119.844 Y116.851 Z8.906 E0.00187 ; perimeter
G1 X119.063 Y116.851 Z8.542 E0.04144 ; perimeter
G1 X119.049 Y116.851 Z8.538 E0.00075 ; perimeter
G1 X119.049 Y116.851 Z8.538 E0.00000 ; perimeter
G1 X118.734 Y116.851 Z8.443 E0.01653 ; perimeter
G1 X118.719 Y116.851 Z8.443 E0.00078 ; perimeter
G1 X118.719 Y116.851 Z8.443 E0.00000 ; perimeter
G1 X118.389 Y116.851 Z8.443 E0.01720 ; perimeter
G1 X118.375 Y116.851 Z8.448 E0.00075 ; perimeter
G1 X118.375 Y116.851 Z8.448 E0.00000 ; perimeter
G1 X118.060 Y116.851 Z8.542 E0.01653 ; perimeter
G1 X117.652 Y116.851 Z8.659 E0.02137 ; perimeter
G1 X117.634 Y116.851 Z8.664 E0.00097 ; perimeter
G1 X117.209 Y116.851 Z8.650 E0.02216 ; perimeter
G1 X117.190 Y116.851 Z8.649 E0.00100 ; perimeter
G1 X116.792 Y116.851 Z8.504 E0.02098 ; perimeter
G1 X116.773 Y116.851 Z8.497 E0.00095 ; perimeter
G1 X116.439 Y116.851 Z8.236 E0.01888 ; perimeter
G1 X116.424 Y116.851 Z8.224 E0.00085 ; perimeter
G1 X116.407 Y116.851 Z8.210 E0.00099 ; perimeter
G1 X116.022 Y116.851 Z7.899 E0.02187 ; perimeter
G1 X116.002 Y116.851 Z7.890 E0.00109 ; perimeter
G1 X116.002 Y116.851 Z7.890 E0.00000 ; perimeter
G1 X115.547 Y116.851 Z7.696 E0.02406 ; perimeter
G1 X115.525 Y116.851 Z7.693 E0.00116 ; perimeter
G1 X115.034 Y116.851 Z7.631 E0.02564 ; perimeter
G1 X115.012 Y116.851 Z7.634 E0.00116 ; perimeter
G1 X114.523 Y116.851 Z7.709 E0.02556 ; perimeter
G1 X114.047 Y116.851 Z7.784 E0.02483 ; perimeter
G1 X114.047 Y116.851 Z7.784 E0.00000 ; perimeter
G1 X114.026 Y116.851 Z7.788 E0.00112 ; perimeter
G1 X113.547 Y116.851 Z7.737 E0.02500 ; perimeter
G1 X113.547 Y116.851 Z7.737 E0.00000 ; perimeter
G1 X113.526 Y116.851 Z7.735 E0.00113 ; perimeter
G1 X113.077 Y116.851 Z7.562 E0.02365 ; perimeter
G1 X113.057 Y116.851 Z7.554 E0.00107 ; perimeter
G1 X112.668 Y116.851 Z7.270 E0.02164 ; perimeter
G1 X112.651 Y116.851 Z7.257 E0.00098 ; perimeter
G1 X112.629 Y116.851 Z7.241 E0.00122 ; perimeter
G1 X112.149 Y116.851 Z6.876 E0.02694 ; perimeter
G1 X112.124 Y116.851 Z6.865 E0.00132 ; perimeter
G1 X112.013 Y116.851 Z6.815 E0.00591 ; perimeter

G1 F4800
G1 X111.574 Y116.851 Z6.620 E0.00941 ; perimeter
G1 X111.547 Y116.851 Z6.614 E0.00057 ; perimeter
G1 X110.956 Y116.851 Z6.500 E0.01253 ; perimeter
G1 X110.915 Y116.851 Z6.501 E0.00088 ; perimeter
G1 X110.000 Y116.851 Z6.526 E0.01936 ; perimeter
G1 X109.959 Y116.851 Z6.525 E0.00088 ; perimeter
G1 X109.044 Y116.851 Z6.500 E0.01936 ; perimeter
G1 X109.017 Y116.851 Z6.505 E0.00057 ; perimeter
G1 X108.426 Y116.851 Z6.620 E0.01253 ; perimeter
G1 X108.401 Y116.851 Z6.631 E0.00053 ; perimeter
G1 X107.987 Y116.851 Z6.815 E0.00888 ; perimeter

G1 F4800
G1 X107.851 Y116.851 Z6.876 E0.00723 ; perimeter
G1 X107.829 Y116.851 Z6.893 E0.00122 ; perimeter
G1 X107.349 Y116.851 Z7.257 E0.02694 ; perimeter
G1 X106.961 Y116.851 Z7.541 E0.02164 ; perimeter
G1 X106.943 Y116.851 Z7.554 E0.00098 ; perimeter
G1 X106.494 Y116.851 Z7.727 E0.02365 ; perimeter
G1 X106.474 Y116.851 Z7.735 E0.00107 ; perimeter
G1 X105.996 Y116.851 Z7.786 E0.02500 ; perimeter
G1 X105.974 Y116.851 Z7.788 E0.00113 ; perimeter
G1 X105.499 Y116.851 Z7.712 E0.02483 ; perimeter
G1 X105.477 Y116.851 Z7.709 E0.00112 ; perimeter
G1 X105.455 Y116.851 Z7.705 E0.00116 ; perimeter
G1 X104.966 Y116.851 Z7.631 E0.02556 ; perimeter
G1 X104.944 Y116.851 Z7.633 E0.00116 ; perimeter
G1 X104.453 Y116.851 Z7.696 E0.02564 ; perimeter
G1 X104.433 Y116.851 Z7.704 E0.00109 ; perimeter
G1 X103.978 Y116.851 Z7.899 E0.02406 ; perimeter
G1 X103.960 Y116.851 Z7.913 E0.00099 ; perimeter
G1 X103.576 Y116.851 Z8.224 E0.02187 ; perimeter
G1 X103.242 Y116.851 Z8.486 E0.01888 ; perimeter
G1 X103.227 Y116.851 Z8.497 E0.00085 ; perimeter
G1 X102.828 Y116.851 Z8.642 E0.02098 ; perimeter
G1 X102.810 Y116.851 Z8.649 E0.00095 ; perimeter
G1 X102.386 Y116.851 Z8.664 E0.02216 ; perimeter
G1 X102.366 Y116.851 Z8.664 E0.00100 ; perimeter
G1 X101.959 Y116.851 Z8.547 E0.02137 ; perimeter
G1 X101.940 Y116.851 Z8.542 E0.00097 ; perimeter
G1 X101.926 Y116.851 Z8.538 E0.00075 ; perimeter
G1 X101.611 Y116.851 Z8.443 E0.01653 ; perimeter
G1 X101.596 Y116.851 Z8.443 E0.00078 ; perimeter
G1 X101.266 Y116.851 Z8.443 E0.01720 ; perimeter
G1 X101.252 Y116.851 Z8.448 E0.00075 ; perimeter
G1 X100.937 Y116.851 Z8.542 E0.01653 ; perimeter
G1 X100.902 Y116.851 Z8.559 E0.00187 ; perimeter
G1 X100.121 Y116.851 Z8.922 E0.04144 ; perimeter
G1 X99.668 Y116.851 Z9.136 E0.02408 ; perimeter
G1 X99.647 Y116.851 Z9.145 E0.00109 ; perimeter
G1 X99.152 Y116.851 Z9.219 E0.02590 ; perimeter
G1 X99.129 Y116.851 Z9.222 E0.00117 ; perimeter
G1 X99.104 Y116.851 Z9.222 E0.00134 ; perimeter
G1 X98.535 Y116.851 Z9.222 E0.02970 ; perimeter
G1 X98.516 Y116.851 Z9.224 E0.00101 ; perimeter
G1 X98.089 Y116.851 Z9.276 E0.02230 ; perimeter
G1 X98.071 Y116.851 Z9.283 E0.00096 ; perimeter
G1 X97.938 Y116.851 Z9.333 E0.00700 ; perimeter
G1 X97.938 Y112.104 Z9.333 E0.24800 ; perimeter
G1 X97.938 Y112.104 Z9.333 E0.00000 ; perimeter
G1 X97.938 Y103.149 Z9.333 E0.46783 ; perimeter
G1 X98.089 Y103.149 Z9.276 E0.00796 ; perimeter
G1 X98.089 Y103.149 Z9.276 E0.00000 ; perimeter
G1 X98.108 Y103.149 Z9.274 E0.00101 ; perimeter
G1 X98.108 Y103.149 Z9.274 E0.00000 ; perimeter
G1 X98.535 Y103.149 Z9.222 E0.02230 ; perimeter
G1 X98.535 Y103.149 Z9.222 E0.00000 ; perimeter
G1 X98.561 Y103.149 Z9.222 E0.00134 ; perimeter
G1 X98.561 Y103.149 Z9.222 E0.00000 ; perimeter
G1 X99.129 Y103.149 Z9.222 E0.02970 ; perimeter
G1 X99.129 Y103.149 Z9.222 E0.00000 ; perimeter
G1 X99.625 Y103.149 Z9.149 E0.02590 ; perimeter
G1 X99.625 Y103.149 Z9.149 E0.00000 ; perimeter
G1 X99.647 Y103.149 Z9.145 E0.00117 ; perimeter
G1 X99.647 Y103.149 Z9.145 E0.00000 ; perimeter
G1 X100.101 Y103.149 Z8.932 E0.02408 ; perimeter
G1 X100.101 Y103.149 Z8.932 E0.00000 ; perimeter
G1 X100.121 Y103.149 Z8.922 E0.00109 ; perimeter
G1 X100.121 Y103.149 Z8.922 E0.00000 ; perimeter
G1 X100.156 Y103.149 Z8.906 E0.00187 ; perimeter
G1 X100.156 Y103.149 Z8.906 E0.00000 ; perimeter
G1 X100.937 Y103.149 Z8.542 E0.04144 ; perimeter
G1 X100.937 Y103.149 Z8.542 E0.00000 ; perimeter
G1 X100.951 Y103.149 Z8.538 E0.00075 ; perimeter
G1 X100.951 Y103.149 Z8.538 E0.00000 ; perimeter
G1 X101.266 Y103.149 Z8.443 E0.01653 ; perimeter
G1 X101.266 Y103.149 Z8.443 E0.00000 ; perimeter
G1 X101.281 Y103.149 Z8.443 E0.00078 ; perimeter
G1 X101.281 Y103.149 Z8.443 E0.00000 ; perimeter
G1 X101.611 Y103.149 Z8.443 E0.01720 ; perimeter
G1 X101.611 Y103.149 Z8.443 E0.00000 ; perimeter
G1 X101.625 Y103.149 Z8.448 E0.00075 ; perimeter
G1 X101.625 Y103.149 Z8.448 E0.00000 ; perimeter
G1 X101.940 Y103.149 Z8.542 E0.01653 ; perimeter
G1 X101.940 Y103.149 Z8.542 E0.00000 ; perimeter
G1 X102.348 Y103.149 Z8.659 E0.02137 ; perimeter
G1 X102.348 Y103.149 Z8.659 E0.00000 ; perimeter
G1 X102.366 Y103.149 Z8.664 E0.00097 ; perimeter
G1 X102.366 Y103.149 Z8.664 E0.00000 ; perimeter
G1 X102.791 Y103.149 Z8.650 E0.02216 ; perimeter
G1 X102.791 Y103.149 Z8.650 E0.00000 ; perimeter
G1 X102.810 Y103.149 Z8.649 E0.00100 ; perimeter
G1 X102.810 Y103.149 Z8.649 E0.00000 ; perimeter
G1 X103.208 Y103.149 Z8.504 E0.02098 ; perimeter
G1 X103.208 Y103.149 Z8.504 E0.00000 ; perimeter
G1 X103.227 Y103.149 Z8.497 E0.00095 ; perimeter
G1 X103.227 Y103.149 Z8.497 E0.00000 ; perimeter
G1 X103.561 Y103.149 Z8.236 E0.01888 ; perimeter
G1 X103.561 Y103.149 Z8.236 E0.00000 ; perimeter
G1 X103.576 Y103.149 Z8.224 E0.00085 ; perimeter
G1 X103.576 Y103.149 Z8.224 E0.00000 ; perimeter
G1 X103.593 Y103.149 Z8.210 E0.00099 ; perimeter
G1 X103.593 Y103.149 Z8.210 E0.00000 ; perimeter
G1 X103.978 Y103.149 Z7.899 E0.02187 ; perimeter
G1 X103.978 Y103.149 Z7.899 E0.00000 ; perimeter
G1 X103.998 Y103.149 Z7.890 E0.00109 ; perimeter
G1 X103.998 Y103.149 Z7.890 E0.00000 ; perimeter
G1 X104.453 Y103.149 Z7.696 E0.02406 ; perimeter
G1 X104.453 Y103.149 Z7.696 E0.00000 ; perimeter
G1 X104.475 Y103.149 Z7.693 E0.00116 ; perimeter
G1 X104.475 Y103.149 Z7.693 E0.00000 ; perimeter
G1 X104.966 Y103.149 Z7.631 E0.02564 ; perimeter
G1 X104.966 Y103.149 Z7.631 E0.00000 ; perimeter
G1 X104.988 Y103.149 Z7.634 E0.00116 ; perimeter
G1 X104.988 Y103.149 Z7.634 E0.00000 ; perimeter
G1 X105.477 Y103.149 Z7.709 E0.02556 ; perimeter
G1 X105.477 Y103.149 Z7.709 E0.00000 ; perimeter
G1 X105.953 Y103.149 Z7.784 E0.02483 ; perimeter
G1 X105.953 Y103.149 Z7.784 E0.00000 ; perimeter
G1 X105.974 Y103.149 Z7.788 E0.00112 ; perimeter
G1 X105.974 Y103.149 Z7.788 E0.00000 ; perimeter
G1 X106.453 Y103.149 Z7.737 E0.02500 ; perimeter
G1 X106.453 Y103.149 Z7.737 E0.00000 ; perimeter
G1 X106.474 Y103.149 Z7.735 E0.00113 ; perimeter
G1 X106.474 Y103.149 Z7.735 E0.00000 ; perimeter
G1 X106.887 Y103.149 Z7.562 E0.02183 ; perimeter

G1 X106.936 Y102.725 Z7.557 F7800.000 ; move to first perimeter point

G1 F4800
G1 X106.936 Y102.725 Z7.557 E0.00000 ; perimeter
G1 X106.943 Y102.725 Z7.554 E0.00037 ; perimeter
G1 X106.943 Y102.725 Z7.554 E0.00000 ; perimeter
G1 X107.343 Y102.725 Z7.261 E0.02228 ; perimeter
G1 X107.343 Y102.725 Z7.261 E0.00000 ; perimeter
G1 X107.349 Y102.725 Z7.257 E0.00034 ; perimeter
G1 X107.349 Y102.725 Z7.257 E0.00000 ; perimeter
G1 X107.357 Y102.725 Z7.251 E0.00042 ; perimeter
G1 X107.357 Y102.725 Z7.251 E0.00000 ; perimeter
G1 X107.851 Y102.725 Z6.876 E0.02773 ; perimeter
G1 X107.851 Y102.725 Z6.876 E0.00000 ; perimeter
G1 X107.859 Y102.725 Z6.873 E0.00046 ; perimeter
G1 X107.859 Y102.725 Z6.873 E0.00000 ; perimeter
G1 X107.987 Y102.725 Z6.815 E0.00677 ; perimeter

G1 F2400
G1 X108.426 Y102.725 Z6.620 E0.00941 ; perimeter
G1 X108.426 Y102.725 Z6.620 E0.00000 ; perimeter
G1 X108.435 Y102.725 Z6.618 E0.00020 ; perimeter
G1 X108.435 Y102.725 Z6.618 E0.00000 ; perimeter
G1 X109.044 Y102.725 Z6.500 E0.01290 ; perimeter
G1 X109.044 Y102.725 Z6.500 E0.00000 ; perimeter
G1 X109.058 Y102.725 Z6.500 E0.00030 ; perimeter
G1 X109.058 Y102.725 Z6.500 E0.00000 ; perimeter
G1 X110.000 Y102.725 Z6.526 E0.01993 ; perimeter
G1 X110.000 Y102.725 Z6.526 E0.00000 ; perimeter
G1 X110.014 Y102.725 Z6.526 E0.00030 ; perimeter
G1 X110.014 Y102.725 Z6.526 E0.00000 ; perimeter
G1 X110.956 Y102.725 Z6.500 E0.01993 ; perimeter
G1 X110.956 Y102.725 Z6.500 E0.00000 ; perimeter
G1 X110.965 Y102.725 Z6.502 E0.00020 ; perimeter
G1 X110.965 Y102.725 Z6.502 E0.00000 ; perimeter
G1 X111.574 Y102.725 Z6.620 E0.01290 ; perimeter
G1 X111.574 Y102.725 Z6.620 E0.00000 ; perimeter
G1 X111.583 Y102.725 Z6.623 E0.00019 ; perimeter
G1 X111.583 Y102.725 Z6.623 E0.00000 ; perimeter
G1 X112.013 Y102.725 Z6.815 E0.00923 ; perimeter

G1 F4800
G1 X112.149 Y102.725 Z6.876 E0.00723 ; perimeter
