; generated by Slic3r 1.3.0-dev on 2020-11-09 at 17:26:48

; external perimeters extrusion width = 0.45mm (2.04mm^3/s)
; perimeters extrusion width = 0.45mm (4.07mm^3/s)
; infill extrusion width = 0.45mm (4.07mm^3/s)
; solid infill extrusion width = 0.45mm (1.53mm^3/s)
; top infill extrusion width = 0.40mm (0.90mm^3/s)

M109 S200 ;Heat nozzle to 200C
M190 S70 ;Heat nozzle to 70C
G28 ;Home all axes
M117 ; Purge extruder
G92 E0 ;Reset extruder
G1 Z2.0 F3000 ;Move Z Axis up
G1 X0.1 Y20 Z0.3 F5000.0 ; Move to start position
G1 X0.1 Y200.0 Z0.3 F1500.0 E15 ; Draw the first line
G1 X0.4 Y200.0 Z0.3 F5000.0 ; Move to side a little
G1 X0.4 Y20 Z0.3 F1500.0 E30 ; Draw the second line
G92 E0 ;Reset extruder
G1 Z1.0 F3000 ;Move z up little to prevent scratching of surface
; Filament gcode

G21 ; set units to millimeters
G90 ; use absolute coordinates
M83 ; use relative distances for extrusion
G1 Z0.200 F7800.000 ; move to next layer (0)
G1 E-5.00000 F2400.00000 ; retract extruder 0
G1 X98.044 Y12.154 Z0.200 F7800.000 ; move to first brim point
G1 E5.00000 F2400.00000 ; unretract extruder 0
G1 F2400
G1 X98.044 Y12.154 Z0.200 E0.00000 ; brim
G1 X100.654 Y9.544 Z0.200 E0.11807 ; brim
G1 X119.346 Y9.544 Z0.200 E0.59778 ; brim
G1 X121.956 Y12.154 Z0.200 E0.11807 ; brim
G1 X121.956 Y207.846 Z0.200 E6.25840 ; brim
G1 X119.346 Y210.456 Z0.200 E0.11807 ; brim
G1 X100.654 Y210.456 Z0.200 E0.59778 ; brim
G1 X98.044 Y207.846 Z0.200 E0.11807 ; brim
G1 X98.044 Y12.214 Z0.200 E6.25648 ; brim
G1 X98.428 Y12.313 Z0.200 F7800.000 ; move to first brim point
G1 F2400
G1 X98.428 Y12.313 Z0.200 E0.00000 ; brim
G1 X100.813 Y9.928 Z0.200 E0.10788 ; brim
G1 X119.187 Y9.928 Z0.200 E0.58759 ; brim
G1 X121.572 Y12.313 Z0.200 E0.10788 ; brim
G1 X121.572 Y207.687 Z0.200 E6.24821 ; brim
G1 X119.187 Y210.072 Z0.200 E0.10788 ; brim
G1 X100.813 Y210.072 Z0.200 E0.58759 ; brim
G1 X98.428 Y207.687 Z0.200 E0.10788 ; brim
G1 X98.428 Y12.373 Z0.200 E6.24629 ; brim
G1 X98.813 Y12.473 Z0.200 F7800.000 ; move to first brim point
G1 F2400
G1 X98.813 Y12.473 Z0.200 E0.00000 ; brim
G1 X100.973 Y10.313 Z0.200 E0.09769 ; brim
G1 X119.027 Y10.313 Z0.200 E0.57740 ; brim
G1 X121.187 Y12.473 Z0.200 E0.09769 ; brim
G1 X121.187 Y207.527 Z0.200 E6.23802 ; brim
G1 X119.027 Y209.687 Z0.200 E0.09769 ; brim
G1 X100.973 Y209.687 Z0.200 E0.57740 ; brim
G1 X98.813 Y207.527 Z0.200 E0.09769 ; brim
G1 X98.813 Y12.533 Z0.200 E6.23610 ; brim
G1 X99.197 Y12.632 Z0.200 F7800.000 ; move to first brim point
G1 F2400
G1 X99.197 Y12.632 Z0.200 E0.00000 ; brim
G1 X101.132 Y10.697 Z0.200 E0.08750 ; brim
G1 X118.868 Y10.697 Z0.200 E0.56721 ; brim
G1 X120.803 Y12.632 Z0.200 E0.08750 ; brim
G1 X120.803 Y207.368 Z0.200 E6.22783 ; brim
G1 X118.868 Y209.303 Z0.200 E0.08750 ; brim
G1 X101.132 Y209.303 Z0.200 E0.56721 ; brim
G1 X99.197 Y207.368 Z0.200 E0.08750 ; brim
G1 X99.197 Y12.692 Z0.200 E6.22591 ; brim
G1 X99.582 Y12.791 Z0.200 F7800.000 ; move to first brim point
G1 F2400
G1 X99.582 Y12.791 Z0.200 E0.00000 ; brim
G1 X101.291 Y11.082 Z0.200 E0.07731 ; brim
G1 X118.709 Y11.082 Z0.200 E0.55702 ; brim
G1 X120.418 Y12.791 Z0.200 E0.07731 ; brim
G1 X120.418 Y207.209 Z0.200 E6.21764 ; brim
G1 X118.709 Y208.918 Z0.200 E0.07731 ; brim
G1 X101.291 Y208.918 Z0.200 E0.55702 ; brim
G1 X99.582 Y207.209 Z0.200 E0.07731 ; brim
G1 X99.582 Y12.851 Z0.200 E6.21572 ; brim
G1 X99.967 Y12.951 Z0.200 F7800.000 ; move to first brim point
G1 F2400
G1 X99.967 Y12.951 Z0.200 E0.00000 ; brim
G1 X101.451 Y11.467 Z0.200 E0.06712 ; brim
G1 X118.549 Y11.467 Z0.200 E0.54683 ; brim
G1 X120.033 Y12.951 Z0.200 E0.06712 ; brim
G1 X120.033 Y207.049 Z0.200 E6.20745 ; brim
G1 X118.549 Y208.533 Z0.200 E0.06712 ; brim
G1 X101.451 Y208.533 Z0.200 E0.54683 ; brim
G1 X99.967 Y207.049 Z0.200 E0.06712 ; brim
G1 X99.967 Y13.011 Z0.200 E6.20553 ; brim
G1 X100.351 Y13.110 Z0.200 F7800.000 ; move to first brim point
G1 F2400
G1 X100.351 Y13.110 Z0.200 E0.00000 ; brim
G1 X101.610 Y11.851 Z0.200 E0.05693 ; brim
G1 X118.390 Y11.851 Z0.200 E0.53664 ; brim
G1 X119.649 Y13.110 Z0.200 E0.05693 ; brim
G1 X119.649 Y206.890 Z0.200 E6.19726 ; brim
G1 X118.390 Y208.149 Z0.200 E0.05693 ; brim
G1 X101.610 Y208.149 Z0.200 E0.53664 ; brim
G1 X100.351 Y206.890 Z0.200 E0.05693 ; brim
G1 X100.351 Y13.170 Z0.200 E6.19534 ; brim
G1 X100.736 Y13.269 Z0.200 F7800.000 ; move to first brim point
G1 F2400
G1 X100.736 Y13.269 Z0.200 E0.00000 ; brim
G1 X101.769 Y12.236 Z0.200 E0.04674 ; brim
G1 X118.231 Y12.236 Z0.200 E0.52645 ; brim
G1 X119.264 Y13.269 Z0.200 E0.04674 ; brim
G1 X119.264 Y206.731 Z0.200 E6.18707 ; brim
G1 X118.231 Y207.764 Z0.200 E0.04674 ; brim
G1 X101.769 Y207.764 Z0.200 E0.52645 ; brim
G1 X100.736 Y206.731 Z0.200 E0.04674 ; brim
G1 X100.736 Y13.329 Z0.200 E6.18515 ; brim
G1 X101.121 Y13.429 Z0.200 F7800.000 ; move to first brim point
G1 F2400
G1 X101.121 Y13.429 Z0.200 E0.00000 ; brim
G1 X101.929 Y12.621 Z0.200 E0.03655 ; brim
G1 X118.071 Y12.621 Z0.200 E0.51626 ; brim
G1 X118.879 Y13.429 Z0.200 E0.03655 ; brim
G1 X118.879 Y206.571 Z0.200 E6.17688 ; brim
G1 X118.071 Y207.379 Z0.200 E0.03655 ; brim
G1 X101.929 Y207.379 Z0.200 E0.51626 ; brim
G1 X101.121 Y206.571 Z0.200 E0.03655 ; brim
G1 X101.121 Y13.489 Z0.200 E6.17496 ; brim
G1 X101.505 Y13.588 Z0.200 F7800.000 ; move to first brim point
G1 F2400
G1 X101.505 Y13.588 Z0.200 E0.00000 ; brim
G1 X102.088 Y13.005 Z0.200 E0.02636 ; brim
G1 X117.912 Y13.005 Z0.200 E0.50607 ; brim
G1 X118.495 Y13.588 Z0.200 E0.02636 ; brim
G1 X118.495 Y206.412 Z0.200 E6.16669 ; brim
G1 X117.912 Y206.995 Z0.200 E0.02636 ; brim
G1 X102.088 Y206.995 Z0.200 E0.50607 ; brim
G1 X101.505 Y206.412 Z0.200 E0.02636 ; brim
G1 X101.505 Y13.648 Z0.200 E6.16477 ; brim
G1 X101.890 Y13.747 Z0.200 F7800.000 ; move to first brim point
G1 F2400
G1 X101.890 Y13.747 Z0.200 E0.00000 ; brim
G1 X102.247 Y13.390 Z0.200 E0.01617 ; brim
G1 X117.753 Y13.390 Z0.200 E0.49588 ; brim
G1 X118.110 Y13.747 Z0.200 E0.01617 ; brim
G1 X118.110 Y206.253 Z0.200 E6.15650 ; brim
G1 X117.753 Y206.610 Z0.200 E0.01617 ; brim
G1 X102.247 Y206.610 Z0.200 E0.49588 ; brim
G1 X101.890 Y206.253 Z0.200 E0.01617 ; brim
G1 X101.890 Y13.807 Z0.200 E6.15458 ; brim
G1 X102.274 Y13.907 Z0.200 F7800.000 ; move to first brim point
G1 F2400
G1 X102.274 Y13.907 Z0.200 E0.00000 ; brim
G1 X102.407 Y13.774 Z0.200 E0.00598 ; brim
G1 X117.593 Y13.774 Z0.200 E0.48569 ; brim
G1 X117.726 Y13.907 Z0.200 E0.00598 ; brim
G1 X117.726 Y206.093 Z0.200 E6.14631 ; brim
G1 X117.593 Y206.226 Z0.200 E0.00598 ; brim
G1 X102.407 Y206.226 Z0.200 E0.48569 ; brim
G1 X102.274 Y206.093 Z0.200 E0.00598 ; brim
G1 X102.274 Y13.967 Z0.200 E6.14439 ; brim
G1 E-5.00000 F2400.00000 ; retract extruder 0
G1 X116.913 Y14.587 Z0.200 F7800.000 ; move to first perimeter point
G1 E5.00000 F2400.00000 ; unretract extruder 0
G1 F2400
G1 X116.913 Y205.413 Z0.200 E5.98321 ; perimeter
G1 X103.087 Y205.413 Z0.200 E0.43350 ; perimeter
G1 X103.087 Y14.587 Z0.200 E5.98321 ; perimeter
G1 X116.853 Y14.587 Z0.200 E0.43162 ; perimeter
G1 X117.290 Y14.210 Z0.200 F7800.000 ; move to first perimeter point
G1 F2400
G1 X117.290 Y205.790 Z0.200 E6.00686 ; perimeter
G1 X102.710 Y205.790 Z0.200 E0.45715 ; perimeter
G1 X102.710 Y14.210 Z0.200 E6.00686 ; perimeter
G1 X117.230 Y14.210 Z0.200 E0.45527 ; perimeter
G1 X117.280 Y14.610 F7800.000 ; move inwards before travel
G1 E-5.00000 F2400.00000 ; retract extruder 0
G1 X103.531 Y14.897 Z0.200 F7800.000 ; move to first infill point
G1 E5.00000 F2400.00000 ; unretract extruder 0
G1 F2400
G1 X103.397 Y15.031 Z0.200 E0.00594 ; infill
G1 X103.397 Y15.566 Z0.200 E0.01680 ; infill
G1 X104.066 Y14.897 Z0.200 E0.02971 ; infill
G1 X104.600 Y14.897 Z0.200 E0.01680 ; infill
G1 X103.397 Y16.100 Z0.200 E0.05347 ; infill
G1 X103.397 Y16.635 Z0.200 E0.01680 ; infill
G1 X105.135 Y14.897 Z0.200 E0.07723 ; infill
G1 X105.670 Y14.897 Z0.200 E0.01680 ; infill
G1 X103.397 Y17.170 Z0.200 E0.10099 ; infill
G1 X103.397 Y17.704 Z0.200 E0.01680 ; infill
G1 X106.204 Y14.897 Z0.200 E0.12476 ; infill
G1 X106.739 Y14.897 Z0.200 E0.01680 ; infill
G1 X103.397 Y18.239 Z0.200 E0.14852 ; infill
G1 X103.397 Y18.773 Z0.200 E0.01680 ; infill
G1 X107.273 Y14.897 Z0.200 E0.17228 ; infill
G1 X107.808 Y14.897 Z0.200 E0.01680 ; infill
G1 X103.397 Y19.308 Z0.200 E0.19605 ; infill
G1 X103.397 Y19.842 Z0.200 E0.01680 ; infill
G1 X108.342 Y14.897 Z0.200 E0.21981 ; infill
G1 X108.877 Y14.897 Z0.200 E0.01680 ; infill
G1 X103.397 Y20.377 Z0.200 E0.24357 ; infill
G1 X103.397 Y20.912 Z0.200 E0.01680 ; infill
G1 X109.412 Y14.897 Z0.200 E0.26734 ; infill
G1 X109.946 Y14.897 Z0.200 E0.01680 ; infill
G1 X103.397 Y21.446 Z0.200 E0.29110 ; infill
G1 X103.397 Y21.981 Z0.200 E0.01680 ; infill
G1 X110.481 Y14.897 Z0.200 E0.31486 ; infill
G1 X111.015 Y14.897 Z0.200 E0.01680 ; infill
G1 X103.397 Y22.515 Z0.200 E0.33862 ; infill
G1 X103.397 Y23.050 Z0.200 E0.01680 ; infill
G1 X111.550 Y14.897 Z0.200 E0.36239 ; infill
G1 X112.085 Y14.897 Z0.200 E0.01680 ; infill
G1 X103.397 Y23.585 Z0.200 E0.38615 ; infill
G1 X103.397 Y24.119 Z0.200 E0.01680 ; infill
G1 X112.619 Y14.897 Z0.200 E0.40991 ; infill
G1 X113.154 Y14.897 Z0.200 E0.01680 ; infill
G1 X103.397 Y24.654 Z0.200 E0.43368 ; infill
G1 X103.397 Y25.188 Z0.200 E0.01680 ; infill
G1 X113.688 Y14.897 Z0.200 E0.45744 ; infill
G1 X114.223 Y14.897 Z0.200 E0.01680 ; infill
G1 X103.397 Y25.723 Z0.200 E0.48120 ; infill
G1 X103.397 Y26.257 Z0.200 E0.01680 ; infill
G1 X114.757 Y14.897 Z0.200 E0.50496 ; infill
G1 X115.292 Y14.897 Z0.200 E0.01680 ; infill
G1 X103.397 Y26.792 Z0.200 E0.52873 ; infill
G1 X103.397 Y27.327 Z0.200 E0.01680 ; infill
G1 X115.827 Y14.897 Z0.200 E0.55249 ; infill
G1 X116.361 Y14.897 Z0.200 E0.01680 ; infill
G1 X103.397 Y27.861 Z0.200 E0.57625 ; infill
G1 X103.397 Y28.396 Z0.200 E0.01680 ; infill
G1 X116.603 Y15.191 Z0.200 E0.58698 ; infill
G1 X116.603 Y15.725 Z0.200 E0.01680 ; infill
G1 X103.397 Y28.930 Z0.200 E0.58698 ; infill
G1 X103.397 Y29.465 Z0.200 E0.01680 ; infill
G1 X116.603 Y16.260 Z0.200 E0.58698 ; infill
G1 X116.603 Y16.795 Z0.200 E0.01680 ; infill
G1 X103.397 Y30.000 Z0.200 E0.58698 ; infill
G1 X103.397 Y30.534 Z0.200 E0.01680 ; infill
G1 X116.603 Y17.329 Z0.200 E0.58698 ; infill
G1 X116.603 Y17.864 Z0.200 E0.01680 ; infill
G1 X103.397 Y31.069 Z0.200 E0.58698 ; infill
G1 X103.397 Y31.603 Z0.200 E0.01680 ; infill
G1 X116.603 Y18.398 Z0.200 E0.58698 ; infill
G1 X116.603 Y18.933 Z0.200 E0.01680 ; infill
G1 X103.397 Y32.138 Z0.200 E0.58698 ; infill
G1 X103.397 Y32.673 Z0.200 E0.01680 ; infill
G1 X116.603 Y19.467 Z0.200 E0.58698 ; infill
G1 X116.603 Y20.002 Z0.200 E0.01680 ; infill
G1 X103.397 Y33.207 Z0.200 E0.58698 ; infill
G1 X103.397 Y33.742 Z0.200 E0.01680 ; infill
G1 X116.603 Y20.537 Z0.200 E0.58698 ; infill
G1 X116.603 Y21.071 Z0.200 E0.01680 ; infill
G1 X103.397 Y34.276 Z0.200 E0.58698 ; infill
G1 X103.397 Y34.811 Z0.200 E0.01680 ; infill
G1 X116.603 Y21.606 Z0.200 E0.58698 ; infill
G1 X116.603 Y22.140 Z0.200 E0.01680 ; infill
G1 X103.397 Y35.345 Z0.200 E0.58698 ; infill
G1 X103.397 Y35.880 Z0.200 E0.01680 ; infill
G1 X116.603 Y22.675 Z0.200 E0.58698 ; infill
G1 X116.603 Y23.210 Z0.200 E0.01680 ; infill
G1 X103.397 Y36.415 Z0.200 E0.58698 ; infill
G1 X103.397 Y36.949 Z0.200 E0.01680 ; infill
G1 X116.603 Y23.744 Z0.200 E0.58698 ; infill
G1 X116.603 Y24.279 Z0.200 E0.01680 ; infill
G1 X103.397 Y37.484 Z0.200 E0.58698 ; infill
G1 X103.397 Y38.018 Z0.200 E0.01680 ; infill
G1 X116.603 Y24.813 Z0.200 E0.58698 ; infill
G1 X116.603 Y25.348 Z0.200 E0.01680 ; infill
G1 X103.397 Y38.553 Z0.200 E0.58698 ; infill
G1 X103.397 Y39.088 Z0.200 E0.01680 ; infill
G1 X116.603 Y25.883 Z0.200 E0.58698 ; infill
G1 X116.603 Y26.417 Z0.200 E0.01680 ; infill
G1 X103.397 Y39.622 Z0.200 E0.58698 ; infill
G1 X103.397 Y40.157 Z0.200 E0.01680 ; infill
G1 X116.603 Y26.952 Z0.200 E0.58698 ; infill
G1 X116.603 Y27.486 Z0.200 E0.01680 ; infill
G1 X103.397 Y40.691 Z0.200 E0.58698 ; infill
G1 X103.397 Y41.226 Z0.200 E0.01680 ; infill
G1 X116.603 Y28.021 Z0.200 E0.58698 ; infill
G1 X116.603 Y28.555 Z0.200 E0.01680 ; infill
G1 X103.397 Y41.760 Z0.200 E0.58698 ; infill
G1 X103.397 Y42.295 Z0.200 E0.01680 ; infill
G1 X116.603 Y29.090 Z0.200 E0.58698 ; infill
G1 X116.603 Y29.625 Z0.200 E0.01680 ; infill
G1 X103.397 Y42.830 Z0.200 E0.58698 ; infill
G1 X103.397 Y43.364 Z0.200 E0.01680 ; infill
G1 X116.603 Y30.159 Z0.200 E0.58698 ; infill
G1 X116.603 Y30.694 Z0.200 E0.01680 ; infill
G1 X103.397 Y43.899 Z0.200 E0.58698 ; infill
G1 X103.397 Y44.433 Z0.200 E0.01680 ; infill
G1 X116.603 Y31.228 Z0.200 E0.58698 ; infill
G1 X116.603 Y31.763 Z0.200 E0.01680 ; infill
G1 X103.397 Y44.968 Z0.200 E0.58698 ; infill
G1 X103.397 Y45.503 Z0.200 E0.01680 ; infill
G1 X116.603 Y32.298 Z0.200 E0.58698 ; infill
G1 X116.603 Y32.832 Z0.200 E0.01680 ; infill
G1 X103.397 Y46.037 Z0.200 E0.58698 ; infill
G1 X103.397 Y46.572 Z0.200 E0.01680 ; infill
G1 X116.603 Y33.367 Z0.200 E0.58698 ; infill
G1 X116.603 Y33.901 Z0.200 E0.01680 ; infill
G1 X103.397 Y47.106 Z0.200 E0.58698 ; infill
G1 X103.397 Y47.641 Z0.200 E0.01680 ; infill
G1 X116.603 Y34.436 Z0.200 E0.58698 ; infill
G1 X116.603 Y34.970 Z0.200 E0.01680 ; infill
G1 X103.397 Y48.176 Z0.200 E0.58698 ; infill
G1 X103.397 Y48.710 Z0.200 E0.01680 ; infill
G1 X116.603 Y35.505 Z0.200 E0.58698 ; infill
G1 X116.603 Y36.040 Z0.200 E0.01680 ; infill
G1 X103.397 Y49.245 Z0.200 E0.58698 ; infill
G1 X103.397 Y49.779 Z0.200 E0.01680 ; infill
G1 X116.603 Y36.574 Z0.200 E0.58698 ; infill
G1 X116.603 Y37.109 Z0.200 E0.01680 ; infill
G1 X103.397 Y50.314 Z0.200 E0.58698 ; infill
G1 X103.397 Y50.848 Z0.200 E0.01680 ; infill
G1 X116.603 Y37.643 Z0.200 E0.58698 ; infill
G1 X116.603 Y38.178 Z0.200 E0.01680 ; infill
G1 X103.397 Y51.383 Z0.200 E0.58698 ; infill
G1 X103.397 Y51.918 Z0.200 E0.01680 ; infill
G1 X116.603 Y38.713 Z0.200 E0.58698 ; infill
G1 X116.603 Y39.247 Z0.200 E0.01680 ; infill
G1 X103.397 Y52.452 Z0.200 E0.58698 ; infill
G1 X103.397 Y52.987 Z0.200 E0.01680 ; infill
G1 X116.603 Y39.782 Z0.200 E0.58698 ; infill
G1 X116.603 Y40.316 Z0.200 E0.01680 ; infill
G1 X103.397 Y53.521 Z0.200 E0.58698 ; infill
G1 X103.397 Y54.056 Z0.200 E0.01680 ; infill
G1 X116.603 Y40.851 Z0.200 E0.58698 ; infill
G1 X116.603 Y41.386 Z0.200 E0.01680 ; infill
G1 X103.397 Y54.591 Z0.200 E0.58698 ; infill
G1 X103.397 Y55.125 Z0.200 E0.01680 ; infill
G1 X116.603 Y41.920 Z0.200 E0.58698 ; infill
G1 X116.603 Y42.455 Z0.200 E0.01680 ; infill
G1 X103.397 Y55.660 Z0.200 E0.58698 ; infill
G1 X103.397 Y56.194 Z0.200 E0.01680 ; infill
G1 X116.603 Y42.989 Z0.200 E0.58698 ; infill
G1 X116.603 Y43.524 Z0.200 E0.01680 ; infill
G1 X103.397 Y56.729 Z0.200 E0.58698 ; infill
G1 X103.397 Y57.264 Z0.200 E0.01680 ; infill
G1 X116.603 Y44.058 Z0.200 E0.58698 ; infill
G1 X116.603 Y44.593 Z0.200 E0.01680 ; infill
G1 X103.397 Y57.798 Z0.200 E0.58698 ; infill
G1 X103.397 Y58.333 Z0.200 E0.01680 ; infill
G1 X116.603 Y45.128 Z0.200 E0.58698 ; infill
G1 X116.603 Y45.662 Z0.200 E0.01680 ; infill
G1 X103.397 Y58.867 Z0.200 E0.58698 ; infill
G1 X103.397 Y59.402 Z0.200 E0.01680 ; infill
G1 X116.603 Y46.197 Z0.200 E0.58698 ; infill
G1 X116.603 Y46.731 Z0.200 E0.01680 ; infill
G1 X103.397 Y59.936 Z0.200 E0.58698 ; infill
G1 X103.397 Y60.471 Z0.200 E0.01680 ; infill
G1 X116.603 Y47.266 Z0.200 E0.58698 ; infill
G1 X116.603 Y47.801 Z0.200 E0.01680 ; infill
G1 X103.397 Y61.006 Z0.200 E0.58698 ; infill
G1 X103.397 Y61.540 Z0.200 E0.01680 ; infill
G1 X116.603 Y48.335 Z0.200 E0.58698 ; infill
G1 X116.603 Y48.870 Z0.200 E0.01680 ; infill
G1 X103.397 Y62.075 Z0.200 E0.58698 ; infill
G1 X103.397 Y62.609 Z0.200 E0.01680 ; infill
G1 X116.603 Y49.404 Z0.200 E0.58698 ; infill
G1 X116.603 Y49.939 Z0.200 E0.01680 ; infill
G1 X103.397 Y63.144 Z0.200 E0.58698 ; infill
G1 X103.397 Y63.679 Z0.200 E0.01680 ; infill
G1 X116.603 Y50.473 Z0.200 E0.58698 ; infill
G1 X116.603 Y51.008 Z0.200 E0.01680 ; infill
G1 X103.397 Y64.213 Z0.200 E0.58698 ; infill
G1 X103.397 Y64.748 Z0.200 E0.01680 ; infill
G1 X116.603 Y51.543 Z0.200 E0.58698 ; infill
G1 X116.603 Y52.077 Z0.200 E0.01680 ; infill
G1 X103.397 Y65.282 Z0.200 E0.58698 ; infill
G1 X103.397 Y65.817 Z0.200 E0.01680 ; infill
