; flipped by Team Print at 2021-02-18 17:00:39
; Used offset z = 3.0 mm

; generated by Slic3r 1.3.0-dev on 2021-02-18 at 16:55:47

; external perimeters extrusion width = 0.45mm (2.04mm^3/s)
; perimeters extrusion width = 0.45mm (4.07mm^3/s)
; infill extrusion width = 0.45mm (4.07mm^3/s)
; solid infill extrusion width = 0.45mm (1.53mm^3/s)
; top infill extrusion width = 0.40mm (0.90mm^3/s)

M109 S200 ;Heat nozzle to 200C
M190 S70 ;Heat nozzle to 70C
G28 ;Home all axes
M117 ; Purge extruder
G92 E0 ;Reset extruder
G1 Z2.0 F3000 ;Move Z Axis up
G1 X0.1 Y20 Z0.3 F5000.0 ; Move to start position
G1 X0.1 Y200.0 Z0.3 F1500.0 E15 ; Draw the first line
G1 X0.4 Y200.0 Z0.3 F5000.0 ; Move to side a little
G1 X0.4 Y20 Z0.3 F1500.0 E30 ; Draw the second line
G92 E0 ;Reset extruder
G1 Z1.0 F3000 ;Move z up little to prevent scratching of surface
; Filament gcode

G21 ; set units to millimeters
G90 ; use absolute coordinates
M83 ; use relative distances for extrusion
G1 Z3.000 F7800.000 ; move to next layer (57)
G1 E-5.00000 F2400.00000 ; retract extruder 0
G1 X103.149 Y109.419 F7800.000 ; move to first perimeter point
G1 E5.00000 F2400.00000 ; unretract extruder 0

G1 F4800
G1 X103.149 Y98.837 Z9.445 E0.57100 ; perimeter
G1 X103.689 Y98.837 Z9.445 E0.02820 ; perimeter
G1 X103.689 Y98.837 Z9.445 E0.00000 ; perimeter
G1 X116.851 Y98.837 Z9.445 E0.68764 ; perimeter
G1 X116.851 Y109.419 Z3.335 E0.57100 ; perimeter

G1 F4800
G1 X116.851 Y109.475 Z3.303 E0.00123 ; perimeter
G1 X116.851 Y110.000 Z3.000 E0.01147 ; perimeter
G1 X116.851 Y110.581 Z3.335 E0.01270 ; perimeter

G1 F4800
G1 X116.851 Y121.163 Z9.445 E0.57100 ; perimeter
G1 X116.311 Y121.163 Z9.445 E0.02820 ; perimeter
G1 X103.149 Y121.163 Z9.445 E0.68764 ; perimeter
G1 X103.149 Y110.581 Z3.335 E0.57100 ; perimeter

G1 F4800
G1 X103.149 Y110.525 Z3.303 E0.00123 ; perimeter
G1 X103.149 Y110.525 Z3.303 E0.00000 ; perimeter
G1 X103.149 Y110.000 Z3.000 E0.01147 ; perimeter
G1 X103.149 Y110.000 Z3.000 E0.00000 ; perimeter
G1 X103.149 Y109.471 Z3.335 E0.01169 ; perimeter
G1 E-5.00000 F2400.00000 ; retract extruder 0
G1 X103.164 Y98.412 F7800.000 ; move to first perimeter point
G1 E5.00000 F2400.00000 ; unretract extruder 0

G1 F4800
G1 X103.164 Y98.412 Z9.690 E0.00000 ; perimeter
G1 X117.275 Y98.412 Z9.690 E0.73722 ; perimeter
G1 X117.275 Y109.419 Z3.335 E0.59389 ; perimeter

G1 F2400
G1 X117.275 Y109.818 Z3.105 E0.00873 ; perimeter
G1 X117.275 Y110.000 Z3.000 E0.00398 ; perimeter
G1 X117.275 Y110.581 Z3.335 E0.01270 ; perimeter

G1 F4800
G1 X117.275 Y121.588 Z9.690 E0.59389 ; perimeter
G1 X116.836 Y121.588 Z9.690 E0.02294 ; perimeter
G1 X116.836 Y121.588 Z9.690 E0.00000 ; perimeter
G1 X102.725 Y121.588 Z9.690 E0.73722 ; perimeter
G1 X102.725 Y110.581 Z3.335 E0.59389 ; perimeter

G1 F2400
G1 X102.725 Y110.182 Z3.105 E0.00873 ; perimeter
G1 X102.725 Y110.000 Z3.000 E0.00398 ; perimeter
G1 X102.725 Y109.419 Z3.335 E0.01270 ; perimeter

G1 F4800
G1 X102.725 Y98.412 Z9.690 E0.59389 ; perimeter
G1 X103.104 Y98.412 Z9.690 E0.01980 ; perimeter

G1 X103.549 Y99.136 Z9.272 F7800.000 ; move to first infill point
G1 F1200
G1 X103.549 Y110.000 Z3.000 E0.21243 ; infill
G1 X103.549 Y110.848 Z3.489 E0.01657 ; infill
G1 X103.549 Y110.848 Z3.489 E0.00000 ; infill
G1 X103.549 Y120.864 Z9.272 E0.19586 ; infill
G1 X103.928 Y120.864 Z9.272 E0.00719 ; infill
G1 X103.928 Y111.154 Z3.666 E0.18986 ; infill
G1 X103.928 Y111.154 Z3.666 E0.00000 ; infill
G1 X103.928 Y110.000 Z3.000 E0.02257 ; infill
G1 X103.928 Y110.000 Z3.000 E0.00000 ; infill
G1 X103.928 Y99.136 Z9.272 E0.21243 ; infill
G1 X104.059 Y99.136 Z9.272 E0.00249 ; infill
G1 X104.059 Y99.136 Z9.272 E0.00000 ; infill
G1 X104.308 Y99.136 Z9.272 E0.00470 ; infill
G1 X104.308 Y99.337 Z9.156 E0.00392 ; infill
G1 X104.308 Y99.337 Z9.156 E0.00000 ; infill
G1 X104.308 Y110.000 Z3.000 E0.20851 ; infill
G1 X104.308 Y111.461 Z3.844 E0.02857 ; infill
G1 X104.308 Y111.461 Z3.844 E0.00000 ; infill
G1 X104.308 Y120.864 Z9.272 E0.18386 ; infill
G1 X104.687 Y120.864 Z9.272 E0.00719 ; infill
G1 X104.687 Y111.768 Z4.021 E0.17787 ; infill
G1 X104.687 Y111.768 Z4.021 E0.00000 ; infill
G1 X104.687 Y110.000 Z3.000 E0.03457 ; infill
G1 X104.687 Y99.643 Z8.979 E0.20251 ; infill
G1 X104.687 Y99.643 Z8.979 E0.00000 ; infill
G1 X104.687 Y99.136 Z9.272 E0.00992 ; infill
G1 X105.067 Y99.136 Z9.272 E0.00719 ; infill
G1 X105.067 Y99.950 Z8.802 E0.01592 ; infill
G1 X105.067 Y99.950 Z8.802 E0.00000 ; infill
G1 X105.067 Y110.000 Z3.000 E0.19651 ; infill
G1 X105.067 Y110.000 Z3.000 E0.00000 ; infill
G1 X105.067 Y112.075 Z4.198 E0.04057 ; infill
G1 X105.067 Y112.075 Z4.198 E0.00000 ; infill
G1 X105.067 Y120.864 Z9.272 E0.17187 ; infill
G1 X105.446 Y120.864 Z9.272 E0.00719 ; infill
G1 X105.446 Y112.381 Z4.375 E0.16587 ; infill
G1 X105.446 Y112.381 Z4.375 E0.00000 ; infill
G1 X105.446 Y110.000 Z3.000 E0.04656 ; infill
G1 X105.446 Y100.257 Z8.625 E0.19052 ; infill
G1 X105.446 Y100.257 Z8.625 E0.00000 ; infill
G1 X105.446 Y99.136 Z9.272 E0.02192 ; infill
G1 X105.826 Y99.136 Z9.272 E0.00719 ; infill
G1 X105.826 Y100.564 Z8.448 E0.02792 ; infill
G1 X105.826 Y100.564 Z8.448 E0.00000 ; infill
G1 X105.826 Y110.000 Z3.000 E0.18452 ; infill
G1 X105.826 Y110.000 Z3.000 E0.00000 ; infill
G1 X105.826 Y112.688 Z4.552 E0.05256 ; infill
G1 X105.826 Y112.688 Z4.552 E0.00000 ; infill
G1 X105.826 Y120.864 Z9.272 E0.15987 ; infill
G1 X106.205 Y120.864 Z9.272 E0.00719 ; infill
G1 X106.205 Y112.995 Z4.729 E0.15387 ; infill
G1 X106.205 Y112.995 Z4.729 E0.00000 ; infill
G1 X106.205 Y110.000 Z3.000 E0.05856 ; infill
G1 X106.205 Y110.000 Z3.000 E0.00000 ; infill
G1 X106.205 Y100.870 Z8.271 E0.17852 ; infill
G1 X106.205 Y100.870 Z8.271 E0.00000 ; infill
G1 X106.205 Y99.136 Z9.272 E0.03391 ; infill
G1 X106.585 Y99.136 Z9.272 E0.00719 ; infill
G1 X106.585 Y101.177 Z8.094 E0.03991 ; infill
G1 X106.585 Y101.177 Z8.094 E0.00000 ; infill
G1 X106.585 Y110.000 Z3.000 E0.17252 ; infill
G1 X106.585 Y113.301 Z4.906 E0.06456 ; infill
G1 X106.585 Y113.301 Z4.906 E0.00000 ; infill
G1 X106.585 Y120.864 Z9.272 E0.14788 ; infill
G1 X106.964 Y120.864 Z9.272 E0.00719 ; infill
G1 X106.964 Y113.608 Z5.083 E0.14188 ; infill
G1 X106.964 Y113.608 Z5.083 E0.00000 ; infill
G1 X106.964 Y110.000 Z3.000 E0.07056 ; infill
G1 X106.964 Y101.484 Z7.917 E0.16652 ; infill
G1 X106.964 Y101.484 Z7.917 E0.00000 ; infill
G1 X106.964 Y99.136 Z9.272 E0.04591 ; infill
G1 X107.344 Y99.136 Z9.272 E0.00719 ; infill
G1 X107.344 Y101.791 Z7.740 E0.05191 ; infill
G1 X107.344 Y101.791 Z7.740 E0.00000 ; infill
G1 X107.344 Y110.000 Z3.000 E0.16053 ; infill
G1 X107.344 Y113.915 Z5.260 E0.07655 ; infill
G1 X107.344 Y113.915 Z5.260 E0.00000 ; infill
G1 X107.344 Y120.864 Z9.272 E0.13588 ; infill
G1 X107.723 Y120.864 Z9.272 E0.00719 ; infill
G1 X107.723 Y114.222 Z5.437 E0.12988 ; infill
G1 X107.723 Y114.222 Z5.437 E0.00000 ; infill
G1 X107.723 Y110.000 Z3.000 E0.08255 ; infill
G1 X107.723 Y110.000 Z3.000 E0.00000 ; infill
G1 X107.723 Y102.097 Z7.563 E0.15453 ; infill
G1 X107.723 Y102.097 Z7.563 E0.00000 ; infill
G1 X107.723 Y99.136 Z9.272 E0.05791 ; infill
G1 X108.103 Y99.136 Z9.272 E0.00719 ; infill
G1 X108.103 Y102.404 Z7.385 E0.06390 ; infill
G1 X108.103 Y102.404 Z7.385 E0.00000 ; infill
G1 X108.103 Y110.000 Z3.000 E0.14853 ; infill
G1 X108.103 Y110.000 Z3.000 E0.00000 ; infill
G1 X108.103 Y114.528 Z5.615 E0.08855 ; infill
G1 X108.103 Y114.528 Z5.615 E0.00000 ; infill
G1 X108.103 Y120.864 Z9.272 E0.12388 ; infill
G1 X108.482 Y120.864 Z9.272 E0.00719 ; infill
G1 X108.482 Y114.835 Z5.792 E0.11789 ; infill
G1 X108.482 Y114.835 Z5.792 E0.00000 ; infill
G1 X108.482 Y110.000 Z3.000 E0.09455 ; infill
G1 X108.482 Y110.000 Z3.000 E0.00000 ; infill
G1 X108.482 Y102.711 Z7.208 E0.14253 ; infill
G1 X108.482 Y102.711 Z7.208 E0.00000 ; infill
G1 X108.482 Y99.136 Z9.272 E0.06990 ; infill
G1 X108.862 Y99.136 Z9.272 E0.00719 ; infill
G1 X108.862 Y103.018 Z7.031 E0.07590 ; infill
G1 X108.862 Y103.018 Z7.031 E0.00000 ; infill
G1 X108.862 Y110.000 Z3.000 E0.13653 ; infill
G1 X108.862 Y115.142 Z5.969 E0.10055 ; infill
G1 X108.862 Y115.142 Z5.969 E0.00000 ; infill
G1 X108.862 Y120.864 Z9.272 E0.11189 ; infill
G1 X109.241 Y120.864 Z9.272 E0.00719 ; infill
G1 X109.241 Y115.449 Z6.146 E0.10589 ; infill
G1 X109.241 Y115.449 Z6.146 E0.00000 ; infill
G1 X109.241 Y110.000 Z3.000 E0.10654 ; infill
G1 X109.241 Y110.000 Z3.000 E0.00000 ; infill
G1 X109.241 Y103.324 Z6.854 E0.13054 ; infill
G1 X109.241 Y99.136 Z9.272 E0.08190 ; infill
G1 X109.621 Y99.136 Z9.272 E0.00719 ; infill
G1 X109.621 Y103.631 Z6.677 E0.08790 ; infill
G1 X109.621 Y103.631 Z6.677 E0.00000 ; infill
G1 X109.621 Y110.000 Z3.000 E0.12454 ; infill
G1 X109.621 Y110.000 Z3.000 E0.00000 ; infill
G1 X109.621 Y115.755 Z6.323 E0.11254 ; infill
G1 X109.621 Y120.864 Z9.272 E0.09989 ; infill
G1 X110.000 Y120.864 Z9.272 E0.00719 ; infill
G1 X110.000 Y116.062 Z6.500 E0.09389 ; infill
G1 X110.000 Y116.062 Z6.500 E0.00000 ; infill
G1 X110.000 Y110.000 Z3.000 E0.11854 ; infill
G1 X110.000 Y103.938 Z6.500 E0.11854 ; infill
G1 X110.000 Y99.136 Z9.272 E0.09389 ; infill
G1 X110.380 Y99.136 Z9.272 E0.00719 ; infill
G1 X110.380 Y104.245 Z6.323 E0.09989 ; infill
G1 X110.380 Y104.245 Z6.323 E0.00000 ; infill
G1 X110.380 Y110.000 Z3.000 E0.11254 ; infill
G1 X110.380 Y110.000 Z3.000 E0.00000 ; infill
G1 X110.380 Y116.369 Z6.677 E0.12454 ; infill
G1 X110.380 Y120.864 Z9.272 E0.08790 ; infill
G1 X110.759 Y120.864 Z9.272 E0.00719 ; infill
G1 X110.759 Y116.676 Z6.854 E0.08190 ; infill
G1 X110.759 Y116.676 Z6.854 E0.00000 ; infill
G1 X110.759 Y110.000 Z3.000 E0.13054 ; infill
G1 X110.759 Y104.551 Z6.146 E0.10654 ; infill
G1 X110.759 Y104.551 Z6.146 E0.00000 ; infill
G1 X110.759 Y99.136 Z9.272 E0.10589 ; infill
G1 X111.138 Y99.136 Z9.272 E0.00719 ; infill
G1 X111.138 Y104.858 Z5.969 E0.11189 ; infill
G1 X111.138 Y110.000 Z3.000 E0.10055 ; infill
G1 X111.138 Y116.982 Z7.031 E0.13653 ; infill
G1 X111.138 Y120.864 Z9.272 E0.07590 ; infill
G1 X111.518 Y120.864 Z9.272 E0.00719 ; infill
G1 X111.518 Y117.289 Z7.208 E0.06990 ; infill
G1 X111.518 Y117.289 Z7.208 E0.00000 ; infill
G1 X111.518 Y110.000 Z3.000 E0.14253 ; infill
G1 X111.518 Y110.000 Z3.000 E0.00000 ; infill
G1 X111.518 Y105.165 Z5.792 E0.09455 ; infill
G1 X111.518 Y105.165 Z5.792 E0.00000 ; infill
G1 X111.518 Y99.136 Z9.272 E0.11789 ; infill
G1 X111.897 Y99.136 Z9.272 E0.00719 ; infill
G1 X111.897 Y105.472 Z5.615 E0.12388 ; infill
G1 X111.897 Y105.472 Z5.615 E0.00000 ; infill
G1 X111.897 Y110.000 Z3.000 E0.08855 ; infill
G1 X111.897 Y117.596 Z7.385 E0.14853 ; infill
G1 X111.897 Y120.864 Z9.272 E0.06390 ; infill
G1 X112.277 Y120.864 Z9.272 E0.00719 ; infill
G1 X112.277 Y117.903 Z7.563 E0.05791 ; infill
G1 X112.277 Y110.000 Z3.000 E0.15453 ; infill
G1 X112.277 Y105.778 Z5.437 E0.08255 ; infill
G1 X112.277 Y105.778 Z5.437 E0.00000 ; infill
G1 X112.277 Y99.136 Z9.272 E0.12988 ; infill
G1 X112.656 Y99.136 Z9.272 E0.00719 ; infill
G1 X112.656 Y106.085 Z5.260 E0.13588 ; infill
G1 X112.656 Y106.085 Z5.260 E0.00000 ; infill
G1 X112.656 Y110.000 Z3.000 E0.07655 ; infill
G1 X112.656 Y110.000 Z3.000 E0.00000 ; infill
G1 X112.656 Y118.209 Z7.740 E0.16053 ; infill
G1 X112.656 Y120.864 Z9.272 E0.05191 ; infill
G1 X113.036 Y120.864 Z9.272 E0.00719 ; infill
G1 X113.036 Y118.516 Z7.917 E0.04591 ; infill
G1 X113.036 Y110.000 Z3.000 E0.16652 ; infill
G1 X113.036 Y106.392 Z5.083 E0.07056 ; infill
G1 X113.036 Y106.392 Z5.083 E0.00000 ; infill
G1 X113.036 Y99.136 Z9.272 E0.14188 ; infill
G1 X113.415 Y99.136 Z9.272 E0.00719 ; infill
G1 X113.415 Y106.699 Z4.906 E0.14788 ; infill
G1 X113.415 Y106.699 Z4.906 E0.00000 ; infill
G1 X113.415 Y110.000 Z3.000 E0.06456 ; infill
G1 X113.415 Y118.823 Z8.094 E0.17252 ; infill
G1 X113.415 Y120.864 Z9.272 E0.03991 ; infill
G1 X113.795 Y120.864 Z9.272 E0.00719 ; infill
G1 X113.795 Y119.130 Z8.271 E0.03391 ; infill
G1 X113.795 Y119.130 Z8.271 E0.00000 ; infill
G1 X113.795 Y110.000 Z3.000 E0.17852 ; infill
G1 X113.795 Y110.000 Z3.000 E0.00000 ; infill
G1 X113.795 Y107.005 Z4.729 E0.05856 ; infill
G1 X113.795 Y107.005 Z4.729 E0.00000 ; infill
G1 X113.795 Y99.136 Z9.272 E0.15387 ; infill
G1 X114.174 Y99.136 Z9.272 E0.00719 ; infill
G1 X114.174 Y107.312 Z4.552 E0.15987 ; infill
G1 X114.174 Y107.312 Z4.552 E0.00000 ; infill
G1 X114.174 Y110.000 Z3.000 E0.05256 ; infill
G1 X114.174 Y119.436 Z8.448 E0.18452 ; infill
G1 X114.174 Y120.864 Z9.272 E0.02791 ; infill
G1 X114.554 Y120.864 Z9.272 E0.00719 ; infill
G1 X114.554 Y119.743 Z8.625 E0.02192 ; infill
G1 X114.554 Y119.743 Z8.625 E0.00000 ; infill
G1 X114.554 Y110.000 Z3.000 E0.19052 ; infill
G1 X114.554 Y107.619 Z4.375 E0.04656 ; infill
G1 X114.554 Y107.619 Z4.375 E0.00000 ; infill
G1 X114.554 Y99.136 Z9.272 E0.16587 ; infill
G1 X114.933 Y99.136 Z9.272 E0.00719 ; infill
G1 X114.933 Y107.925 Z4.198 E0.17187 ; infill
G1 X114.933 Y107.925 Z4.198 E0.00000 ; infill
G1 X114.933 Y110.000 Z3.000 E0.04057 ; infill
G1 X114.933 Y110.000 Z3.000 E0.00000 ; infill
G1 X114.933 Y120.050 Z8.802 E0.19652 ; infill
G1 X114.933 Y120.050 Z8.802 E0.00000 ; infill
G1 X114.933 Y120.864 Z9.272 E0.01592 ; infill
G1 X115.313 Y120.864 Z9.272 E0.00719 ; infill
G1 X115.313 Y120.357 Z8.979 E0.00992 ; infill
G1 X115.313 Y120.357 Z8.979 E0.00000 ; infill
G1 X115.313 Y110.000 Z3.000 E0.20251 ; infill
G1 X115.313 Y108.232 Z4.021 E0.03457 ; infill
G1 X115.313 Y108.232 Z4.021 E0.00000 ; infill
G1 X115.313 Y99.136 Z9.272 E0.17787 ; infill
G1 X115.692 Y99.136 Z9.272 E0.00719 ; infill
G1 X115.692 Y108.539 Z3.844 E0.18386 ; infill
G1 X115.692 Y108.539 Z3.844 E0.00000 ; infill
G1 X115.692 Y110.000 Z3.000 E0.02857 ; infill
G1 X115.692 Y120.663 Z9.156 E0.20851 ; infill
G1 X115.692 Y120.663 Z9.156 E0.00000 ; infill
G1 X115.692 Y120.864 Z9.272 E0.00392 ; infill
G1 X115.941 Y120.864 Z9.272 E0.00470 ; infill
G1 X116.072 Y120.864 Z9.272 E0.00249 ; infill
G1 X116.072 Y110.000 Z3.000 E0.21243 ; infill
G1 X116.072 Y110.000 Z3.000 E0.00000 ; infill
G1 X116.072 Y108.846 Z3.666 E0.02257 ; infill
G1 X116.072 Y99.136 Z9.272 E0.18986 ; infill
G1 X116.451 Y99.136 Z9.272 E0.00719 ; infill
G1 X116.451 Y109.152 Z3.489 E0.19586 ; infill
G1 X116.451 Y109.152 Z3.489 E0.00000 ; infill
G1 X116.451 Y110.000 Z3.000 E0.01657 ; infill
G1 X116.451 Y110.000 Z3.000 E0.00000 ; infill
G1 X116.451 Y120.864 Z9.272 E0.21243 ; infill
G1 E-5.00000 F2400.00000 ; retract extruder 0
G1 Z3.120 F7800.000 ; move to next layer (56)
G1 Z3.240 F7800.000 ; move to next layer (55)
G1 X102.725 Y109.844 Z3.240 F7800.000 ; move to first perimeter point
G1 F1200
G1 X117.275 Y109.844 Z3.240 E0.30796 ; perimeter
G1 X117.275 Y110.156 Z3.240 E0.00661 ; perimeter
G1 X102.725 Y110.156 Z3.240 E0.30796 ; perimeter
G1 X102.725 Y109.904 Z3.240 E0.00534 ; perimeter
G1 X103.125 Y109.847 F7800.000 ; move inwards before travel
G1 Z3.360 F7800.000 ; move to next layer (54)
G1 X102.725 Y109.636 Z3.360 F7800.000 ; move to first perimeter point
G1 F1200
G1 X117.275 Y109.636 Z3.360 E0.30796 ; perimeter
G1 X117.275 Y110.364 Z3.360 E0.01540 ; perimeter
G1 X102.725 Y110.364 Z3.360 E0.30796 ; perimeter
G1 X102.725 Y109.696 Z3.360 E0.01413 ; perimeter
G1 X103.125 Y109.643 F7800.000 ; move inwards before travel
G1 X102.937 Y110.000 Z3.360 F7800.000 ; move to first infill point
G1 F1800
G1 X117.063 Y110.000 Z3.360 E0.19579 ; infill
G1 Z3.480 F7800.000 ; move to next layer (53)
G1 X103.149 Y109.852 Z3.480 F7800.000 ; move to first perimeter point
G1 F1200
G1 X116.851 Y109.852 Z3.480 E0.29000 ; perimeter
G1 X116.851 Y110.148 Z3.480 E0.00624 ; perimeter
G1 X103.149 Y110.148 Z3.480 E0.29000 ; perimeter
G1 X103.149 Y109.912 Z3.480 E0.00497 ; perimeter
G1 X102.725 Y109.428 Z3.480 F7800.000 ; move to first perimeter point
G1 F1200
G1 X117.275 Y109.428 Z3.480 E0.30796 ; perimeter
G1 X117.275 Y110.572 Z3.480 E0.02420 ; perimeter
G1 X102.725 Y110.572 Z3.480 E0.30796 ; perimeter
G1 X102.725 Y109.488 Z3.480 E0.02293 ; perimeter
G1 X103.125 Y109.439 F7800.000 ; move inwards before travel
G1 Z3.600 F7800.000 ; move to next layer (52)
G1 X103.149 Y109.645 Z3.600 F7800.000 ; move to first perimeter point
G1 F1200
G1 X116.851 Y109.645 Z3.600 E0.29000 ; perimeter
