; generated by Slic3r 1.3.0-dev on 2020-10-12 at 11:47:39

; external perimeters extrusion width = 0.45mm (2.04mm^3/s)
; perimeters extrusion width = 0.45mm (4.07mm^3/s)
; infill extrusion width = 0.45mm (4.07mm^3/s)
; solid infill extrusion width = 0.45mm (1.53mm^3/s)
; top infill extrusion width = 0.40mm (0.90mm^3/s)

M109 S200 ;Heat nozzle to 200C
M190 S70 ;Heat nozzle to 70C
G28 ;Home all axes
M117 ; Purge extruder
G92 E0 ;Reset extruder
G1 Z2.0 F3000 ;Move Z Axis up
G92 E0 ;Reset extruder
G1 Z1.0 F3000 ;Move z up little to prevent scratching of surface
; Filament gcode

G21 ; set units to millimeters
G90 ; use absolute coordinates
M83 ; use relative distances for extrusion
G1 Z1.000 F7800.000 ; move to next layer (32)
G1 E-5.00000 F2400.00000 ; retract extruder 0
G1 Z4.040 F7800.000 ; Move up before moving
G1 X105.649 Y104.171 F7800.000 ; move to first perimeter point
G1 Z4.365 F7800.000 ; Move down after moving
G1 E5.00000 F2400.00000 ; unretract extruder 0

G1 F4800
G1 X105.649 Y104.171 Z4.365 E0.00000 ; perimeter
G1 X106.587 Y104.171 Z4.365 E0.04900 ; perimeter
G1 X114.351 Y104.171 Z4.365 E0.40561 ; perimeter
G1 X114.351 Y109.550 Z1.260 E0.29023 ; perimeter
G1 X114.351 Y109.558 Z1.255 E0.00039 ; perimeter

G1 F4800
G1 X114.351 Y110.000 Z1.000 E0.00967 ; perimeter
G1 X114.351 Y110.442 Z1.255 E0.00967 ; perimeter

G1 F4800
G1 X114.351 Y115.829 Z4.365 E0.29063 ; perimeter
G1 X113.413 Y115.829 Z4.365 E0.04900 ; perimeter
G1 X105.649 Y115.829 Z4.365 E0.40561 ; perimeter
G1 X105.649 Y110.450 Z1.260 E0.29023 ; perimeter
G1 X105.649 Y110.442 Z1.255 E0.00039 ; perimeter

G1 F4800
G1 X105.649 Y110.000 Z1.000 E0.00967 ; perimeter
G1 X105.649 Y109.558 Z1.255 E0.00967 ; perimeter

G1 F4800
G1 X105.649 Y104.223 Z4.365 E0.28811 ; perimeter

G1 E-5.00000 F2400.00000 ; retract extruder 0
G1 Z4.040 F7800.000 ; Move up before moving
G1 X105.225 Y109.558 F7800.000 ; move to first perimeter point
G1 Z1.255 F7800.000 ; Move down after moving
G1 E5.00000 F2400.00000 ; unretract extruder 0

G1 F4800
G1 X105.225 Y103.747 Z4.610 E0.31352 ; perimeter
G1 X105.975 Y103.747 Z4.610 E0.03917 ; perimeter
G1 X105.975 Y103.747 Z4.610 E0.00000 ; perimeter
G1 X114.775 Y103.747 Z4.610 E0.45977 ; perimeter
G1 X114.775 Y109.558 Z1.255 E0.31352 ; perimeter

G1 F2400
G1 X114.775 Y109.844 Z1.090 E0.00627 ; perimeter
G1 X114.775 Y109.844 Z1.090 E0.00000 ; perimeter
G1 X114.775 Y110.000 Z1.000 E0.00341 ; perimeter
G1 X114.775 Y110.000 Z1.000 E0.00000 ; perimeter
G1 X114.775 Y110.442 Z1.255 E0.00967 ; perimeter

G1 F4800
G1 X114.775 Y116.253 Z4.610 E0.31352 ; perimeter
G1 X114.025 Y116.253 Z4.610 E0.03917 ; perimeter
G1 X114.025 Y116.253 Z4.610 E0.00000 ; perimeter
G1 X105.225 Y116.253 Z4.610 E0.45977 ; perimeter
G1 X105.225 Y110.442 Z1.255 E0.31352 ; perimeter

G1 F2400
G1 X105.225 Y110.156 Z1.090 E0.00627 ; perimeter
G1 X105.225 Y110.156 Z1.090 E0.00000 ; perimeter
G1 X105.225 Y110.000 Z1.000 E0.00341 ; perimeter
G1 X105.225 Y110.000 Z1.000 E0.00000 ; perimeter
G1 X105.225 Y109.609 Z1.255 E0.00866 ; perimeter
G1 X105.525 Y109.384 F7800.000 ; move inwards before travel
G1 E-5.00000 F2400.00000 ; retract extruder 0
G1 Z4.040 F7800.000 ; Move up before moving
G1 X105.978 Y104.641 F7800.000 ; move to first infill point
G1 Z4.094 F7800.000 ; Move down after moving
G1 E5.00000 F2400.00000 ; unretract extruder 0
G1 F1200
G1 X105.978 Y104.641 Z4.094 E0.00000 ; infill
G1 X105.978 Y104.641 Z4.094 E0.00000 ; infill
G1 X105.978 Y104.641 Z4.094 E0.00000 ; infill
G1 X106.119 Y104.500 Z4.175 E0.00382 ; infill
G1 X106.655 Y104.500 Z4.175 E0.01014 ; infill
G1 X105.978 Y105.177 Z3.784 E0.01830 ; infill
G1 X105.978 Y105.713 Z3.475 E0.01047 ; infill
G1 X107.138 Y104.553 Z4.145 E0.03135 ; infill
G1 X107.138 Y104.553 Z4.145 E0.00000 ; infill
G1 X107.191 Y104.500 Z4.175 E0.00144 ; infill
G1 X107.727 Y104.500 Z4.175 E0.01014 ; infill
G1 X107.455 Y104.773 Z4.018 E0.00736 ; infill
G1 X107.455 Y104.773 Z4.018 E0.00000 ; infill
G1 X105.978 Y106.249 Z3.165 E0.03991 ; infill
G1 X105.978 Y106.786 Z2.856 E0.01047 ; infill
G1 X107.771 Y104.992 Z3.891 E0.04846 ; infill
G1 X107.771 Y104.992 Z3.891 E0.00000 ; infill
G1 X108.263 Y104.500 Z4.175 E0.01329 ; infill
G1 X108.799 Y104.500 Z4.175 E0.01014 ; infill
G1 X108.088 Y105.211 Z3.765 E0.01922 ; infill
G1 X105.978 Y107.322 Z2.546 E0.05702 ; infill
G1 X105.978 Y107.858 Z2.237 E0.01047 ; infill
G1 X108.405 Y105.431 Z3.638 E0.06558 ; infill
G1 X108.405 Y105.431 Z3.638 E0.00000 ; infill
G1 X109.335 Y104.500 Z4.175 E0.02515 ; infill
G1 X109.872 Y104.500 Z4.175 E0.01014 ; infill
G1 X108.721 Y105.650 Z3.511 E0.03108 ; infill
G1 X108.721 Y105.650 Z3.511 E0.00000 ; infill
G1 X105.978 Y108.394 Z1.927 E0.07413 ; infill
G1 X105.978 Y108.930 Z1.618 E0.01047 ; infill
G1 X109.038 Y105.869 Z3.385 E0.08269 ; infill
G1 X110.408 Y104.500 Z4.175 E0.03700 ; infill
G1 X110.944 Y104.500 Z4.175 E0.01014 ; infill
G1 X109.355 Y106.089 Z3.258 E0.04293 ; infill
G1 X105.978 Y109.466 Z1.308 E0.09125 ; infill
G1 X105.978 Y110.000 Z1.000 E0.01043 ; infill
G1 X105.978 Y110.000 Z1.000 E0.00000 ; infill
G1 X105.978 Y110.002 Z1.001 E0.00004 ; infill
G1 X105.980 Y110.000 Z1.000 E0.00005 ; infill
G1 X109.671 Y106.308 Z3.131 E0.09975 ; infill
G1 X111.480 Y104.500 Z4.175 E0.04886 ; infill
G1 X112.016 Y104.500 Z4.175 E0.01014 ; infill
G1 X109.988 Y106.528 Z3.005 E0.05479 ; infill
G1 X106.516 Y110.000 Z1.000 E0.09382 ; infill
G1 X105.978 Y110.538 Z1.311 E0.01453 ; infill
G1 X105.978 Y110.677 Z1.391 E0.00273 ; infill
G1 X105.978 Y111.074 Z1.620 E0.00774 ; infill
G1 X106.212 Y110.840 Z1.485 E0.00633 ; infill
G1 X106.212 Y110.840 Z1.485 E0.00000 ; infill
G1 X107.052 Y110.000 Z1.000 E0.02269 ; infill
G1 X110.305 Y106.747 Z2.878 E0.08790 ; infill
G1 X112.552 Y104.500 Z4.175 E0.06072 ; infill
G1 X113.088 Y104.500 Z4.175 E0.01014 ; infill
G1 X110.621 Y106.966 Z2.751 E0.06664 ; infill
G1 X107.588 Y110.000 Z1.000 E0.08197 ; infill
G1 X106.529 Y111.059 Z1.611 E0.02862 ; infill
G1 X105.978 Y111.610 Z1.929 E0.01488 ; infill
G1 X105.978 Y112.146 Z2.239 E0.01047 ; infill
G1 X106.845 Y111.279 Z1.738 E0.02344 ; infill
G1 X108.124 Y110.000 Z1.000 E0.03455 ; infill
G1 X108.124 Y110.000 Z1.000 E0.00000 ; infill
G1 X110.938 Y107.186 Z2.625 E0.07604 ; infill
G1 X113.624 Y104.500 Z4.175 E0.07257 ; infill
G1 X114.022 Y104.500 Z4.175 E0.00753 ; infill
G1 X114.022 Y104.500 Z4.175 E0.00000 ; infill
G1 X114.022 Y104.638 Z4.096 E0.00269 ; infill
G1 X111.255 Y107.405 Z2.498 E0.07478 ; infill
G1 X111.255 Y107.405 Z2.498 E0.00000 ; infill
G1 X108.660 Y110.000 Z1.000 E0.07011 ; infill
G1 X108.660 Y110.000 Z1.000 E0.00000 ; infill
G1 X107.162 Y111.498 Z1.865 E0.04047 ; infill
G1 X105.978 Y112.682 Z2.548 E0.03200 ; infill
G1 X105.978 Y113.218 Z2.858 E0.01047 ; infill
G1 X107.479 Y111.717 Z1.991 E0.04055 ; infill
G1 X107.479 Y111.717 Z1.991 E0.00000 ; infill
G1 X109.196 Y110.000 Z1.000 E0.04640 ; infill
G1 X109.196 Y110.000 Z1.000 E0.00000 ; infill
G1 X111.571 Y107.625 Z2.371 E0.06419 ; infill
G1 X114.022 Y105.174 Z3.786 E0.06622 ; infill
G1 X114.022 Y105.710 Z3.477 E0.01047 ; infill
G1 X111.888 Y107.844 Z2.245 E0.05766 ; infill
G1 X109.732 Y110.000 Z1.000 E0.05826 ; infill
G1 X107.795 Y111.937 Z2.118 E0.05233 ; infill
G1 X107.795 Y111.937 Z2.118 E0.00000 ; infill
G1 X105.978 Y113.754 Z3.167 E0.04911 ; infill
G1 X105.978 Y114.290 Z3.477 E0.01047 ; infill
G1 X108.112 Y112.156 Z2.245 E0.05766 ; infill
G1 X108.112 Y112.156 Z2.245 E0.00000 ; infill
G1 X110.268 Y110.000 Z1.000 E0.05826 ; infill
G1 X112.205 Y108.063 Z2.118 E0.05233 ; infill
G1 X114.022 Y106.246 Z3.167 E0.04911 ; infill
G1 X114.022 Y106.782 Z2.858 E0.01047 ; infill
G1 X112.521 Y108.283 Z1.991 E0.04055 ; infill
G1 X110.804 Y110.000 Z1.000 E0.04640 ; infill
G1 X110.804 Y110.000 Z1.000 E0.00000 ; infill
G1 X108.429 Y112.375 Z2.371 E0.06419 ; infill
G1 X108.429 Y112.375 Z2.371 E0.00000 ; infill
G1 X105.978 Y114.826 Z3.786 E0.06622 ; infill
G1 X105.978 Y115.362 Z4.096 E0.01047 ; infill
G1 X108.745 Y112.595 Z2.498 E0.07478 ; infill
G1 X111.340 Y110.000 Z1.000 E0.07011 ; infill
G1 X112.838 Y108.502 Z1.865 E0.04047 ; infill
G1 X114.022 Y107.318 Z2.548 E0.03200 ; infill
G1 X114.022 Y107.854 Z2.239 E0.01047 ; infill
G1 X113.155 Y108.722 Z1.738 E0.02344 ; infill
G1 X111.876 Y110.000 Z1.000 E0.03455 ; infill
G1 X109.062 Y112.814 Z2.625 E0.07604 ; infill
G1 X109.062 Y112.814 Z2.625 E0.00000 ; infill
G1 X106.376 Y115.500 Z4.175 E0.07257 ; infill
G1 X106.912 Y115.500 Z4.175 E0.01014 ; infill
G1 X109.379 Y113.034 Z2.751 E0.06664 ; infill
G1 X109.379 Y113.034 Z2.751 E0.00000 ; infill
G1 X112.412 Y110.000 Z1.000 E0.08197 ; infill
G1 X112.412 Y110.000 Z1.000 E0.00000 ; infill
G1 X113.471 Y108.941 Z1.611 E0.02862 ; infill
G1 X113.471 Y108.941 Z1.611 E0.00000 ; infill
G1 X114.022 Y108.390 Z1.929 E0.01488 ; infill
G1 X114.022 Y108.926 Z1.620 E0.01047 ; infill
G1 X113.788 Y109.160 Z1.485 E0.00633 ; infill
G1 X112.948 Y110.000 Z1.000 E0.02269 ; infill
G1 X109.695 Y113.253 Z2.878 E0.08790 ; infill
G1 X109.695 Y113.253 Z2.878 E0.00000 ; infill
G1 X107.448 Y115.500 Z4.175 E0.06072 ; infill
G1 X107.984 Y115.500 Z4.175 E0.01014 ; infill
G1 X110.012 Y113.472 Z3.005 E0.05479 ; infill
G1 X113.484 Y110.000 Z1.000 E0.09383 ; infill
G1 X114.022 Y109.462 Z1.311 E0.01453 ; infill
G1 X114.022 Y109.998 Z1.001 E0.01047 ; infill
G1 X114.020 Y110.000 Z1.000 E0.00005 ; infill
G1 X114.020 Y110.000 Z1.000 E0.00000 ; infill
G1 X110.329 Y113.692 Z3.131 E0.09975 ; infill
G1 X108.520 Y115.500 Z4.175 E0.04886 ; infill
G1 X109.056 Y115.500 Z4.175 E0.01014 ; infill
G1 X110.645 Y113.911 Z3.258 E0.04293 ; infill
G1 X114.022 Y110.534 Z1.308 E0.09124 ; infill
G1 X114.022 Y111.070 Z1.618 E0.01047 ; infill
G1 X110.962 Y114.131 Z3.385 E0.08269 ; infill
G1 X109.592 Y115.500 Z4.175 E0.03700 ; infill
G1 X110.129 Y115.500 Z4.175 E0.01014 ; infill
G1 X111.279 Y114.350 Z3.511 E0.03108 ; infill
G1 X114.022 Y111.606 Z1.927 E0.07413 ; infill
G1 X114.022 Y112.142 Z2.237 E0.01047 ; infill
G1 X111.595 Y114.569 Z3.638 E0.06558 ; infill
G1 X110.665 Y115.500 Z4.175 E0.02515 ; infill
G1 X111.201 Y115.500 Z4.175 E0.01014 ; infill
G1 X111.912 Y114.789 Z3.765 E0.01922 ; infill
G1 X111.912 Y114.789 Z3.765 E0.00000 ; infill
G1 X114.022 Y112.678 Z2.546 E0.05702 ; infill
G1 X114.022 Y113.215 Z2.856 E0.01047 ; infill
G1 X112.229 Y115.008 Z3.891 E0.04846 ; infill
G1 X112.229 Y115.008 Z3.891 E0.00000 ; infill
G1 X111.737 Y115.500 Z4.175 E0.01329 ; infill
G1 X112.273 Y115.500 Z4.175 E0.01014 ; infill
G1 X112.545 Y115.227 Z4.018 E0.00736 ; infill
G1 X112.545 Y115.227 Z4.018 E0.00000 ; infill
G1 X114.022 Y113.751 Z3.165 E0.03991 ; infill
G1 X114.022 Y114.287 Z3.475 E0.01047 ; infill
G1 X112.862 Y115.447 Z4.145 E0.03135 ; infill
G1 X112.862 Y115.447 Z4.145 E0.00000 ; infill
G1 X112.809 Y115.500 Z4.175 E0.00144 ; infill
G1 X112.939 Y115.500 Z4.175 E0.00245 ; infill
G1 X113.345 Y115.500 Z4.175 E0.00768 ; infill
G1 X114.022 Y114.823 Z3.784 E0.01830 ; infill
G1 X114.022 Y115.359 Z4.094 E0.01047 ; infill
G1 X113.881 Y115.500 Z4.175 E0.00382 ; infill
G1 E-5.00000 F2400.00000 ; retract extruder 0
G1 Z1.120 F7800.000 ; move to next layer (31)
G1 Z3.920 F7800.000 ; Move up before moving
G1 X105.649 Y109.350 F7800.000 ; move to first perimeter point
G1 Z1.495 F7800.000 ; Move down after moving

G1 F4800
G1 X105.649 Y104.171 Z4.485 E0.27941 ; perimeter
G1 X106.587 Y104.171 Z4.485 E0.04900 ; perimeter
G1 X114.351 Y104.171 Z4.485 E0.40561 ; perimeter
G1 X114.351 Y109.350 Z1.495 E0.27941 ; perimeter

G1 F4800
G1 X114.351 Y109.550 Z1.380 E0.00438 ; perimeter
G1 X114.351 Y109.550 Z1.380 E0.00000 ; perimeter
G1 X114.351 Y110.000 Z1.120 E0.00983 ; perimeter
G1 X114.351 Y110.000 Z1.120 E0.00000 ; perimeter
G1 X114.351 Y110.650 Z1.495 E0.01422 ; perimeter

G1 F4800
G1 X114.351 Y115.829 Z4.485 E0.27941 ; perimeter
G1 X113.413 Y115.829 Z4.485 E0.04900 ; perimeter
G1 X105.649 Y115.829 Z4.485 E0.40561 ; perimeter
G1 X105.649 Y110.650 Z1.495 E0.27941 ; perimeter

G1 F4800
G1 X105.649 Y110.450 Z1.380 E0.00438 ; perimeter
G1 X105.649 Y110.450 Z1.380 E0.00000 ; perimeter
G1 X105.649 Y110.000 Z1.120 E0.00983 ; perimeter
G1 X105.649 Y110.000 Z1.120 E0.00000 ; perimeter
G1 X105.649 Y109.402 Z1.495 E0.01320 ; perimeter
G1 Z3.920 F7800.000 ; Move up before moving
G1 X105.225 Y103.747 F7800.000 ; move to first perimeter point
G1 Z4.730 F7800.000 ; Move down after moving

G1 F4800
G1 X105.225 Y103.747 Z4.730 E0.00000 ; perimeter
G1 X105.975 Y103.747 Z4.730 E0.03917 ; perimeter
G1 X105.975 Y103.747 Z4.730 E0.00000 ; perimeter
G1 X114.775 Y103.747 Z4.730 E0.45977 ; perimeter
G1 X114.775 Y109.350 Z1.495 E0.30230 ; perimeter

G1 F2400
G1 X114.775 Y109.844 Z1.210 E0.01081 ; perimeter
G1 X114.775 Y110.000 Z1.120 E0.00341 ; perimeter
G1 X114.775 Y110.650 Z1.495 E0.01422 ; perimeter

G1 F4800
G1 X114.775 Y116.253 Z4.730 E0.30230 ; perimeter
G1 X114.025 Y116.253 Z4.730 E0.03917 ; perimeter
G1 X114.025 Y116.253 Z4.730 E0.00000 ; perimeter
G1 X105.225 Y116.253 Z4.730 E0.45977 ; perimeter
G1 X105.225 Y110.650 Z1.495 E0.30230 ; perimeter

G1 F2400
G1 X105.225 Y110.156 Z1.210 E0.01081 ; perimeter
G1 X105.225 Y110.000 Z1.120 E0.00341 ; perimeter
G1 X105.225 Y109.350 Z1.495 E0.01422 ; perimeter

G1 F4800
G1 X105.225 Y103.799 Z4.730 E0.29978 ; perimeter

G1 Z3.920 F7800.000 ; Move up before moving
G1 X114.002 Y104.671 F7800.000 ; move to first infill point
G1 Z4.197 F7800.000 ; Move down after moving
G1 F1800
G1 X113.851 Y104.521 Z4.284 E0.00456 ; infill
G1 X113.249 Y104.521 Z4.284 E0.01278 ; infill
G1 X114.002 Y105.273 Z3.849 E0.02282 ; infill
G1 X114.002 Y105.875 Z3.502 E0.01320 ; infill
G1 X112.647 Y104.521 Z4.284 E0.04109 ; infill
G1 X112.045 Y104.521 Z4.284 E0.01278 ; infill
G1 X114.002 Y106.477 Z3.154 E0.05936 ; infill
G1 X114.002 Y107.079 Z2.807 E0.01320 ; infill
G1 X111.443 Y104.521 Z4.284 E0.07762 ; infill
G1 X110.841 Y104.521 Z4.284 E0.01278 ; infill
G1 X114.002 Y107.681 Z2.459 E0.09589 ; infill
G1 X114.002 Y108.283 Z2.112 E0.01320 ; infill
G1 X110.239 Y104.521 Z4.284 E0.11416 ; infill
G1 X109.637 Y104.521 Z4.284 E0.01278 ; infill
G1 X114.002 Y108.885 Z1.764 E0.13242 ; infill
G1 X114.002 Y109.308 Z1.519 E0.00929 ; infill
G1 X114.002 Y109.487 Z1.416 E0.00391 ; infill
G1 X113.421 Y108.906 Z1.752 E0.01762 ; infill
G1 X113.421 Y108.906 Z1.752 E0.00000 ; infill
G1 X109.036 Y104.521 Z4.284 E0.13307 ; infill
G1 X108.434 Y104.521 Z4.284 E0.01278 ; infill
G1 X111.461 Y107.548 Z2.536 E0.09187 ; infill
G1 X113.913 Y110.000 Z1.120 E0.07440 ; infill
G1 X114.002 Y110.089 Z1.171 E0.00269 ; infill
G1 X114.002 Y110.691 Z1.519 E0.01320 ; infill
G1 X113.311 Y110.000 Z1.120 E0.02096 ; infill
G1 X109.501 Y106.190 Z3.319 E0.11560 ; infill
G1 X107.832 Y104.521 Z4.284 E0.05067 ; infill
G1 X107.230 Y104.521 Z4.284 E0.01278 ; infill
G1 X107.542 Y104.833 Z4.103 E0.00947 ; infill
G1 X107.542 Y104.833 Z4.103 E0.00000 ; infill
G1 X112.709 Y110.000 Z1.120 E0.15680 ; infill
G1 X114.002 Y111.293 Z1.866 E0.03922 ; infill
G1 X114.002 Y111.895 Z2.214 E0.01320 ; infill
G1 X112.107 Y110.000 Z1.120 E0.05749 ; infill
G1 X106.628 Y104.521 Z4.284 E0.16627 ; infill
G1 X106.026 Y104.521 Z4.284 E0.01278 ; infill
G1 X111.505 Y110.000 Z1.120 E0.16627 ; infill
G1 X114.002 Y112.497 Z2.561 E0.07576 ; infill
G1 X114.002 Y113.099 Z2.909 E0.01320 ; infill
G1 X110.903 Y110.000 Z1.120 E0.09402 ; infill
G1 X105.998 Y105.095 Z3.952 E0.14883 ; infill
G1 X105.998 Y105.697 Z3.604 E0.01320 ; infill
G1 X110.301 Y110.000 Z1.120 E0.13056 ; infill
G1 X114.002 Y113.701 Z3.257 E0.11229 ; infill
G1 X114.002 Y114.303 Z3.604 E0.01320 ; infill
G1 X109.699 Y110.000 Z1.120 E0.13056 ; infill
G1 X105.998 Y106.299 Z3.257 E0.11229 ; infill
G1 X105.998 Y106.901 Z2.909 E0.01320 ; infill
G1 X109.097 Y110.000 Z1.120 E0.09402 ; infill
G1 X114.002 Y114.905 Z3.952 E0.14882 ; infill
G1 X114.002 Y115.479 Z4.284 E0.01261 ; infill
G1 X114.002 Y115.479 Z4.284 E0.00000 ; infill
G1 X113.974 Y115.479 Z4.284 E0.00058 ; infill
G1 X108.495 Y110.000 Z1.120 E0.16627 ; infill
G1 X108.495 Y110.000 Z1.120 E0.00000 ; infill
G1 X105.998 Y107.503 Z2.561 E0.07576 ; infill
G1 X105.998 Y108.105 Z2.214 E0.01320 ; infill
