; generated by Slic3r 1.3.0-dev on 2020-10-12 at 11:46:23

; external perimeters extrusion width = 0.45mm (2.04mm^3/s)
; perimeters extrusion width = 0.45mm (4.07mm^3/s)
; infill extrusion width = 0.45mm (4.07mm^3/s)
; solid infill extrusion width = 0.45mm (1.53mm^3/s)
; top infill extrusion width = 0.40mm (0.90mm^3/s)

M109 S200 ;Heat nozzle to 200C
M190 S70 ;Heat nozzle to 70C
G28 ;Home all axes
M117 ; Purge extruder
G92 E0 ;Reset extruder
G1 Z2.0 F3000 ;Move Z Axis up
G92 E0 ;Reset extruder
G1 Z1.0 F3000 ;Move z up little to prevent scratching of surface
; Filament gcode

G21 ; set units to millimeters
G90 ; use absolute coordinates
M83 ; use relative distances for extrusion
G1 Z0.200 F7800.000 ; move to next layer (0)
G1 E-5.00000 F2400.00000 ; retract extruder 0
G1 X105.587 Y100.587 Z0.200 F7800.000 ; move to first perimeter point
G1 E5.00000 F2400.00000 ; unretract extruder 0
G1 F2400
G1 X114.413 Y100.587 Z0.200 E0.27673 ; perimeter
G1 X114.413 Y119.413 Z0.200 E0.59027 ; perimeter
G1 X105.587 Y119.413 Z0.200 E0.27673 ; perimeter
G1 X105.587 Y100.647 Z0.200 E0.58839 ; perimeter
G1 X105.210 Y100.210 Z0.200 F7800.000 ; move to first perimeter point
G1 F2400
G1 X114.790 Y100.210 Z0.200 E0.30037 ; perimeter
G1 X114.790 Y119.790 Z0.200 E0.61392 ; perimeter
G1 X105.210 Y119.790 Z0.200 E0.30037 ; perimeter
G1 X105.210 Y100.270 Z0.200 E0.61204 ; perimeter
G1 X105.583 Y100.355 F7800.000 ; move inwards before travel
G1 X105.898 Y101.031 Z0.200 F7800.000 ; move to first infill point
G1 F2400
G1 X105.897 Y101.031 Z0.200 E0.00000 ; infill
G1 X105.897 Y101.031 Z0.200 E0.00000 ; infill
G1 X105.897 Y101.031 Z0.200 E0.00000 ; infill
G1 X106.031 Y100.897 Z0.200 E0.00592 ; infill
G1 X106.564 Y100.897 Z0.200 E0.01674 ; infill
G1 X105.897 Y101.564 Z0.200 E0.02959 ; infill
G1 X105.897 Y102.098 Z0.200 E0.01674 ; infill
G1 X107.098 Y100.897 Z0.200 E0.05326 ; infill
G1 X107.632 Y100.897 Z0.200 E0.01674 ; infill
G1 X105.897 Y102.632 Z0.200 E0.07693 ; infill
G1 X105.897 Y103.165 Z0.200 E0.01674 ; infill
G1 X108.165 Y100.897 Z0.200 E0.10060 ; infill
G1 X108.699 Y100.897 Z0.200 E0.01674 ; infill
G1 X105.897 Y103.699 Z0.200 E0.12427 ; infill
G1 X105.897 Y104.232 Z0.200 E0.01674 ; infill
G1 X109.232 Y100.897 Z0.200 E0.14794 ; infill
G1 X109.766 Y100.897 Z0.200 E0.01674 ; infill
G1 X105.897 Y104.766 Z0.200 E0.17161 ; infill
G1 X105.897 Y105.299 Z0.200 E0.01674 ; infill
G1 X110.299 Y100.897 Z0.200 E0.19528 ; infill
G1 X110.833 Y100.897 Z0.200 E0.01674 ; infill
G1 X105.897 Y105.833 Z0.200 E0.21895 ; infill
G1 X105.897 Y106.366 Z0.200 E0.01674 ; infill
G1 X111.366 Y100.897 Z0.200 E0.24262 ; infill
G1 X111.900 Y100.897 Z0.200 E0.01674 ; infill
G1 X105.897 Y106.900 Z0.200 E0.26629 ; infill
G1 X105.897 Y107.433 Z0.200 E0.01674 ; infill
G1 X112.433 Y100.897 Z0.200 E0.28996 ; infill
G1 X112.967 Y100.897 Z0.200 E0.01674 ; infill
G1 X105.897 Y107.967 Z0.200 E0.31363 ; infill
G1 X105.897 Y108.500 Z0.200 E0.01674 ; infill
G1 X113.500 Y100.897 Z0.200 E0.33729 ; infill
G1 X114.034 Y100.897 Z0.200 E0.01674 ; infill
G1 X105.897 Y109.034 Z0.200 E0.36096 ; infill
G1 X105.897 Y109.567 Z0.200 E0.01674 ; infill
G1 X114.103 Y101.362 Z0.200 E0.36401 ; infill
G1 X114.103 Y101.896 Z0.200 E0.01674 ; infill
G1 X105.897 Y110.101 Z0.200 E0.36401 ; infill
G1 X105.897 Y110.635 Z0.200 E0.01674 ; infill
G1 X114.103 Y102.430 Z0.200 E0.36401 ; infill
G1 X114.103 Y102.963 Z0.200 E0.01674 ; infill
G1 X105.897 Y111.168 Z0.200 E0.36401 ; infill
G1 X105.897 Y111.702 Z0.200 E0.01674 ; infill
G1 X114.103 Y103.497 Z0.200 E0.36401 ; infill
G1 X114.103 Y104.030 Z0.200 E0.01674 ; infill
G1 X105.897 Y112.235 Z0.200 E0.36401 ; infill
G1 X105.897 Y112.769 Z0.200 E0.01674 ; infill
G1 X114.103 Y104.564 Z0.200 E0.36401 ; infill
G1 X114.103 Y105.097 Z0.200 E0.01674 ; infill
G1 X105.897 Y113.302 Z0.200 E0.36401 ; infill
G1 X105.897 Y113.836 Z0.200 E0.01674 ; infill
G1 X114.103 Y105.631 Z0.200 E0.36401 ; infill
G1 X114.103 Y106.164 Z0.200 E0.01674 ; infill
G1 X105.897 Y114.369 Z0.200 E0.36401 ; infill
G1 X105.897 Y114.903 Z0.200 E0.01674 ; infill
G1 X114.103 Y106.698 Z0.200 E0.36401 ; infill
G1 X114.103 Y107.231 Z0.200 E0.01674 ; infill
G1 X105.897 Y115.436 Z0.200 E0.36401 ; infill
G1 X105.897 Y115.970 Z0.200 E0.01674 ; infill
G1 X114.103 Y107.765 Z0.200 E0.36401 ; infill
G1 X114.103 Y108.298 Z0.200 E0.01674 ; infill
G1 X105.897 Y116.503 Z0.200 E0.36401 ; infill
G1 X105.897 Y117.037 Z0.200 E0.01674 ; infill
G1 X114.103 Y108.832 Z0.200 E0.36401 ; infill
G1 X114.103 Y109.365 Z0.200 E0.01674 ; infill
G1 X105.897 Y117.571 Z0.200 E0.36401 ; infill
G1 X105.897 Y118.104 Z0.200 E0.01674 ; infill
G1 X114.103 Y109.899 Z0.200 E0.36401 ; infill
G1 X114.103 Y110.433 Z0.200 E0.01674 ; infill
G1 X105.897 Y118.638 Z0.200 E0.36401 ; infill
G1 X105.897 Y119.103 Z0.200 E0.01459 ; infill
G1 X105.897 Y119.103 Z0.200 E0.00000 ; infill
G1 X105.966 Y119.103 Z0.200 E0.00215 ; infill
G1 X114.103 Y110.966 Z0.200 E0.36096 ; infill
G1 X114.103 Y111.500 Z0.200 E0.01674 ; infill
G1 X106.500 Y119.103 Z0.200 E0.33729 ; infill
G1 X107.033 Y119.103 Z0.200 E0.01674 ; infill
G1 X114.103 Y112.033 Z0.200 E0.31362 ; infill
G1 X114.103 Y112.567 Z0.200 E0.01674 ; infill
G1 X107.567 Y119.103 Z0.200 E0.28995 ; infill
G1 X108.100 Y119.103 Z0.200 E0.01674 ; infill
G1 X114.103 Y113.100 Z0.200 E0.26629 ; infill
G1 X114.103 Y113.634 Z0.200 E0.01674 ; infill
G1 X108.634 Y119.103 Z0.200 E0.24262 ; infill
G1 X109.167 Y119.103 Z0.200 E0.01674 ; infill
G1 X114.103 Y114.167 Z0.200 E0.21895 ; infill
G1 X114.103 Y114.701 Z0.200 E0.01674 ; infill
G1 X109.701 Y119.103 Z0.200 E0.19528 ; infill
G1 X110.234 Y119.103 Z0.200 E0.01674 ; infill
G1 X114.103 Y115.234 Z0.200 E0.17161 ; infill
G1 X114.103 Y115.768 Z0.200 E0.01674 ; infill
G1 X110.768 Y119.103 Z0.200 E0.14794 ; infill
G1 X111.301 Y119.103 Z0.200 E0.01674 ; infill
G1 X114.103 Y116.301 Z0.200 E0.12427 ; infill
G1 X114.103 Y116.835 Z0.200 E0.01674 ; infill
G1 X111.835 Y119.103 Z0.200 E0.10060 ; infill
G1 X112.368 Y119.103 Z0.200 E0.01674 ; infill
G1 X114.103 Y117.368 Z0.200 E0.07693 ; infill
G1 X114.103 Y117.902 Z0.200 E0.01674 ; infill
G1 X112.902 Y119.103 Z0.200 E0.05326 ; infill
G1 X113.436 Y119.103 Z0.200 E0.01674 ; infill
G1 X114.103 Y118.436 Z0.200 E0.02959 ; infill
G1 X114.103 Y118.969 Z0.200 E0.01674 ; infill
G1 X113.969 Y119.103 Z0.200 E0.00592 ; infill
M106 S178.5 ; enable fan
G1 Z0.320 F7800.000 ; move to next layer (1)
G1 X105.649 Y100.649 Z0.320 F7800.000 ; move to first perimeter point
G1 F4800
G1 X114.351 Y100.649 Z0.320 E0.18417 ; perimeter
G1 X114.351 Y119.351 Z0.320 E0.39583 ; perimeter
G1 X105.649 Y119.351 Z0.320 E0.18417 ; perimeter
G1 X105.649 Y100.709 Z0.320 E0.39456 ; perimeter
G1 X105.225 Y100.225 Z0.320 F7800.000 ; move to first perimeter point
G1 F2400
G1 X114.775 Y100.225 Z0.320 E0.20213 ; perimeter
G1 X114.775 Y119.775 Z0.320 E0.41379 ; perimeter
G1 X105.225 Y119.775 Z0.320 E0.20213 ; perimeter
G1 X105.225 Y100.285 Z0.320 E0.41252 ; perimeter
G1 X105.598 Y100.370 F7800.000 ; move inwards before travel
G1 X114.002 Y101.149 Z0.320 F7800.000 ; move to first infill point
G1 F1800
G1 X113.851 Y100.998 Z0.320 E0.00458 ; infill
G1 X113.239 Y100.998 Z0.320 E0.01321 ; infill
G1 X114.002 Y101.761 Z0.320 E0.02327 ; infill
G1 X114.002 Y102.373 Z0.320 E0.01321 ; infill
G1 X112.627 Y100.998 Z0.320 E0.04196 ; infill
G1 X112.015 Y100.998 Z0.320 E0.01321 ; infill
G1 X114.002 Y102.985 Z0.320 E0.06065 ; infill
G1 X114.002 Y103.597 Z0.320 E0.01321 ; infill
G1 X111.403 Y100.998 Z0.320 E0.07934 ; infill
G1 X110.791 Y100.998 Z0.320 E0.01321 ; infill
G1 X114.002 Y104.209 Z0.320 E0.09803 ; infill
G1 X114.002 Y104.821 Z0.320 E0.01321 ; infill
G1 X110.179 Y100.998 Z0.320 E0.11672 ; infill
G1 X109.567 Y100.998 Z0.320 E0.01321 ; infill
G1 X114.002 Y105.433 Z0.320 E0.13541 ; infill
G1 X114.002 Y106.045 Z0.320 E0.01321 ; infill
G1 X108.955 Y100.998 Z0.320 E0.15409 ; infill
G1 X108.343 Y100.998 Z0.320 E0.01321 ; infill
G1 X114.002 Y106.657 Z0.320 E0.17278 ; infill
G1 X114.002 Y107.269 Z0.320 E0.01321 ; infill
G1 X107.731 Y100.998 Z0.320 E0.19147 ; infill
G1 X107.119 Y100.998 Z0.320 E0.01321 ; infill
G1 X114.002 Y107.881 Z0.320 E0.21016 ; infill
G1 X114.002 Y108.493 Z0.320 E0.01321 ; infill
G1 X106.507 Y100.998 Z0.320 E0.22885 ; infill
G1 X105.998 Y100.998 Z0.320 E0.01098 ; infill
G1 X105.998 Y100.998 Z0.320 E0.00000 ; infill
G1 X105.998 Y101.102 Z0.320 E0.00224 ; infill
G1 X114.002 Y109.105 Z0.320 E0.24437 ; infill
G1 X114.002 Y109.717 Z0.320 E0.01321 ; infill
G1 X105.998 Y101.714 Z0.320 E0.24437 ; infill
G1 X105.998 Y102.326 Z0.320 E0.01321 ; infill
G1 X114.002 Y110.329 Z0.320 E0.24437 ; infill
G1 X114.002 Y110.941 Z0.320 E0.01321 ; infill
G1 X105.998 Y102.938 Z0.320 E0.24437 ; infill
G1 X105.998 Y103.550 Z0.320 E0.01321 ; infill
G1 X114.002 Y111.553 Z0.320 E0.24437 ; infill
G1 X114.002 Y112.165 Z0.320 E0.01321 ; infill
G1 X105.998 Y104.162 Z0.320 E0.24437 ; infill
G1 X105.998 Y104.774 Z0.320 E0.01321 ; infill
G1 X114.002 Y112.777 Z0.320 E0.24437 ; infill
G1 X114.002 Y113.389 Z0.320 E0.01321 ; infill
G1 X105.998 Y105.386 Z0.320 E0.24437 ; infill
G1 X105.998 Y105.998 Z0.320 E0.01321 ; infill
G1 X114.002 Y114.002 Z0.320 E0.24437 ; infill
G1 X114.002 Y114.614 Z0.320 E0.01321 ; infill
G1 X105.998 Y106.610 Z0.320 E0.24437 ; infill
G1 X105.998 Y107.223 Z0.320 E0.01321 ; infill
G1 X114.002 Y115.226 Z0.320 E0.24437 ; infill
G1 X114.002 Y115.838 Z0.320 E0.01321 ; infill
G1 X105.998 Y107.835 Z0.320 E0.24437 ; infill
G1 X105.998 Y108.447 Z0.320 E0.01321 ; infill
G1 X114.002 Y116.450 Z0.320 E0.24437 ; infill
G1 X114.002 Y117.062 Z0.320 E0.01321 ; infill
G1 X105.998 Y109.059 Z0.320 E0.24437 ; infill
G1 X105.998 Y109.671 Z0.320 E0.01321 ; infill
G1 X114.002 Y117.674 Z0.320 E0.24437 ; infill
G1 X114.002 Y118.286 Z0.320 E0.01321 ; infill
G1 X105.998 Y110.283 Z0.320 E0.24437 ; infill
G1 X105.998 Y110.895 Z0.320 E0.01321 ; infill
G1 X114.002 Y118.898 Z0.320 E0.24437 ; infill
G1 X114.002 Y119.002 Z0.320 E0.00224 ; infill
G1 X114.002 Y119.002 Z0.320 E0.00000 ; infill
G1 X113.493 Y119.002 Z0.320 E0.01098 ; infill
G1 X105.998 Y111.507 Z0.320 E0.22885 ; infill
G1 X105.998 Y112.119 Z0.320 E0.01321 ; infill
G1 X112.881 Y119.002 Z0.320 E0.21016 ; infill
G1 X112.269 Y119.002 Z0.320 E0.01321 ; infill
G1 X105.998 Y112.731 Z0.320 E0.19147 ; infill
G1 X105.998 Y113.343 Z0.320 E0.01321 ; infill
G1 X111.657 Y119.002 Z0.320 E0.17278 ; infill
G1 X111.045 Y119.002 Z0.320 E0.01321 ; infill
G1 X105.998 Y113.955 Z0.320 E0.15410 ; infill
G1 X105.998 Y114.567 Z0.320 E0.01321 ; infill
G1 X110.433 Y119.002 Z0.320 E0.13541 ; infill
G1 X109.821 Y119.002 Z0.320 E0.01321 ; infill
G1 X105.998 Y115.179 Z0.320 E0.11672 ; infill
G1 X105.998 Y115.791 Z0.320 E0.01321 ; infill
G1 X109.209 Y119.002 Z0.320 E0.09803 ; infill
G1 X108.597 Y119.002 Z0.320 E0.01321 ; infill
G1 X105.998 Y116.403 Z0.320 E0.07934 ; infill
G1 X105.998 Y117.015 Z0.320 E0.01321 ; infill
G1 X107.985 Y119.002 Z0.320 E0.06065 ; infill
G1 X107.373 Y119.002 Z0.320 E0.01321 ; infill
G1 X105.998 Y117.627 Z0.320 E0.04196 ; infill
G1 X105.998 Y118.239 Z0.320 E0.01321 ; infill
G1 X106.761 Y119.002 Z0.320 E0.02327 ; infill
G1 X106.149 Y119.002 Z0.320 E0.01321 ; infill
G1 X105.998 Y118.851 Z0.320 E0.00459 ; infill
G1 Z0.440 F7800.000 ; move to next layer (2)
G1 X105.649 Y100.649 Z0.440 F7800.000 ; move to first perimeter point
G1 F4800
G1 X114.351 Y100.649 Z0.440 E0.18417 ; perimeter
G1 X114.351 Y119.351 Z0.440 E0.39583 ; perimeter
G1 X105.649 Y119.351 Z0.440 E0.18417 ; perimeter
G1 X105.649 Y100.709 Z0.440 E0.39456 ; perimeter
G1 X105.225 Y100.225 Z0.440 F7800.000 ; move to first perimeter point
G1 F2400
G1 X114.775 Y100.225 Z0.440 E0.20213 ; perimeter
G1 X114.775 Y119.775 Z0.440 E0.41379 ; perimeter
G1 X105.225 Y119.775 Z0.440 E0.20213 ; perimeter
G1 X105.225 Y100.285 Z0.440 E0.41252 ; perimeter
G1 X105.598 Y100.370 F7800.000 ; move inwards before travel
G1 X106.149 Y100.998 Z0.440 F7800.000 ; move to first infill point
G1 F1800
G1 X105.998 Y101.149 Z0.440 E0.00459 ; infill
G1 X105.998 Y101.761 Z0.440 E0.01321 ; infill
G1 X106.761 Y100.998 Z0.440 E0.02327 ; infill
G1 X107.373 Y100.998 Z0.440 E0.01321 ; infill
G1 X105.998 Y102.373 Z0.440 E0.04196 ; infill
G1 X105.998 Y102.985 Z0.440 E0.01321 ; infill
G1 X107.985 Y100.998 Z0.440 E0.06065 ; infill
G1 X108.597 Y100.998 Z0.440 E0.01321 ; infill
G1 X105.998 Y103.597 Z0.440 E0.07934 ; infill
G1 X105.998 Y104.209 Z0.440 E0.01321 ; infill
G1 X109.209 Y100.998 Z0.440 E0.09803 ; infill
G1 X109.821 Y100.998 Z0.440 E0.01321 ; infill
G1 X105.998 Y104.821 Z0.440 E0.11672 ; infill
G1 X105.998 Y105.433 Z0.440 E0.01321 ; infill
G1 X110.433 Y100.998 Z0.440 E0.13541 ; infill
G1 X111.045 Y100.998 Z0.440 E0.01321 ; infill
G1 X105.998 Y106.045 Z0.440 E0.15410 ; infill
G1 X105.998 Y106.657 Z0.440 E0.01321 ; infill
G1 X111.657 Y100.998 Z0.440 E0.17278 ; infill
G1 X112.269 Y100.998 Z0.440 E0.01321 ; infill
G1 X105.998 Y107.269 Z0.440 E0.19147 ; infill
G1 X105.998 Y107.881 Z0.440 E0.01321 ; infill
G1 X112.881 Y100.998 Z0.440 E0.21016 ; infill
G1 X113.493 Y100.998 Z0.440 E0.01321 ; infill
G1 X105.998 Y108.493 Z0.440 E0.22885 ; infill
G1 X105.998 Y109.105 Z0.440 E0.01321 ; infill
G1 X114.002 Y101.102 Z0.440 E0.24437 ; infill
G1 X114.002 Y101.714 Z0.440 E0.01321 ; infill
G1 X105.998 Y109.717 Z0.440 E0.24437 ; infill
G1 X105.998 Y110.329 Z0.440 E0.01321 ; infill
G1 X114.002 Y102.326 Z0.440 E0.24437 ; infill
G1 X114.002 Y102.938 Z0.440 E0.01321 ; infill
G1 X105.998 Y110.941 Z0.440 E0.24437 ; infill
G1 X105.998 Y111.553 Z0.440 E0.01321 ; infill
G1 X114.002 Y103.550 Z0.440 E0.24437 ; infill
G1 X114.002 Y104.162 Z0.440 E0.01321 ; infill
G1 X105.998 Y112.165 Z0.440 E0.24437 ; infill
G1 X105.998 Y112.777 Z0.440 E0.01321 ; infill
G1 X114.002 Y104.774 Z0.440 E0.24437 ; infill
G1 X114.002 Y105.386 Z0.440 E0.01321 ; infill
G1 X105.998 Y113.390 Z0.440 E0.24437 ; infill
G1 X105.998 Y114.002 Z0.440 E0.01321 ; infill
G1 X114.002 Y105.998 Z0.440 E0.24437 ; infill
G1 X114.002 Y106.611 Z0.440 E0.01321 ; infill
G1 X105.998 Y114.614 Z0.440 E0.24437 ; infill
G1 X105.998 Y115.226 Z0.440 E0.01321 ; infill
G1 X114.002 Y107.223 Z0.440 E0.24437 ; infill
G1 X114.002 Y107.835 Z0.440 E0.01321 ; infill
G1 X105.998 Y115.838 Z0.440 E0.24437 ; infill
G1 X105.998 Y116.450 Z0.440 E0.01321 ; infill
G1 X114.002 Y108.447 Z0.440 E0.24437 ; infill
G1 X114.002 Y109.059 Z0.440 E0.01321 ; infill
G1 X105.998 Y117.062 Z0.440 E0.24437 ; infill
G1 X105.998 Y117.674 Z0.440 E0.01321 ; infill
G1 X114.002 Y109.671 Z0.440 E0.24437 ; infill
G1 X114.002 Y110.283 Z0.440 E0.01321 ; infill
G1 X105.998 Y118.286 Z0.440 E0.24437 ; infill
G1 X105.998 Y118.898 Z0.440 E0.01321 ; infill
G1 X114.002 Y110.895 Z0.440 E0.24437 ; infill
G1 X114.002 Y111.507 Z0.440 E0.01321 ; infill
G1 X106.507 Y119.002 Z0.440 E0.22885 ; infill
G1 X107.119 Y119.002 Z0.440 E0.01321 ; infill
G1 X114.002 Y112.119 Z0.440 E0.21016 ; infill
G1 X114.002 Y112.731 Z0.440 E0.01321 ; infill
G1 X107.731 Y119.002 Z0.440 E0.19147 ; infill
G1 X108.343 Y119.002 Z0.440 E0.01321 ; infill
G1 X114.002 Y113.343 Z0.440 E0.17278 ; infill
G1 X114.002 Y113.955 Z0.440 E0.01321 ; infill
G1 X108.955 Y119.002 Z0.440 E0.15409 ; infill
G1 X109.567 Y119.002 Z0.440 E0.01321 ; infill
G1 X114.002 Y114.567 Z0.440 E0.13541 ; infill
G1 X114.002 Y115.179 Z0.440 E0.01321 ; infill
G1 X110.179 Y119.002 Z0.440 E0.11672 ; infill
G1 X110.791 Y119.002 Z0.440 E0.01321 ; infill
G1 X114.002 Y115.791 Z0.440 E0.09803 ; infill
G1 X114.002 Y116.403 Z0.440 E0.01321 ; infill
G1 X111.403 Y119.002 Z0.440 E0.07934 ; infill
G1 X112.015 Y119.002 Z0.440 E0.01321 ; infill
G1 X114.002 Y117.015 Z0.440 E0.06065 ; infill
G1 X114.002 Y117.627 Z0.440 E0.01321 ; infill
G1 X112.627 Y119.002 Z0.440 E0.04196 ; infill
G1 X113.239 Y119.002 Z0.440 E0.01321 ; infill
G1 X114.002 Y118.239 Z0.440 E0.02327 ; infill
G1 X114.002 Y118.851 Z0.440 E0.01321 ; infill
G1 X113.851 Y119.002 Z0.440 E0.00458 ; infill
G1 Z0.560 F7800.000 ; move to next layer (3)
G1 X105.649 Y100.649 Z0.560 F7800.000 ; move to first perimeter point
G1 F4800
G1 X114.351 Y100.649 Z0.560 E0.18417 ; perimeter
