; generated by Slic3r 1.3.0-dev on 2020-10-12 at 13:47:22

; external perimeters extrusion width = 0.45mm (2.04mm^3/s)
; perimeters extrusion width = 0.45mm (4.07mm^3/s)
; infill extrusion width = 0.45mm (4.07mm^3/s)
; solid infill extrusion width = 0.45mm (1.53mm^3/s)
; top infill extrusion width = 0.40mm (0.90mm^3/s)

M109 S200 ;Heat nozzle to 200C
M190 S70 ;Heat nozzle to 70C
G28 ;Home all axes
M117 ; Purge extruder
G92 E0 ;Reset extruder
G1 Z2.0 F3000 ;Move Z Axis up
G1 X0.1 Y20 Z0.3 F5000.0 ; Move to start position
G1 X0.1 Y200.0 Z0.3 F1500.0 E15 ; Draw the first line
G1 X0.4 Y200.0 Z0.3 F5000.0 ; Move to side a little
G1 X0.4 Y20 Z0.3 F1500.0 E30 ; Draw the second line
G92 E0 ;Reset extruder
G1 Z1.0 F3000 ;Move z up little to prevent scratching of surface
G1 X0 Y100 Z10 F7800;
; Filament gcode

G21 ; set units to millimeters
G90 ; use absolute coordinates
M83 ; use relative distances for extrusion
G1 Z5.000 F7800.000 ; move to next layer (48)
G1 E-5.00000 F2400.00000 ; retract extruder 0
G1 X105.649 Y110.675 F7800.000 ; move to first perimeter point
G1 E5.00000 F2400.00000 ; unretract extruder 0

G1 F4800
G1 X105.649 Y110.675 Z4.390 E0.00000 ; perimeter
G1 X105.649 Y110.581 Z4.335 E0.00505 ; perimeter

G1 F4800
G1 X105.649 Y110.000 Z4.000 E0.01270 ; perimeter
G1 X105.649 Y110.000 Z4.000 E0.00000 ; perimeter
G1 X105.649 Y109.419 Z4.335 E0.01270 ; perimeter

G1 F4800
G1 X105.649 Y100.707 Z9.365 E0.47007 ; perimeter
G1 X106.058 Y100.707 Z9.365 E0.02136 ; perimeter
G1 X106.058 Y100.707 Z9.365 E0.00000 ; perimeter
G1 X114.351 Y100.707 Z9.365 E0.43325 ; perimeter
G1 X114.351 Y109.325 Z4.390 E0.46501 ; perimeter
G1 X114.351 Y109.419 Z4.335 E0.00505 ; perimeter

G1 F4800
G1 X114.351 Y110.000 Z4.000 E0.01270 ; perimeter
G1 X114.351 Y110.000 Z4.000 E0.00000 ; perimeter
G1 X114.351 Y110.581 Z4.335 E0.01270 ; perimeter

G1 F4800
G1 X114.351 Y119.293 Z9.365 E0.47007 ; perimeter
G1 X113.942 Y119.293 Z9.365 E0.02136 ; perimeter
G1 X105.649 Y119.293 Z9.365 E0.43325 ; perimeter
G1 X105.649 Y110.727 Z4.390 E0.46249 ; perimeter

G1 E-5.00000 F2400.00000 ; retract extruder 0
G1 E5.00000 F2400.00000 ; unretract extruder 0

G1 F4800
G1 X105.225 Y119.717 Z9.610 E0.00000 ; perimeter
G1 X105.225 Y110.581 Z4.335 E0.49296 ; perimeter

G1 F2400
G1 X105.225 Y110.234 Z4.135 E0.00759 ; perimeter
G1 X105.225 Y110.000 Z4.000 E0.00511 ; perimeter
G1 X105.225 Y109.419 Z4.335 E0.01270 ; perimeter

G1 F4800
G1 X105.225 Y100.283 Z9.610 E0.49296 ; perimeter
G1 X105.650 Y100.283 Z9.610 E0.02220 ; perimeter
G1 X114.775 Y100.283 Z9.610 E0.47674 ; perimeter
G1 X114.775 Y109.419 Z4.335 E0.49296 ; perimeter

G1 F2400
G1 X114.775 Y109.766 Z4.135 E0.00759 ; perimeter
G1 X114.775 Y110.000 Z4.000 E0.00511 ; perimeter
G1 X114.775 Y110.581 Z4.335 E0.01270 ; perimeter

G1 F4800
G1 X114.775 Y119.717 Z9.610 E0.49296 ; perimeter
G1 X114.350 Y119.717 Z9.610 E0.02220 ; perimeter
G1 X105.285 Y119.717 Z9.610 E0.47361 ; perimeter

G1 E-5.00000 F2400.00000 ; retract extruder 0
G1 X113.881 Y118.964 F7800.000 ; move to first infill point
G1 E5.00000 F2400.00000 ; unretract extruder 0
G1 F1200
G1 X114.022 Y118.823 Z9.094 E0.00381 ; infill
G1 X114.022 Y118.288 Z8.785 E0.01044 ; infill
G1 X113.488 Y118.821 Z9.093 E0.01440 ; infill
G1 X113.346 Y118.964 Z9.175 E0.00385 ; infill
G1 X112.810 Y118.964 Z9.175 E0.01011 ; infill
G1 X113.226 Y118.549 Z8.936 E0.01121 ; infill
G1 X113.226 Y118.549 Z8.936 E0.00000 ; infill
G1 X114.022 Y117.752 Z8.476 E0.02148 ; infill
G1 X114.022 Y117.217 Z8.167 E0.01044 ; infill
G1 X112.963 Y118.276 Z8.778 E0.02856 ; infill
G1 X112.963 Y118.276 Z8.778 E0.00000 ; infill
G1 X112.275 Y118.964 Z9.175 E0.01857 ; infill
G1 X111.740 Y118.964 Z9.175 E0.01011 ; infill
G1 X112.701 Y118.003 Z8.621 E0.02593 ; infill
G1 X112.701 Y118.003 Z8.621 E0.00000 ; infill
G1 X114.022 Y116.682 Z7.858 E0.03564 ; infill
G1 X114.022 Y116.147 Z7.549 E0.01044 ; infill
G1 X112.439 Y117.730 Z8.463 E0.04272 ; infill
G1 X112.439 Y117.730 Z8.463 E0.00000 ; infill
G1 X111.205 Y118.964 Z9.175 E0.03328 ; infill
G1 X110.670 Y118.964 Z9.175 E0.01011 ; infill
G1 X112.176 Y117.458 Z8.306 E0.04064 ; infill
G1 X114.022 Y115.612 Z7.240 E0.04980 ; infill
G1 X114.022 Y115.076 Z6.931 E0.01044 ; infill
G1 X111.914 Y117.185 Z8.148 E0.05688 ; infill
G1 X110.134 Y118.964 Z9.175 E0.04800 ; infill
G1 X109.599 Y118.964 Z9.175 E0.01011 ; infill
G1 X111.651 Y116.912 Z7.991 E0.05536 ; infill
G1 X114.022 Y114.541 Z6.622 E0.06396 ; infill
G1 X114.022 Y114.006 Z6.313 E0.01044 ; infill
G1 X111.389 Y116.639 Z7.833 E0.07104 ; infill
G1 X109.064 Y118.964 Z9.175 E0.06272 ; infill
G1 X108.529 Y118.964 Z9.175 E0.01011 ; infill
G1 X111.126 Y116.367 Z7.676 E0.07008 ; infill
G1 X114.022 Y113.471 Z6.004 E0.07812 ; infill
G1 X114.022 Y112.936 Z5.695 E0.01044 ; infill
G1 X110.864 Y116.094 Z7.518 E0.08521 ; infill
G1 X107.994 Y118.964 Z9.175 E0.07743 ; infill
G1 X107.458 Y118.964 Z9.175 E0.01011 ; infill
G1 X110.601 Y115.821 Z7.361 E0.08479 ; infill
G1 X114.022 Y112.400 Z5.386 E0.09229 ; infill
G1 X114.022 Y111.865 Z5.077 E0.01044 ; infill
G1 X110.339 Y115.548 Z7.203 E0.09937 ; infill
G1 X106.923 Y118.964 Z9.175 E0.09215 ; infill
G1 X106.388 Y118.964 Z9.175 E0.01011 ; infill
G1 X110.076 Y115.276 Z7.046 E0.09951 ; infill
G1 X110.076 Y115.276 Z7.046 E0.00000 ; infill
G1 X114.022 Y111.330 Z4.768 E0.10645 ; infill
G1 X114.022 Y110.795 Z4.459 E0.01044 ; infill
G1 X109.814 Y115.003 Z6.888 E0.11353 ; infill
G1 X105.978 Y118.839 Z9.103 E0.10349 ; infill
G1 X105.978 Y118.304 Z8.794 E0.01044 ; infill
G1 X109.552 Y114.730 Z6.731 E0.09641 ; infill
G1 X114.022 Y110.260 Z4.150 E0.12061 ; infill
G1 X114.022 Y110.000 Z4.000 E0.00506 ; infill
G1 X114.022 Y109.724 Z4.159 E0.00538 ; infill
G1 X113.746 Y110.000 Z4.000 E0.00744 ; infill
G1 X109.289 Y114.457 Z6.573 E0.12025 ; infill
G1 X105.978 Y117.769 Z8.485 E0.08933 ; infill
G1 X105.978 Y117.233 Z8.176 E0.01044 ; infill
G1 X109.027 Y114.185 Z6.416 E0.08225 ; infill
G1 X109.027 Y114.185 Z6.416 E0.00000 ; infill
G1 X113.211 Y110.000 Z4.000 E0.11289 ; infill
G1 X113.211 Y110.000 Z4.000 E0.00000 ; infill
G1 X114.022 Y109.189 Z4.468 E0.02188 ; infill
G1 X114.022 Y108.984 Z4.587 E0.00400 ; infill
G1 X114.022 Y108.654 Z4.777 E0.00643 ; infill
G1 X113.860 Y108.816 Z4.684 E0.00436 ; infill
G1 X113.860 Y108.816 Z4.684 E0.00000 ; infill
G1 X112.676 Y110.000 Z4.000 E0.03195 ; infill
G1 X108.764 Y113.912 Z6.259 E0.10553 ; infill
G1 X105.978 Y116.698 Z7.867 E0.07517 ; infill
G1 X105.978 Y116.163 Z7.558 E0.01044 ; infill
G1 X108.502 Y113.639 Z6.101 E0.06809 ; infill
G1 X112.141 Y110.000 Z4.000 E0.09818 ; infill
G1 X112.141 Y110.000 Z4.000 E0.00000 ; infill
G1 X113.598 Y108.543 Z4.841 E0.03931 ; infill
G1 X113.598 Y108.543 Z4.841 E0.00000 ; infill
G1 X114.022 Y108.119 Z5.086 E0.01144 ; infill
G1 X114.022 Y107.584 Z5.395 E0.01044 ; infill
G1 X113.335 Y108.270 Z4.999 E0.01852 ; infill
G1 X113.335 Y108.270 Z4.999 E0.00000 ; infill
G1 X111.606 Y110.000 Z4.000 E0.04667 ; infill
G1 X108.239 Y113.366 Z5.944 E0.09082 ; infill
G1 X108.239 Y113.366 Z5.944 E0.00000 ; infill
G1 X105.978 Y115.628 Z7.249 E0.06101 ; infill
G1 X105.978 Y115.093 Z6.940 E0.01044 ; infill
G1 X107.977 Y113.094 Z5.786 E0.05393 ; infill
G1 X111.070 Y110.000 Z4.000 E0.08346 ; infill
G1 X113.073 Y107.997 Z5.156 E0.05403 ; infill
G1 X113.073 Y107.997 Z5.156 E0.00000 ; infill
G1 X114.022 Y107.048 Z5.704 E0.02560 ; infill
G1 X114.022 Y106.513 Z6.013 E0.01044 ; infill
G1 X112.811 Y107.725 Z5.314 E0.03269 ; infill
G1 X112.811 Y107.725 Z5.314 E0.00000 ; infill
G1 X110.535 Y110.000 Z4.000 E0.06138 ; infill
G1 X110.535 Y110.000 Z4.000 E0.00000 ; infill
G1 X107.714 Y112.821 Z5.629 E0.07610 ; infill
G1 X107.714 Y112.821 Z5.629 E0.00000 ; infill
G1 X105.978 Y114.557 Z6.631 E0.04685 ; infill
G1 X105.978 Y114.022 Z6.322 E0.01044 ; infill
G1 X107.452 Y112.548 Z5.471 E0.03977 ; infill
G1 X107.452 Y112.548 Z5.471 E0.00000 ; infill
G1 X110.000 Y110.000 Z4.000 E0.06874 ; infill
G1 X112.548 Y107.452 Z5.471 E0.06874 ; infill
G1 X112.548 Y107.452 Z5.471 E0.00000 ; infill
G1 X114.022 Y105.978 Z6.322 E0.03977 ; infill
G1 X114.022 Y105.443 Z6.631 E0.01044 ; infill
G1 X112.286 Y107.179 Z5.629 E0.04685 ; infill
G1 X112.286 Y107.179 Z5.629 E0.00000 ; infill
G1 X109.465 Y110.000 Z4.000 E0.07610 ; infill
G1 X107.189 Y112.275 Z5.314 E0.06138 ; infill
G1 X105.978 Y113.487 Z6.013 E0.03269 ; infill
G1 X105.978 Y112.952 Z5.704 E0.01044 ; infill
G1 X106.927 Y112.003 Z5.156 E0.02561 ; infill
G1 X106.927 Y112.003 Z5.156 E0.00000 ; infill
G1 X108.930 Y110.000 Z4.000 E0.05403 ; infill
G1 X112.023 Y106.906 Z5.786 E0.08346 ; infill
G1 X112.023 Y106.906 Z5.786 E0.00000 ; infill
G1 X114.022 Y104.908 Z6.940 E0.05393 ; infill
G1 X114.022 Y104.372 Z7.249 E0.01044 ; infill
G1 X111.761 Y106.634 Z5.944 E0.06101 ; infill
G1 X108.394 Y110.000 Z4.000 E0.09082 ; infill
G1 X108.394 Y110.000 Z4.000 E0.00000 ; infill
G1 X106.665 Y111.730 Z4.999 E0.04667 ; infill
G1 X106.665 Y111.730 Z4.999 E0.00000 ; infill
G1 X105.978 Y112.417 Z5.395 E0.01853 ; infill
G1 X105.978 Y111.881 Z5.086 E0.01044 ; infill
G1 X106.402 Y111.457 Z4.841 E0.01144 ; infill
G1 X106.402 Y111.457 Z4.841 E0.00000 ; infill
G1 X107.859 Y110.000 Z4.000 E0.03931 ; infill
G1 X111.498 Y106.361 Z6.101 E0.09818 ; infill
G1 X114.022 Y103.837 Z7.558 E0.06809 ; infill
G1 X114.022 Y103.302 Z7.867 E0.01044 ; infill
G1 X111.236 Y106.088 Z6.258 E0.07517 ; infill
G1 X107.324 Y110.000 Z4.000 E0.10553 ; infill
G1 X107.324 Y110.000 Z4.000 E0.00000 ; infill
G1 X106.140 Y111.184 Z4.684 E0.03195 ; infill
G1 X105.978 Y111.346 Z4.777 E0.00436 ; infill
G1 X105.978 Y111.016 Z4.587 E0.00643 ; infill
G1 X105.978 Y111.016 Z4.587 E0.00000 ; infill
G1 X105.978 Y110.811 Z4.468 E0.00400 ; infill
G1 X106.789 Y110.000 Z4.000 E0.02188 ; infill
G1 X110.973 Y105.815 Z6.416 E0.11289 ; infill
G1 X114.022 Y102.767 Z8.176 E0.08225 ; infill
G1 X114.022 Y102.231 Z8.485 E0.01044 ; infill
G1 X110.711 Y105.543 Z6.573 E0.08933 ; infill
G1 X106.254 Y110.000 Z4.000 E0.12025 ; infill
G1 X105.978 Y110.276 Z4.159 E0.00744 ; infill
G1 X105.978 Y110.000 Z4.000 E0.00538 ; infill
G1 X105.978 Y109.741 Z4.150 E0.00506 ; infill
G1 X110.448 Y105.270 Z6.731 E0.12061 ; infill
G1 X114.022 Y101.696 Z8.794 E0.09641 ; infill
G1 X114.022 Y101.161 Z9.103 E0.01044 ; infill
G1 X110.186 Y104.997 Z6.888 E0.10349 ; infill
G1 X110.186 Y104.997 Z6.888 E0.00000 ; infill
G1 X105.978 Y109.205 Z4.459 E0.11353 ; infill
G1 X105.978 Y108.670 Z4.768 E0.01044 ; infill
G1 X109.924 Y104.724 Z7.046 E0.10645 ; infill
G1 X109.924 Y104.724 Z7.046 E0.00000 ; infill
G1 X113.612 Y101.036 Z9.175 E0.09951 ; infill
G1 X113.077 Y101.036 Z9.175 E0.01011 ; infill
G1 X109.661 Y104.452 Z7.203 E0.09215 ; infill
G1 X105.978 Y108.135 Z5.077 E0.09937 ; infill
G1 X105.978 Y107.600 Z5.386 E0.01044 ; infill
G1 X109.399 Y104.179 Z7.361 E0.09229 ; infill
G1 X112.542 Y101.036 Z9.175 E0.08479 ; infill
G1 X112.006 Y101.036 Z9.175 E0.01011 ; infill
G1 X109.136 Y103.906 Z7.518 E0.07743 ; infill
G1 X105.978 Y107.064 Z5.695 E0.08521 ; infill
G1 X105.978 Y106.529 Z6.004 E0.01044 ; infill
G1 X108.874 Y103.633 Z7.676 E0.07813 ; infill
G1 X108.874 Y103.633 Z7.676 E0.00000 ; infill
G1 X111.471 Y101.036 Z9.175 E0.07008 ; infill
G1 X110.936 Y101.036 Z9.175 E0.01011 ; infill
G1 X108.611 Y103.361 Z7.833 E0.06272 ; infill
G1 X105.978 Y105.994 Z6.313 E0.07104 ; infill
G1 X105.978 Y105.459 Z6.622 E0.01044 ; infill
G1 X108.349 Y103.088 Z7.991 E0.06396 ; infill
G1 X108.349 Y103.088 Z7.991 E0.00000 ; infill
G1 X110.401 Y101.036 Z9.175 E0.05536 ; infill
G1 X109.866 Y101.036 Z9.175 E0.01011 ; infill
G1 X108.086 Y102.815 Z8.148 E0.04800 ; infill
G1 X108.086 Y102.815 Z8.148 E0.00000 ; infill
G1 X105.978 Y104.924 Z6.931 E0.05688 ; infill
G1 X105.978 Y104.388 Z7.240 E0.01044 ; infill
G1 X107.824 Y102.542 Z8.306 E0.04980 ; infill
G1 X107.824 Y102.542 Z8.306 E0.00000 ; infill
G1 X109.330 Y101.036 Z9.175 E0.04064 ; infill
G1 X108.795 Y101.036 Z9.175 E0.01011 ; infill
G1 X107.561 Y102.270 Z8.463 E0.03328 ; infill
G1 X107.561 Y102.270 Z8.463 E0.00000 ; infill
G1 X105.978 Y103.853 Z7.549 E0.04272 ; infill
G1 X105.978 Y103.318 Z7.858 E0.01044 ; infill
G1 X107.299 Y101.997 Z8.621 E0.03564 ; infill
G1 X108.260 Y101.036 Z9.175 E0.02593 ; infill
G1 X107.725 Y101.036 Z9.175 E0.01011 ; infill
G1 X107.037 Y101.724 Z8.778 E0.01857 ; infill
G1 X107.037 Y101.724 Z8.778 E0.00000 ; infill
G1 X105.978 Y102.783 Z8.167 E0.02856 ; infill
G1 X105.978 Y102.248 Z8.476 E0.01044 ; infill
G1 X106.774 Y101.451 Z8.936 E0.02148 ; infill
G1 X107.190 Y101.036 Z9.175 E0.01121 ; infill
G1 X106.654 Y101.036 Z9.175 E0.01011 ; infill
G1 X106.512 Y101.179 Z9.093 E0.00385 ; infill
G1 X106.512 Y101.179 Z9.093 E0.00000 ; infill
G1 X105.978 Y101.712 Z8.785 E0.01440 ; infill
G1 X105.978 Y101.177 Z9.094 E0.01044 ; infill
G1 X106.119 Y101.036 Z9.175 E0.00381 ; infill
G1 E-5.00000 F2400.00000 ; retract extruder 0
G1 X105.225 Y109.844 Z4.240 F7800.000 ; move to first perimeter point
G1 F1200
G1 X114.775 Y109.844 Z4.240 E0.20213 ; perimeter
G1 X114.775 Y110.156 Z4.240 E0.00661 ; perimeter
G1 X105.225 Y110.156 Z4.240 E0.20213 ; perimeter
G1 X105.225 Y109.904 Z4.240 E0.00534 ; perimeter
G1 X105.625 Y109.848 F7800.000 ; move inwards before travel
G1 Z4.360 F7800.000 ; move to next layer (45)
G1 X105.225 Y109.636 Z4.360 F7800.000 ; move to first perimeter point
G1 F1200
G1 X114.775 Y109.636 Z4.360 E0.20213 ; perimeter
G1 X114.775 Y110.364 Z4.360 E0.01540 ; perimeter
G1 X105.225 Y110.364 Z4.360 E0.20213 ; perimeter
G1 X105.225 Y109.696 Z4.360 E0.01413 ; perimeter
G1 X105.625 Y109.646 F7800.000 ; move inwards before travel
G1 X105.437 Y110.000 Z4.360 F7800.000 ; move to first infill point
G1 F1800
G1 X114.563 Y110.000 Z4.360 E0.12649 ; infill
G1 Z4.480 F7800.000 ; move to next layer (44)
G1 X105.649 Y109.852 Z4.480 F7800.000 ; move to first perimeter point
G1 F1200
G1 X114.351 Y109.852 Z4.480 E0.18417 ; perimeter
G1 X114.351 Y110.148 Z4.480 E0.00624 ; perimeter
G1 X105.649 Y110.148 Z4.480 E0.18417 ; perimeter
G1 X105.649 Y109.912 Z4.480 E0.00497 ; perimeter
G1 X105.225 Y109.428 Z4.480 F7800.000 ; move to first perimeter point
G1 F1200
G1 X114.775 Y109.428 Z4.480 E0.20213 ; perimeter
G1 X114.775 Y110.572 Z4.480 E0.02420 ; perimeter
G1 X105.225 Y110.572 Z4.480 E0.20213 ; perimeter
G1 X105.225 Y109.488 Z4.480 E0.02293 ; perimeter
G1 X105.625 Y109.444 F7800.000 ; move inwards before travel
G1 Z4.600 F7800.000 ; move to next layer (43)
G1 X105.649 Y109.645 Z4.600 F7800.000 ; move to first perimeter point
G1 F1200
G1 X114.351 Y109.645 Z4.600 E0.18417 ; perimeter
G1 X114.351 Y110.355 Z4.600 E0.01504 ; perimeter
G1 X105.649 Y110.355 Z4.600 E0.18417 ; perimeter
G1 X105.649 Y109.705 Z4.600 E0.01377 ; perimeter
G1 X105.225 Y109.220 Z4.600 F7800.000 ; move to first perimeter point
G1 F1200
G1 X114.775 Y109.220 Z4.600 E0.20213 ; perimeter
G1 X114.775 Y110.780 Z4.600 E0.03300 ; perimeter
G1 X105.225 Y110.780 Z4.600 E0.20213 ; perimeter
G1 X105.225 Y109.280 Z4.600 E0.03173 ; perimeter
G1 X105.624 Y109.242 F7800.000 ; move inwards before travel
G1 X105.861 Y110.000 Z4.600 F7800.000 ; move to first infill point
G1 F1800
G1 X114.139 Y110.000 Z4.600 E0.10766 ; infill
G1 Z4.720 F7800.000 ; move to next layer (42)
G1 X105.649 Y109.437 Z4.720 F7800.000 ; move to first perimeter point
G1 F1200
G1 X114.351 Y109.437 Z4.720 E0.18417 ; perimeter
G1 X114.351 Y110.563 Z4.720 E0.02384 ; perimeter
G1 X105.649 Y110.563 Z4.720 E0.18417 ; perimeter
G1 X105.649 Y109.497 Z4.720 E0.02257 ; perimeter
G1 X105.225 Y109.013 Z4.720 F7800.000 ; move to first perimeter point
G1 F1200
G1 X114.775 Y109.013 Z4.720 E0.20213 ; perimeter
G1 X114.775 Y110.987 Z4.720 E0.04180 ; perimeter
G1 X105.225 Y110.987 Z4.720 E0.20213 ; perimeter
G1 X105.225 Y109.073 Z4.720 E0.04053 ; perimeter
