; generated by Slic3r 1.3.0-dev on 2020-10-12 at 16:15:01

; external perimeters extrusion width = 0.45mm (2.04mm^3/s)
; perimeters extrusion width = 0.45mm (4.07mm^3/s)
; infill extrusion width = 0.45mm (4.07mm^3/s)
; solid infill extrusion width = 0.45mm (1.53mm^3/s)
; top infill extrusion width = 0.40mm (0.90mm^3/s)

M109 S200 ;Heat nozzle to 200C
M190 S70 ;Heat nozzle to 70C
G28 ;Home all axes
M117 ; Purge extruder
G92 E0 ;Reset extruder
G1 Z2.0 F3000 ;Move Z Axis up
G1 X0.1 Y20 Z0.3 F5000.0 ; Move to start position
G1 X0.1 Y200.0 Z0.3 F1500.0 E15 ; Draw the first line
G1 X0.4 Y200.0 Z0.3 F5000.0 ; Move to side a little
G1 X0.4 Y20 Z0.3 F1500.0 E30 ; Draw the second line
G92 E0 ;Reset extruder
G1 Z1.0 F3000 ;Move z up little to prevent scratching of surface
; Filament gcode

G21 ; set units to millimeters
G90 ; use absolute coordinates
M83 ; use relative distances for extrusion
G1 Z10.000 F7800.000 ; move to next layer (48)
G1 E-5.00000 F2400.00000 ; retract extruder 0
G1 X100 Y110.581 Z10 F7800.000 ; move to first perimeter point
G1 E5.00000 F2400.00000 ; unretract extruder 0
G1 F4800
G1 X103.149 Y110.450 Z4.260 E0.00287 ; perimeter
G1 X103.149 Y110.450 Z4.260 E0.00000 ; perimeter
G1 X103.149 Y110.000 Z4.000 E0.00983 ; perimeter
G1 X103.149 Y110.000 Z4.000 E0.00000 ; perimeter
G1 X103.149 Y109.419 Z4.335 E0.01270 ; perimeter

G1 F4800
G1 X103.149 Y100.707 Z9.365 E0.47007 ; perimeter
G1 X104.087 Y100.707 Z9.365 E0.04900 ; perimeter
G1 X104.087 Y100.707 Z9.365 E0.00000 ; perimeter
G1 X116.851 Y100.707 Z9.365 E0.66684 ; perimeter
G1 X116.851 Y109.419 Z4.335 E0.47007 ; perimeter

G1 F4800
G1 X116.851 Y109.550 Z4.260 E0.00287 ; perimeter
G1 X116.851 Y109.550 Z4.260 E0.00000 ; perimeter
G1 X116.851 Y110.000 Z4.000 E0.00983 ; perimeter
G1 X116.851 Y110.000 Z4.000 E0.00000 ; perimeter
G1 X116.851 Y110.581 Z4.335 E0.01270 ; perimeter

G1 F4800
G1 X116.851 Y119.293 Z9.365 E0.47007 ; perimeter
G1 X115.913 Y119.293 Z9.365 E0.04900 ; perimeter
G1 X103.149 Y119.293 Z9.365 E0.66684 ; perimeter
G1 X103.149 Y110.633 Z4.335 E0.46755 ; perimeter

G1 X102.725 Y110.581 Z4.335 F7800.000 ; move to first perimeter point
G1 F2400
G1 X102.725 Y110.156 Z4.090 E0.00929 ; perimeter
G1 X102.725 Y110.156 Z4.090 E0.00000 ; perimeter
G1 X102.725 Y110.000 Z4.000 E0.00341 ; perimeter
G1 X102.725 Y110.000 Z4.000 E0.00000 ; perimeter
G1 X102.725 Y109.419 Z4.335 E0.01270 ; perimeter

G1 F4800
G1 X102.725 Y100.283 Z9.610 E0.49296 ; perimeter
G1 X103.475 Y100.283 Z9.610 E0.03917 ; perimeter
G1 X117.275 Y100.283 Z9.610 E0.72099 ; perimeter
G1 X117.275 Y109.419 Z4.335 E0.49296 ; perimeter

G1 F2400
G1 X117.275 Y109.844 Z4.090 E0.00929 ; perimeter
G1 X117.275 Y109.844 Z4.090 E0.00000 ; perimeter
G1 X117.275 Y110.000 Z4.000 E0.00341 ; perimeter
G1 X117.275 Y110.000 Z4.000 E0.00000 ; perimeter
G1 X117.275 Y110.581 Z4.335 E0.01270 ; perimeter

G1 F4800
G1 X117.275 Y119.717 Z9.610 E0.49296 ; perimeter
G1 X116.525 Y119.717 Z9.610 E0.03917 ; perimeter
G1 X116.525 Y119.717 Z9.610 E0.00000 ; perimeter
G1 X102.725 Y119.717 Z9.610 E0.72099 ; perimeter
G1 X102.725 Y110.633 Z4.335 E0.49044 ; perimeter

G1 E-5.00000 F2400.00000 ; retract extruder 0
G1 E5.00000 F2400.00000 ; unretract extruder 0
G1 F1200
G1 X103.478 Y101.177 Z9.094 E0.00000 ; infill
G1 X103.478 Y101.177 Z9.094 E0.00000 ; infill
G1 X103.478 Y101.177 Z9.094 E0.00000 ; infill
G1 X103.619 Y101.036 Z9.175 E0.00384 ; infill
G1 X104.158 Y101.036 Z9.175 E0.01023 ; infill
G1 X103.478 Y101.716 Z8.783 E0.01845 ; infill
G1 X103.478 Y102.254 Z8.472 E0.01056 ; infill
G1 X104.641 Y101.091 Z9.144 E0.03157 ; infill
G1 X104.641 Y101.091 Z9.144 E0.00000 ; infill
G1 X104.696 Y101.036 Z9.175 E0.00150 ; infill
G1 X105.234 Y101.036 Z9.175 E0.01023 ; infill
G1 X104.959 Y101.311 Z9.016 E0.00748 ; infill
G1 X104.959 Y101.311 Z9.016 E0.00000 ; infill
G1 X103.478 Y102.793 Z8.161 E0.04020 ; infill
G1 X103.478 Y103.331 Z7.850 E0.01056 ; infill
G1 X105.277 Y101.532 Z8.889 E0.04883 ; infill
G1 X105.773 Y101.036 Z9.175 E0.01346 ; infill
G1 X106.311 Y101.036 Z9.175 E0.01023 ; infill
G1 X105.595 Y101.752 Z8.762 E0.01944 ; infill
G1 X103.478 Y103.869 Z7.540 E0.05746 ; infill
G1 X103.478 Y104.408 Z7.229 E0.01056 ; infill
G1 X105.913 Y101.972 Z8.635 E0.06610 ; infill
G1 X106.850 Y101.036 Z9.175 E0.02542 ; infill
G1 X107.388 Y101.036 Z9.175 E0.01023 ; infill
G1 X106.231 Y102.193 Z8.507 E0.03140 ; infill
G1 X106.231 Y102.193 Z8.507 E0.00000 ; infill
G1 X103.478 Y104.946 Z6.918 E0.07473 ; infill
G1 X103.478 Y105.485 Z6.607 E0.01056 ; infill
G1 X106.549 Y102.413 Z8.380 E0.08336 ; infill
G1 X106.549 Y102.413 Z8.380 E0.00000 ; infill
G1 X107.927 Y101.036 Z9.175 E0.03738 ; infill
G1 X108.465 Y101.036 Z9.175 E0.01023 ; infill
G1 X106.867 Y102.634 Z8.253 E0.04336 ; infill
G1 X103.478 Y106.023 Z6.296 E0.09199 ; infill
G1 X103.478 Y106.561 Z5.985 E0.01056 ; infill
G1 X107.185 Y102.854 Z8.126 E0.10062 ; infill
G1 X107.185 Y102.854 Z8.126 E0.00000 ; infill
G1 X109.003 Y101.036 Z9.175 E0.04934 ; infill
G1 X109.542 Y101.036 Z9.175 E0.01023 ; infill
G1 X107.504 Y103.074 Z7.999 E0.05532 ; infill
G1 X107.504 Y103.074 Z7.999 E0.00000 ; infill
G1 X103.478 Y107.100 Z5.674 E0.10926 ; infill
G1 X103.478 Y107.638 Z5.364 E0.01056 ; infill
G1 X107.822 Y103.295 Z7.871 E0.11789 ; infill
G1 X107.822 Y103.295 Z7.871 E0.00000 ; infill
G1 X110.080 Y101.036 Z9.175 E0.06130 ; infill
G1 X110.619 Y101.036 Z9.175 E0.01023 ; infill
G1 X108.140 Y103.515 Z7.744 E0.06728 ; infill
G1 X108.140 Y103.515 Z7.744 E0.00000 ; infill
G1 X103.478 Y108.177 Z5.053 E0.12652 ; infill
G1 X103.478 Y108.715 Z4.742 E0.01056 ; infill
G1 X108.458 Y103.735 Z7.617 E0.13515 ; infill
G1 X108.458 Y103.735 Z7.617 E0.00000 ; infill
G1 X111.157 Y101.036 Z9.175 E0.07326 ; infill
G1 X111.695 Y101.036 Z9.175 E0.01023 ; infill
G1 X108.776 Y103.956 Z7.490 E0.07924 ; infill
G1 X108.776 Y103.956 Z7.490 E0.00000 ; infill
G1 X103.478 Y109.254 Z4.431 E0.14378 ; infill
G1 X103.478 Y109.792 Z4.120 E0.01056 ; infill
G1 X109.094 Y104.176 Z7.362 E0.15242 ; infill
G1 X109.094 Y104.176 Z7.362 E0.00000 ; infill
G1 X112.234 Y101.036 Z9.175 E0.08522 ; infill
G1 X112.772 Y101.036 Z9.175 E0.01023 ; infill
G1 X109.412 Y104.396 Z7.235 E0.09120 ; infill
G1 X109.412 Y104.396 Z7.235 E0.00000 ; infill
G1 X103.808 Y110.000 Z4.000 E0.15208 ; infill
G1 X103.478 Y110.330 Z4.191 E0.00897 ; infill
G1 X103.478 Y110.677 Z4.391 E0.00681 ; infill
G1 X103.478 Y110.869 Z4.502 E0.00375 ; infill
G1 X103.591 Y110.756 Z4.436 E0.00307 ; infill
G1 X103.591 Y110.756 Z4.436 E0.00000 ; infill
G1 X104.347 Y110.000 Z4.000 E0.02051 ; infill
G1 X109.730 Y104.617 Z7.108 E0.14610 ; infill
G1 X109.730 Y104.617 Z7.108 E0.00000 ; infill
G1 X113.311 Y101.036 Z9.175 E0.09718 ; infill
G1 X113.849 Y101.036 Z9.175 E0.01023 ; infill
G1 X110.048 Y104.837 Z6.981 E0.10316 ; infill
G1 X110.048 Y104.837 Z6.981 E0.00000 ; infill
G1 X104.885 Y110.000 Z4.000 E0.14012 ; infill
G1 X103.909 Y110.976 Z4.564 E0.02649 ; infill
G1 X103.909 Y110.976 Z4.564 E0.00000 ; infill
G1 X103.478 Y111.407 Z4.812 E0.01170 ; infill
G1 X103.478 Y111.946 Z5.123 E0.01056 ; infill
G1 X104.227 Y111.196 Z4.691 E0.02033 ; infill
G1 X104.227 Y111.196 Z4.691 E0.00000 ; infill
G1 X105.423 Y110.000 Z4.000 E0.03247 ; infill
G1 X105.423 Y110.000 Z4.000 E0.00000 ; infill
G1 X110.366 Y105.057 Z6.854 E0.13414 ; infill
G1 X114.388 Y101.036 Z9.175 E0.10914 ; infill
G1 X114.926 Y101.036 Z9.175 E0.01023 ; infill
G1 X110.684 Y105.278 Z6.726 E0.11513 ; infill
G1 X105.962 Y110.000 Z4.000 E0.12816 ; infill
G1 X105.962 Y110.000 Z4.000 E0.00000 ; infill
G1 X104.545 Y111.417 Z4.818 E0.03845 ; infill
G1 X103.478 Y112.484 Z5.434 E0.02896 ; infill
G1 X103.478 Y113.022 Z5.745 E0.01056 ; infill
G1 X104.863 Y111.637 Z4.945 E0.03760 ; infill
G1 X104.863 Y111.637 Z4.945 E0.00000 ; infill
G1 X106.500 Y110.000 Z4.000 E0.04443 ; infill
G1 X106.500 Y110.000 Z4.000 E0.00000 ; infill
G1 X111.002 Y105.498 Z6.599 E0.12218 ; infill
G1 X111.002 Y105.498 Z6.599 E0.00000 ; infill
G1 X115.464 Y101.036 Z9.175 E0.12111 ; infill
G1 X116.003 Y101.036 Z9.175 E0.01023 ; infill
G1 X111.320 Y105.719 Z6.472 E0.12709 ; infill
G1 X111.320 Y105.719 Z6.472 E0.00000 ; infill
G1 X107.039 Y110.000 Z4.000 E0.11620 ; infill
G1 X105.181 Y111.858 Z5.072 E0.05041 ; infill
G1 X105.181 Y111.858 Z5.072 E0.00000 ; infill
G1 X103.478 Y113.561 Z6.056 E0.04623 ; infill
G1 X103.478 Y114.099 Z6.367 E0.01056 ; infill
G1 X105.499 Y112.078 Z5.200 E0.05486 ; infill
G1 X105.499 Y112.078 Z5.200 E0.00000 ; infill
G1 X107.577 Y110.000 Z4.000 E0.05640 ; infill
G1 X111.638 Y105.939 Z6.345 E0.11022 ; infill
G1 X111.638 Y105.939 Z6.345 E0.00000 ; infill
G1 X116.522 Y101.055 Z9.164 E0.13255 ; infill
G1 X116.522 Y101.593 Z8.854 E0.01056 ; infill
G1 X111.956 Y106.159 Z6.217 E0.12392 ; infill
G1 X111.956 Y106.159 Z6.217 E0.00000 ; infill
G1 X108.116 Y110.000 Z4.000 E0.10424 ; infill
G1 X108.116 Y110.000 Z4.000 E0.00000 ; infill
G1 X105.817 Y112.298 Z5.327 E0.06238 ; infill
G1 X105.817 Y112.298 Z5.327 E0.00000 ; infill
G1 X103.478 Y114.638 Z6.678 E0.06349 ; infill
G1 X103.478 Y115.176 Z6.988 E0.01056 ; infill
G1 X106.135 Y112.519 Z5.454 E0.07212 ; infill
G1 X106.135 Y112.519 Z5.454 E0.00000 ; infill
G1 X108.654 Y110.000 Z4.000 E0.06836 ; infill
G1 X108.654 Y110.000 Z4.000 E0.00000 ; infill
G1 X112.274 Y106.380 Z6.090 E0.09826 ; infill
G1 X112.274 Y106.380 Z6.090 E0.00000 ; infill
G1 X116.522 Y102.132 Z8.543 E0.11528 ; infill
G1 X116.522 Y102.670 Z8.232 E0.01056 ; infill
G1 X112.592 Y106.600 Z5.963 E0.10665 ; infill
G1 X112.592 Y106.600 Z5.963 E0.00000 ; infill
G1 X109.192 Y110.000 Z4.000 E0.09228 ; infill
G1 X106.453 Y112.739 Z5.581 E0.07434 ; infill
G1 X106.453 Y112.739 Z5.581 E0.00000 ; infill
G1 X103.478 Y115.715 Z7.299 E0.08076 ; infill
G1 X103.478 Y116.253 Z7.610 E0.01056 ; infill
G1 X106.771 Y112.959 Z5.709 E0.08939 ; infill
G1 X106.771 Y112.959 Z5.709 E0.00000 ; infill
G1 X109.731 Y110.000 Z4.000 E0.08032 ; infill
G1 X112.911 Y106.820 Z5.836 E0.08630 ; infill
G1 X116.522 Y103.209 Z7.921 E0.09802 ; infill
G1 X116.522 Y103.747 Z7.610 E0.01056 ; infill
G1 X113.229 Y107.041 Z5.709 E0.08939 ; infill
G1 X113.229 Y107.041 Z5.709 E0.00000 ; infill
G1 X110.269 Y110.000 Z4.000 E0.08032 ; infill
G1 X107.090 Y113.180 Z5.836 E0.08630 ; infill
G1 X103.478 Y116.791 Z7.921 E0.09802 ; infill
G1 X103.478 Y117.330 Z8.232 E0.01056 ; infill
G1 X107.408 Y113.400 Z5.963 E0.10665 ; infill
G1 X107.408 Y113.400 Z5.963 E0.00000 ; infill
G1 X110.808 Y110.000 Z4.000 E0.09228 ; infill
G1 X113.547 Y107.261 Z5.581 E0.07434 ; infill
G1 X116.522 Y104.286 Z7.299 E0.08075 ; infill
G1 X116.522 Y104.824 Z6.988 E0.01056 ; infill
G1 X113.865 Y107.481 Z5.454 E0.07212 ; infill
G1 X113.865 Y107.481 Z5.454 E0.00000 ; infill
G1 X111.346 Y110.000 Z4.000 E0.06836 ; infill
G1 X111.346 Y110.000 Z4.000 E0.00000 ; infill
G1 X107.726 Y113.620 Z6.090 E0.09826 ; infill
G1 X107.726 Y113.620 Z6.090 E0.00000 ; infill
G1 X103.478 Y117.868 Z8.543 E0.11528 ; infill
G1 X103.478 Y118.407 Z8.854 E0.01056 ; infill
G1 X108.044 Y113.841 Z6.217 E0.12392 ; infill
G1 X108.044 Y113.841 Z6.217 E0.00000 ; infill
G1 X111.884 Y110.000 Z4.000 E0.10424 ; infill
G1 X114.183 Y107.702 Z5.327 E0.06237 ; infill
G1 X114.183 Y107.702 Z5.327 E0.00000 ; infill
G1 X116.522 Y105.362 Z6.678 E0.06349 ; infill
G1 X116.522 Y105.901 Z6.367 E0.01056 ; infill
G1 X114.501 Y107.922 Z5.200 E0.05486 ; infill
G1 X114.501 Y107.922 Z5.200 E0.00000 ; infill
G1 X112.423 Y110.000 Z4.000 E0.05639 ; infill
G1 X112.423 Y110.000 Z4.000 E0.00000 ; infill
G1 X108.362 Y114.061 Z6.345 E0.11022 ; infill
G1 X108.362 Y114.061 Z6.345 E0.00000 ; infill
G1 X103.478 Y118.945 Z9.164 E0.13255 ; infill
G1 X103.478 Y118.964 Z9.175 E0.00037 ; infill
G1 X103.478 Y118.964 Z9.175 E0.00000 ; infill
G1 X103.997 Y118.964 Z9.175 E0.00986 ; infill
G1 X108.680 Y114.282 Z6.472 E0.12709 ; infill
G1 X108.680 Y114.282 Z6.472 E0.00000 ; infill
G1 X112.961 Y110.000 Z4.000 E0.11620 ; infill
G1 X114.819 Y108.142 Z5.072 E0.05041 ; infill
G1 X116.522 Y106.439 Z6.056 E0.04623 ; infill
G1 X116.522 Y106.978 Z5.745 E0.01056 ; infill
G1 X115.137 Y108.363 Z4.945 E0.03759 ; infill
G1 X115.137 Y108.363 Z4.945 E0.00000 ; infill
G1 X113.500 Y110.000 Z4.000 E0.04443 ; infill
G1 X113.500 Y110.000 Z4.000 E0.00000 ; infill
G1 X108.998 Y114.502 Z6.599 E0.12218 ; infill
G1 X104.536 Y118.964 Z9.175 E0.12111 ; infill
G1 X105.074 Y118.964 Z9.175 E0.01023 ; infill
G1 X109.316 Y114.722 Z6.726 E0.11512 ; infill
G1 X109.316 Y114.722 Z6.726 E0.00000 ; infill
G1 X114.038 Y110.000 Z4.000 E0.12816 ; infill
G1 X114.038 Y110.000 Z4.000 E0.00000 ; infill
G1 X115.455 Y108.583 Z4.818 E0.03845 ; infill
G1 X115.455 Y108.583 Z4.818 E0.00000 ; infill
G1 X116.522 Y107.516 Z5.434 E0.02896 ; infill
G1 X116.522 Y108.054 Z5.123 E0.01056 ; infill
G1 X115.773 Y108.804 Z4.691 E0.02033 ; infill
G1 X114.577 Y110.000 Z4.000 E0.03247 ; infill
G1 X114.577 Y110.000 Z4.000 E0.00000 ; infill
G1 X109.634 Y114.943 Z6.854 E0.13414 ; infill
G1 X109.634 Y114.943 Z6.854 E0.00000 ; infill
G1 X105.612 Y118.964 Z9.175 E0.10914 ; infill
G1 X106.151 Y118.964 Z9.175 E0.01023 ; infill
G1 X109.952 Y115.163 Z6.981 E0.10316 ; infill
G1 X115.115 Y110.000 Z4.000 E0.14012 ; infill
G1 X115.115 Y110.000 Z4.000 E0.00000 ; infill
G1 X116.091 Y109.024 Z4.564 E0.02649 ; infill
G1 X116.522 Y108.593 Z4.812 E0.01170 ; infill
G1 X116.522 Y109.131 Z4.502 E0.01056 ; infill
G1 X116.409 Y109.244 Z4.436 E0.00307 ; infill
G1 X116.409 Y109.244 Z4.436 E0.00000 ; infill
G1 X115.653 Y110.000 Z4.000 E0.02051 ; infill
G1 X115.653 Y110.000 Z4.000 E0.00000 ; infill
G1 X110.270 Y115.383 Z7.108 E0.14610 ; infill
G1 X106.689 Y118.964 Z9.175 E0.09718 ; infill
G1 X107.228 Y118.964 Z9.175 E0.01023 ; infill
G1 X110.588 Y115.604 Z7.235 E0.09120 ; infill
G1 X116.192 Y110.000 Z4.000 E0.15208 ; infill
G1 X116.192 Y110.000 Z4.000 E0.00000 ; infill
G1 X116.522 Y109.670 Z4.191 E0.00896 ; infill
G1 X116.522 Y110.000 Z4.000 E0.00648 ; infill
G1 X116.522 Y110.208 Z4.120 E0.00408 ; infill
G1 X110.906 Y115.824 Z7.362 E0.15242 ; infill
G1 X107.766 Y118.964 Z9.175 E0.08522 ; infill
G1 X108.305 Y118.964 Z9.175 E0.01023 ; infill
G1 X111.224 Y116.044 Z7.490 E0.07924 ; infill
G1 X111.224 Y116.044 Z7.490 E0.00000 ; infill
G1 X116.522 Y110.747 Z4.431 E0.14378 ; infill
G1 X116.522 Y111.285 Z4.742 E0.01056 ; infill
G1 X111.542 Y116.265 Z7.617 E0.13515 ; infill
G1 X111.542 Y116.265 Z7.617 E0.00000 ; infill
G1 X108.843 Y118.964 Z9.175 E0.07326 ; infill
G1 X109.381 Y118.964 Z9.175 E0.01023 ; infill
G1 X111.860 Y116.485 Z7.744 E0.06728 ; infill
G1 X116.522 Y111.823 Z5.053 E0.12652 ; infill
G1 X116.522 Y112.362 Z5.364 E0.01056 ; infill
G1 X112.178 Y116.705 Z7.871 E0.11789 ; infill
G1 X112.178 Y116.705 Z7.871 E0.00000 ; infill
G1 X109.920 Y118.964 Z9.175 E0.06130 ; infill
G1 X110.458 Y118.964 Z9.175 E0.01023 ; infill
G1 X112.497 Y116.926 Z7.999 E0.05532 ; infill
G1 X112.497 Y116.926 Z7.999 E0.00000 ; infill
G1 X116.522 Y112.900 Z5.674 E0.10925 ; infill
G1 X116.522 Y113.439 Z5.985 E0.01056 ; infill
G1 X112.815 Y117.146 Z8.126 E0.10062 ; infill
G1 X112.815 Y117.146 Z8.126 E0.00000 ; infill
G1 X110.997 Y118.964 Z9.175 E0.04934 ; infill
G1 X111.535 Y118.964 Z9.175 E0.01023 ; infill
G1 X113.133 Y117.367 Z8.253 E0.04336 ; infill
G1 X116.522 Y113.977 Z6.296 E0.09199 ; infill
G1 X116.522 Y114.515 Z6.607 E0.01056 ; infill
G1 X113.451 Y117.587 Z8.380 E0.08336 ; infill
G1 X113.451 Y117.587 Z8.380 E0.00000 ; infill
G1 X112.073 Y118.964 Z9.175 E0.03738 ; infill
G1 X112.612 Y118.964 Z9.175 E0.01023 ; infill
G1 X113.769 Y117.807 Z8.508 E0.03140 ; infill
G1 X116.522 Y115.054 Z6.918 E0.07473 ; infill
G1 X116.522 Y115.592 Z7.229 E0.01056 ; infill
G1 X114.087 Y118.028 Z8.635 E0.06609 ; infill
G1 X114.087 Y118.028 Z8.635 E0.00000 ; infill
G1 X113.150 Y118.964 Z9.175 E0.02542 ; infill
G1 X113.689 Y118.964 Z9.175 E0.01023 ; infill
G1 X114.405 Y118.248 Z8.762 E0.01944 ; infill
G1 X114.405 Y118.248 Z8.762 E0.00000 ; infill
G1 X116.522 Y116.131 Z7.540 E0.05746 ; infill
G1 X116.522 Y116.669 Z7.850 E0.01056 ; infill
G1 X114.723 Y118.468 Z8.889 E0.04883 ; infill
G1 X114.227 Y118.964 Z9.175 E0.01346 ; infill
G1 X114.766 Y118.964 Z9.175 E0.01023 ; infill
