; generated by Slic3r 1.3.0-dev on 2020-10-12 at 16:15:01

; external perimeters extrusion width = 0.45mm (2.04mm^3/s)
; perimeters extrusion width = 0.45mm (4.07mm^3/s)
; infill extrusion width = 0.45mm (4.07mm^3/s)
; solid infill extrusion width = 0.45mm (1.53mm^3/s)
; top infill extrusion width = 0.40mm (0.90mm^3/s)

M109 S200 ;Heat nozzle to 200C
M190 S70 ;Heat nozzle to 70C
G28 ;Home all axes
M117 ; Purge extruder
G92 E0 ;Reset extruder
G1 Z2.0 F3000 ;Move Z Axis up
G1 X0.1 Y20 Z0.3 F5000.0 ; Move to start position
G1 X0.1 Y200.0 Z0.3 F1500.0 E15 ; Draw the first line
G1 X0.4 Y200.0 Z0.3 F5000.0 ; Move to side a little
G1 X0.4 Y20 Z0.3 F1500.0 E30 ; Draw the second line
G92 E0 ;Reset extruder
G1 Z1.0 F3000 ;Move z up little to prevent scratching of surface
; Filament gcode

G21 ; set units to millimeters
G90 ; use absolute coordinates
M83 ; use relative distances for extrusion
G1 Z0.200 F7800.000 ; move to next layer (0)
G1 E-5.00000 F2400.00000 ; retract extruder 0
G1 X103.087 Y100.368 Z0.200 F7800.000 ; move to first perimeter point
G1 E5.00000 F2400.00000 ; unretract extruder 0
G1 F2400
G1 X116.913 Y100.368 Z0.200 E0.43350 ; perimeter
G1 X116.913 Y119.632 Z0.200 E0.60401 ; perimeter
G1 X103.087 Y119.632 Z0.200 E0.43350 ; perimeter
G1 X103.087 Y100.428 Z0.200 E0.60213 ; perimeter
G1 X102.710 Y99.991 Z0.200 F7800.000 ; move to first perimeter point
G1 F2400
G1 X117.290 Y99.991 Z0.200 E0.45715 ; perimeter
G1 X117.290 Y120.009 Z0.200 E0.62766 ; perimeter
G1 X102.710 Y120.009 Z0.200 E0.45715 ; perimeter
G1 X102.710 Y100.051 Z0.200 E0.62578 ; perimeter
G1 X103.090 Y100.114 F7800.000 ; move inwards before travel
G1 X103.398 Y100.812 Z0.200 F7800.000 ; move to first infill point
G1 F2400
G1 X103.397 Y100.812 Z0.200 E0.00001 ; infill
G1 X103.397 Y100.812 Z0.200 E0.00000 ; infill
G1 X103.397 Y100.812 Z0.200 E0.00001 ; infill
G1 X103.531 Y100.678 Z0.200 E0.00594 ; infill
G1 X104.066 Y100.678 Z0.200 E0.01685 ; infill
G1 X103.397 Y101.347 Z0.200 E0.02977 ; infill
G1 X103.397 Y101.882 Z0.200 E0.01685 ; infill
G1 X104.602 Y100.678 Z0.200 E0.05359 ; infill
G1 X105.137 Y100.678 Z0.200 E0.01685 ; infill
G1 X103.397 Y102.418 Z0.200 E0.07742 ; infill
G1 X103.397 Y102.953 Z0.200 E0.01685 ; infill
G1 X105.672 Y100.678 Z0.200 E0.10124 ; infill
G1 X106.207 Y100.678 Z0.200 E0.01685 ; infill
G1 X103.397 Y103.488 Z0.200 E0.12506 ; infill
G1 X103.397 Y104.024 Z0.200 E0.01685 ; infill
G1 X106.743 Y100.678 Z0.200 E0.14889 ; infill
G1 X107.278 Y100.678 Z0.200 E0.01685 ; infill
G1 X103.397 Y104.559 Z0.200 E0.17271 ; infill
G1 X103.397 Y105.094 Z0.200 E0.01685 ; infill
G1 X107.813 Y100.678 Z0.200 E0.19654 ; infill
G1 X108.348 Y100.678 Z0.200 E0.01685 ; infill
G1 X103.397 Y105.629 Z0.200 E0.22036 ; infill
G1 X103.397 Y106.165 Z0.200 E0.01685 ; infill
G1 X108.884 Y100.678 Z0.200 E0.24419 ; infill
G1 X109.419 Y100.678 Z0.200 E0.01685 ; infill
G1 X103.397 Y106.700 Z0.200 E0.26801 ; infill
G1 X103.397 Y107.235 Z0.200 E0.01685 ; infill
G1 X109.954 Y100.678 Z0.200 E0.29184 ; infill
G1 X110.490 Y100.678 Z0.200 E0.01685 ; infill
G1 X103.397 Y107.770 Z0.200 E0.31566 ; infill
G1 X103.397 Y108.306 Z0.200 E0.01685 ; infill
G1 X111.025 Y100.678 Z0.200 E0.33948 ; infill
G1 X111.560 Y100.678 Z0.200 E0.01685 ; infill
G1 X103.397 Y108.841 Z0.200 E0.36331 ; infill
G1 X103.397 Y109.376 Z0.200 E0.01685 ; infill
G1 X112.095 Y100.678 Z0.200 E0.38713 ; infill
G1 X112.631 Y100.678 Z0.200 E0.01685 ; infill
G1 X103.397 Y109.912 Z0.200 E0.41096 ; infill
G1 X103.397 Y110.447 Z0.200 E0.01685 ; infill
G1 X113.166 Y100.678 Z0.200 E0.43478 ; infill
G1 X113.701 Y100.678 Z0.200 E0.01685 ; infill
G1 X103.397 Y110.982 Z0.200 E0.45861 ; infill
G1 X103.397 Y111.517 Z0.200 E0.01685 ; infill
G1 X114.237 Y100.678 Z0.200 E0.48243 ; infill
G1 X114.772 Y100.678 Z0.200 E0.01685 ; infill
G1 X103.397 Y112.053 Z0.200 E0.50625 ; infill
G1 X103.397 Y112.588 Z0.200 E0.01685 ; infill
G1 X115.307 Y100.678 Z0.200 E0.53008 ; infill
G1 X115.842 Y100.678 Z0.200 E0.01685 ; infill
G1 X103.397 Y113.123 Z0.200 E0.55390 ; infill
G1 X103.397 Y113.659 Z0.200 E0.01685 ; infill
G1 X116.378 Y100.678 Z0.200 E0.57773 ; infill
G1 X116.603 Y100.678 Z0.200 E0.00708 ; infill
G1 X116.603 Y100.678 Z0.200 E0.00000 ; infill
G1 X116.603 Y100.989 Z0.200 E0.00977 ; infill
G1 X103.397 Y114.194 Z0.200 E0.58774 ; infill
G1 X103.397 Y114.729 Z0.200 E0.01685 ; infill
G1 X116.603 Y101.524 Z0.200 E0.58774 ; infill
G1 X116.603 Y102.059 Z0.200 E0.01685 ; infill
G1 X103.397 Y115.264 Z0.200 E0.58774 ; infill
G1 X103.397 Y115.800 Z0.200 E0.01685 ; infill
G1 X116.603 Y102.595 Z0.200 E0.58774 ; infill
G1 X116.603 Y103.130 Z0.200 E0.01685 ; infill
G1 X103.397 Y116.335 Z0.200 E0.58774 ; infill
G1 X103.397 Y116.870 Z0.200 E0.01685 ; infill
G1 X116.603 Y103.665 Z0.200 E0.58774 ; infill
G1 X116.603 Y104.200 Z0.200 E0.01685 ; infill
G1 X103.397 Y117.405 Z0.200 E0.58774 ; infill
G1 X103.397 Y117.941 Z0.200 E0.01685 ; infill
G1 X116.603 Y104.736 Z0.200 E0.58774 ; infill
G1 X116.603 Y105.271 Z0.200 E0.01685 ; infill
G1 X103.397 Y118.476 Z0.200 E0.58774 ; infill
G1 X103.397 Y119.011 Z0.200 E0.01685 ; infill
G1 X116.603 Y105.806 Z0.200 E0.58774 ; infill
G1 X116.603 Y106.342 Z0.200 E0.01685 ; infill
G1 X103.622 Y119.322 Z0.200 E0.57772 ; infill
G1 X104.158 Y119.322 Z0.200 E0.01685 ; infill
G1 X116.603 Y106.877 Z0.200 E0.55390 ; infill
G1 X116.603 Y107.412 Z0.200 E0.01685 ; infill
G1 X104.693 Y119.322 Z0.200 E0.53008 ; infill
G1 X105.228 Y119.322 Z0.200 E0.01685 ; infill
G1 X116.603 Y107.947 Z0.200 E0.50625 ; infill
G1 X116.603 Y108.483 Z0.200 E0.01685 ; infill
G1 X105.764 Y119.322 Z0.200 E0.48243 ; infill
G1 X106.299 Y119.322 Z0.200 E0.01685 ; infill
G1 X116.603 Y109.018 Z0.200 E0.45860 ; infill
G1 X116.603 Y109.553 Z0.200 E0.01685 ; infill
G1 X106.834 Y119.322 Z0.200 E0.43478 ; infill
G1 X107.369 Y119.322 Z0.200 E0.01685 ; infill
G1 X116.603 Y110.088 Z0.200 E0.41095 ; infill
G1 X116.603 Y110.624 Z0.200 E0.01685 ; infill
G1 X107.905 Y119.322 Z0.200 E0.38713 ; infill
G1 X108.440 Y119.322 Z0.200 E0.01685 ; infill
G1 X116.603 Y111.159 Z0.200 E0.36331 ; infill
G1 X116.603 Y111.694 Z0.200 E0.01685 ; infill
G1 X108.975 Y119.322 Z0.200 E0.33948 ; infill
G1 X109.510 Y119.322 Z0.200 E0.01685 ; infill
G1 X116.603 Y112.230 Z0.200 E0.31566 ; infill
G1 X116.603 Y112.765 Z0.200 E0.01685 ; infill
G1 X110.046 Y119.322 Z0.200 E0.29183 ; infill
G1 X110.581 Y119.322 Z0.200 E0.01685 ; infill
G1 X116.603 Y113.300 Z0.200 E0.26801 ; infill
G1 X116.603 Y113.835 Z0.200 E0.01685 ; infill
G1 X111.116 Y119.322 Z0.200 E0.24418 ; infill
G1 X111.652 Y119.322 Z0.200 E0.01685 ; infill
G1 X116.603 Y114.371 Z0.200 E0.22036 ; infill
G1 X116.603 Y114.906 Z0.200 E0.01685 ; infill
G1 X112.187 Y119.322 Z0.200 E0.19653 ; infill
G1 X112.722 Y119.322 Z0.200 E0.01685 ; infill
G1 X116.603 Y115.441 Z0.200 E0.17271 ; infill
G1 X116.603 Y115.977 Z0.200 E0.01685 ; infill
G1 X113.257 Y119.322 Z0.200 E0.14889 ; infill
G1 X113.793 Y119.322 Z0.200 E0.01685 ; infill
G1 X116.603 Y116.512 Z0.200 E0.12506 ; infill
G1 X116.603 Y117.047 Z0.200 E0.01685 ; infill
G1 X114.328 Y119.322 Z0.200 E0.10124 ; infill
G1 X114.863 Y119.322 Z0.200 E0.01685 ; infill
G1 X116.603 Y117.582 Z0.200 E0.07741 ; infill
G1 X116.603 Y118.118 Z0.200 E0.01685 ; infill
G1 X115.399 Y119.322 Z0.200 E0.05359 ; infill
G1 X115.934 Y119.322 Z0.200 E0.01685 ; infill
G1 X116.603 Y118.653 Z0.200 E0.02976 ; infill
G1 X116.603 Y119.188 Z0.200 E0.01685 ; infill
G1 X116.469 Y119.322 Z0.200 E0.00594 ; infill
M106 S178.5 ; enable fan
G1 Z0.320 F7800.000 ; move to next layer (1)
G1 X103.149 Y100.915 Z0.320 F7800.000 ; move to first perimeter point
G1 F4800
G1 X116.851 Y100.915 Z0.320 E0.29000 ; perimeter
G1 X116.851 Y119.085 Z0.320 E0.38458 ; perimeter
G1 X103.149 Y119.085 Z0.320 E0.29000 ; perimeter
G1 X103.149 Y100.975 Z0.320 E0.38331 ; perimeter
G1 X102.725 Y100.491 Z0.320 F7800.000 ; move to first perimeter point
G1 F2400
G1 X117.275 Y100.491 Z0.320 E0.30796 ; perimeter
G1 X117.275 Y119.509 Z0.320 E0.40254 ; perimeter
G1 X102.725 Y119.509 Z0.320 E0.30796 ; perimeter
G1 X102.725 Y100.551 Z0.320 E0.40127 ; perimeter
G1 X103.106 Y100.611 F7800.000 ; move inwards before travel
G1 X116.502 Y101.414 Z0.320 F7800.000 ; move to first infill point
G1 F1800
G1 X116.351 Y101.264 Z0.320 E0.00452 ; infill
G1 X115.748 Y101.264 Z0.320 E0.01285 ; infill
G1 X116.502 Y102.018 Z0.320 E0.02269 ; infill
G1 X116.502 Y102.621 Z0.320 E0.01285 ; infill
G1 X115.144 Y101.264 Z0.320 E0.04086 ; infill
G1 X114.541 Y101.264 Z0.320 E0.01285 ; infill
G1 X116.502 Y103.225 Z0.320 E0.05903 ; infill
G1 X116.502 Y103.828 Z0.320 E0.01285 ; infill
G1 X113.937 Y101.264 Z0.320 E0.07720 ; infill
G1 X113.334 Y101.264 Z0.320 E0.01285 ; infill
G1 X116.502 Y104.432 Z0.320 E0.09537 ; infill
G1 X116.502 Y105.035 Z0.320 E0.01285 ; infill
G1 X112.731 Y101.264 Z0.320 E0.11354 ; infill
G1 X112.127 Y101.264 Z0.320 E0.01285 ; infill
G1 X116.502 Y105.639 Z0.320 E0.13171 ; infill
G1 X116.502 Y106.242 Z0.320 E0.01285 ; infill
G1 X111.524 Y101.264 Z0.320 E0.14988 ; infill
G1 X110.920 Y101.264 Z0.320 E0.01285 ; infill
G1 X116.502 Y106.846 Z0.320 E0.16805 ; infill
G1 X116.502 Y107.449 Z0.320 E0.01285 ; infill
G1 X110.317 Y101.264 Z0.320 E0.18622 ; infill
G1 X109.713 Y101.264 Z0.320 E0.01285 ; infill
G1 X116.502 Y108.053 Z0.320 E0.20439 ; infill
G1 X116.502 Y108.656 Z0.320 E0.01285 ; infill
G1 X109.110 Y101.264 Z0.320 E0.22255 ; infill
G1 X108.506 Y101.264 Z0.320 E0.01285 ; infill
G1 X116.502 Y109.260 Z0.320 E0.24072 ; infill
G1 X116.502 Y109.863 Z0.320 E0.01285 ; infill
G1 X107.903 Y101.264 Z0.320 E0.25889 ; infill
G1 X107.299 Y101.264 Z0.320 E0.01285 ; infill
G1 X116.502 Y110.467 Z0.320 E0.27706 ; infill
G1 X116.502 Y111.070 Z0.320 E0.01285 ; infill
G1 X106.696 Y101.264 Z0.320 E0.29523 ; infill
G1 X106.092 Y101.264 Z0.320 E0.01285 ; infill
G1 X116.502 Y111.674 Z0.320 E0.31340 ; infill
G1 X116.502 Y112.277 Z0.320 E0.01285 ; infill
G1 X105.489 Y101.264 Z0.320 E0.33157 ; infill
G1 X104.885 Y101.264 Z0.320 E0.01285 ; infill
G1 X116.502 Y112.881 Z0.320 E0.34974 ; infill
G1 X116.502 Y113.484 Z0.320 E0.01285 ; infill
G1 X104.282 Y101.264 Z0.320 E0.36791 ; infill
G1 X103.678 Y101.264 Z0.320 E0.01285 ; infill
G1 X116.502 Y114.088 Z0.320 E0.38608 ; infill
G1 X116.502 Y114.691 Z0.320 E0.01285 ; infill
G1 X103.498 Y101.688 Z0.320 E0.39149 ; infill
G1 X103.498 Y102.291 Z0.320 E0.01285 ; infill
G1 X116.502 Y115.295 Z0.320 E0.39149 ; infill
G1 X116.502 Y115.898 Z0.320 E0.01285 ; infill
G1 X103.498 Y102.895 Z0.320 E0.39149 ; infill
G1 X103.498 Y103.498 Z0.320 E0.01285 ; infill
G1 X116.502 Y116.502 Z0.320 E0.39149 ; infill
G1 X116.502 Y117.105 Z0.320 E0.01285 ; infill
G1 X103.498 Y104.102 Z0.320 E0.39149 ; infill
G1 X103.498 Y104.705 Z0.320 E0.01285 ; infill
G1 X116.502 Y117.708 Z0.320 E0.39149 ; infill
G1 X116.502 Y118.312 Z0.320 E0.01285 ; infill
G1 X103.498 Y105.309 Z0.320 E0.39149 ; infill
G1 X103.498 Y105.912 Z0.320 E0.01285 ; infill
G1 X116.322 Y118.736 Z0.320 E0.38608 ; infill
G1 X115.718 Y118.736 Z0.320 E0.01285 ; infill
G1 X103.498 Y106.516 Z0.320 E0.36791 ; infill
G1 X103.498 Y107.119 Z0.320 E0.01285 ; infill
G1 X115.115 Y118.736 Z0.320 E0.34974 ; infill
G1 X114.511 Y118.736 Z0.320 E0.01285 ; infill
G1 X103.498 Y107.723 Z0.320 E0.33157 ; infill
G1 X103.498 Y108.326 Z0.320 E0.01285 ; infill
G1 X113.908 Y118.736 Z0.320 E0.31340 ; infill
G1 X113.304 Y118.736 Z0.320 E0.01285 ; infill
G1 X103.498 Y108.930 Z0.320 E0.29523 ; infill
G1 X103.498 Y109.533 Z0.320 E0.01285 ; infill
G1 X112.701 Y118.736 Z0.320 E0.27706 ; infill
G1 X112.097 Y118.736 Z0.320 E0.01285 ; infill
G1 X103.498 Y110.137 Z0.320 E0.25889 ; infill
G1 X103.498 Y110.740 Z0.320 E0.01285 ; infill
G1 X111.494 Y118.736 Z0.320 E0.24073 ; infill
G1 X110.890 Y118.736 Z0.320 E0.01285 ; infill
G1 X103.498 Y111.344 Z0.320 E0.22256 ; infill
G1 X103.498 Y111.947 Z0.320 E0.01285 ; infill
G1 X110.287 Y118.736 Z0.320 E0.20439 ; infill
G1 X109.683 Y118.736 Z0.320 E0.01285 ; infill
G1 X103.498 Y112.551 Z0.320 E0.18622 ; infill
G1 X103.498 Y113.154 Z0.320 E0.01285 ; infill
G1 X109.080 Y118.736 Z0.320 E0.16805 ; infill
G1 X108.476 Y118.736 Z0.320 E0.01285 ; infill
G1 X103.498 Y113.758 Z0.320 E0.14988 ; infill
G1 X103.498 Y114.361 Z0.320 E0.01285 ; infill
G1 X107.873 Y118.736 Z0.320 E0.13171 ; infill
G1 X107.270 Y118.736 Z0.320 E0.01285 ; infill
G1 X103.498 Y114.965 Z0.320 E0.11354 ; infill
G1 X103.498 Y115.568 Z0.320 E0.01285 ; infill
G1 X106.666 Y118.736 Z0.320 E0.09537 ; infill
G1 X106.063 Y118.736 Z0.320 E0.01285 ; infill
G1 X103.498 Y116.172 Z0.320 E0.07720 ; infill
G1 X103.498 Y116.775 Z0.320 E0.01285 ; infill
G1 X105.459 Y118.736 Z0.320 E0.05903 ; infill
G1 X104.856 Y118.736 Z0.320 E0.01285 ; infill
G1 X103.498 Y117.379 Z0.320 E0.04086 ; infill
G1 X103.498 Y117.982 Z0.320 E0.01285 ; infill
G1 X104.252 Y118.736 Z0.320 E0.02269 ; infill
G1 X103.649 Y118.736 Z0.320 E0.01285 ; infill
G1 X103.498 Y118.585 Z0.320 E0.00452 ; infill
G1 Z0.440 F7800.000 ; move to next layer (2)
G1 X103.149 Y101.123 Z0.440 F7800.000 ; move to first perimeter point
G1 F4800
G1 X116.851 Y101.123 Z0.440 E0.29000 ; perimeter
G1 X116.851 Y118.877 Z0.440 E0.37578 ; perimeter
G1 X103.149 Y118.877 Z0.440 E0.29000 ; perimeter
G1 X103.149 Y101.183 Z0.440 E0.37451 ; perimeter
G1 X102.725 Y100.699 Z0.440 F7800.000 ; move to first perimeter point
G1 F2400
G1 X117.275 Y100.699 Z0.440 E0.30796 ; perimeter
G1 X117.275 Y119.301 Z0.440 E0.39374 ; perimeter
G1 X102.725 Y119.301 Z0.440 E0.30796 ; perimeter
G1 X102.725 Y100.759 Z0.440 E0.39247 ; perimeter
G1 X103.107 Y100.818 F7800.000 ; move inwards before travel
G1 X103.499 Y101.622 Z0.440 F7800.000 ; move to first infill point
G1 F1800
G1 X103.498 Y101.622 Z0.440 E0.00000 ; infill
G1 X103.498 Y101.622 Z0.440 E0.00000 ; infill
G1 X103.498 Y101.622 Z0.440 E0.00000 ; infill
G1 X103.649 Y101.472 Z0.440 E0.00455 ; infill
G1 X104.256 Y101.472 Z0.440 E0.01301 ; infill
G1 X103.498 Y102.230 Z0.440 E0.02295 ; infill
G1 X103.498 Y102.837 Z0.440 E0.01301 ; infill
G1 X104.863 Y101.472 Z0.440 E0.04135 ; infill
G1 X105.471 Y101.472 Z0.440 E0.01301 ; infill
G1 X103.498 Y103.444 Z0.440 E0.05975 ; infill
G1 X103.498 Y104.052 Z0.440 E0.01301 ; infill
G1 X106.078 Y101.472 Z0.440 E0.07815 ; infill
G1 X106.685 Y101.472 Z0.440 E0.01301 ; infill
G1 X103.498 Y104.659 Z0.440 E0.09655 ; infill
G1 X103.498 Y105.266 Z0.440 E0.01301 ; infill
G1 X107.293 Y101.472 Z0.440 E0.11496 ; infill
G1 X107.900 Y101.472 Z0.440 E0.01301 ; infill
G1 X103.498 Y105.874 Z0.440 E0.13336 ; infill
G1 X103.498 Y106.481 Z0.440 E0.01301 ; infill
G1 X108.507 Y101.472 Z0.440 E0.15176 ; infill
G1 X109.114 Y101.472 Z0.440 E0.01301 ; infill
G1 X103.498 Y107.088 Z0.440 E0.17016 ; infill
G1 X103.498 Y107.695 Z0.440 E0.01301 ; infill
G1 X109.722 Y101.472 Z0.440 E0.18856 ; infill
G1 X110.329 Y101.472 Z0.440 E0.01301 ; infill
G1 X103.498 Y108.303 Z0.440 E0.20696 ; infill
G1 X103.498 Y108.910 Z0.440 E0.01301 ; infill
G1 X110.936 Y101.472 Z0.440 E0.22536 ; infill
G1 X111.544 Y101.472 Z0.440 E0.01301 ; infill
G1 X103.498 Y109.517 Z0.440 E0.24376 ; infill
G1 X103.498 Y110.125 Z0.440 E0.01301 ; infill
G1 X112.151 Y101.472 Z0.440 E0.26216 ; infill
G1 X112.758 Y101.472 Z0.440 E0.01301 ; infill
G1 X103.498 Y110.732 Z0.440 E0.28057 ; infill
G1 X103.498 Y111.339 Z0.440 E0.01301 ; infill
G1 X113.366 Y101.472 Z0.440 E0.29897 ; infill
G1 X113.973 Y101.472 Z0.440 E0.01301 ; infill
G1 X103.498 Y111.947 Z0.440 E0.31737 ; infill
G1 X103.498 Y112.554 Z0.440 E0.01301 ; infill
G1 X114.580 Y101.472 Z0.440 E0.33577 ; infill
G1 X115.188 Y101.472 Z0.440 E0.01301 ; infill
G1 X103.498 Y113.161 Z0.440 E0.35417 ; infill
G1 X103.498 Y113.769 Z0.440 E0.01301 ; infill
G1 X115.795 Y101.472 Z0.440 E0.37257 ; infill
G1 X116.402 Y101.472 Z0.440 E0.01301 ; infill
G1 X103.498 Y114.376 Z0.440 E0.39097 ; infill
G1 X103.498 Y114.983 Z0.440 E0.01301 ; infill
G1 X116.502 Y101.980 Z0.440 E0.39398 ; infill
G1 X116.502 Y102.588 Z0.440 E0.01301 ; infill
G1 X103.498 Y115.591 Z0.440 E0.39398 ; infill
G1 X103.498 Y116.198 Z0.440 E0.01301 ; infill
G1 X116.502 Y103.195 Z0.440 E0.39398 ; infill
G1 X116.502 Y103.802 Z0.440 E0.01301 ; infill
