; generated by Slic3r 1.3.0-dev on 2020-10-12 at 13:47:22

; external perimeters extrusion width = 0.45mm (2.04mm^3/s)
; perimeters extrusion width = 0.45mm (4.07mm^3/s)
; infill extrusion width = 0.45mm (4.07mm^3/s)
; solid infill extrusion width = 0.45mm (1.53mm^3/s)
; top infill extrusion width = 0.40mm (0.90mm^3/s)

M109 S200 ;Heat nozzle to 200C
M190 S70 ;Heat nozzle to 70C
G28 ;Home all axes
M117 ; Purge extruder
G92 E0 ;Reset extruder
G1 Z2.0 F3000 ;Move Z Axis up
G1 X0.1 Y20 Z0.3 F5000.0 ; Move to start position
G1 X0.1 Y200.0 Z0.3 F1500.0 E15 ; Draw the first line
G1 X0.4 Y200.0 Z0.3 F5000.0 ; Move to side a little
G1 X0.4 Y20 Z0.3 F1500.0 E30 ; Draw the second line
G92 E0 ;Reset extruder
G1 Z1.0 F3000 ;Move z up little to prevent scratching of surface
; Filament gcode

G21 ; set units to millimeters
G90 ; use absolute coordinates
M83 ; use relative distances for extrusion
G1 Z0.200 F7800.000 ; move to next layer (0)
G1 E-5.00000 F2400.00000 ; retract extruder 0
G1 X105.587 Y100.368 Z0.200 F7800.000 ; move to first perimeter point
G1 E5.00000 F2400.00000 ; unretract extruder 0
G1 F2400
G1 X114.413 Y100.368 Z0.200 E0.27673 ; perimeter
G1 X114.413 Y119.632 Z0.200 E0.60401 ; perimeter
G1 X105.587 Y119.632 Z0.200 E0.27673 ; perimeter
G1 X105.587 Y100.428 Z0.200 E0.60213 ; perimeter
G1 X105.210 Y99.991 Z0.200 F7800.000 ; move to first perimeter point
G1 F2400
G1 X114.790 Y99.991 Z0.200 E0.30037 ; perimeter
G1 X114.790 Y120.009 Z0.200 E0.62766 ; perimeter
G1 X105.210 Y120.009 Z0.200 E0.30037 ; perimeter
G1 X105.210 Y100.051 Z0.200 E0.62578 ; perimeter
G1 X105.582 Y100.137 F7800.000 ; move inwards before travel
G1 X105.898 Y100.812 Z0.200 F7800.000 ; move to first infill point
G1 F2400
G1 X105.897 Y100.812 Z0.200 E0.00001 ; infill
G1 X105.897 Y100.812 Z0.200 E0.00000 ; infill
G1 X105.897 Y100.812 Z0.200 E0.00001 ; infill
G1 X106.031 Y100.678 Z0.200 E0.00602 ; infill
G1 X106.573 Y100.678 Z0.200 E0.01730 ; infill
G1 X105.897 Y101.354 Z0.200 E0.03049 ; infill
G1 X105.897 Y101.897 Z0.200 E0.01730 ; infill
G1 X107.116 Y100.678 Z0.200 E0.05496 ; infill
G1 X107.658 Y100.678 Z0.200 E0.01730 ; infill
G1 X105.897 Y102.439 Z0.200 E0.07943 ; infill
G1 X105.897 Y102.982 Z0.200 E0.01730 ; infill
G1 X108.201 Y100.678 Z0.200 E0.10390 ; infill
G1 X108.743 Y100.678 Z0.200 E0.01730 ; infill
G1 X105.897 Y103.524 Z0.200 E0.12837 ; infill
G1 X105.897 Y104.067 Z0.200 E0.01730 ; infill
G1 X109.286 Y100.678 Z0.200 E0.15284 ; infill
G1 X109.828 Y100.678 Z0.200 E0.01730 ; infill
G1 X105.897 Y104.609 Z0.200 E0.17731 ; infill
G1 X105.897 Y105.152 Z0.200 E0.01730 ; infill
G1 X110.371 Y100.678 Z0.200 E0.20178 ; infill
G1 X110.913 Y100.678 Z0.200 E0.01730 ; infill
G1 X105.897 Y105.694 Z0.200 E0.22625 ; infill
G1 X105.897 Y106.237 Z0.200 E0.01730 ; infill
G1 X111.456 Y100.678 Z0.200 E0.25072 ; infill
G1 X111.998 Y100.678 Z0.200 E0.01730 ; infill
G1 X105.897 Y106.779 Z0.200 E0.27519 ; infill
G1 X105.897 Y107.322 Z0.200 E0.01730 ; infill
G1 X112.541 Y100.678 Z0.200 E0.29966 ; infill
G1 X113.083 Y100.678 Z0.200 E0.01730 ; infill
G1 X105.897 Y107.864 Z0.200 E0.32413 ; infill
G1 X105.897 Y108.407 Z0.200 E0.01730 ; infill
G1 X113.626 Y100.678 Z0.200 E0.34860 ; infill
G1 X114.103 Y100.678 Z0.200 E0.01521 ; infill
G1 X114.103 Y100.678 Z0.200 E0.00000 ; infill
G1 X114.103 Y100.744 Z0.200 E0.00209 ; infill
G1 X105.897 Y108.949 Z0.200 E0.37011 ; infill
G1 X105.897 Y109.492 Z0.200 E0.01730 ; infill
G1 X114.103 Y101.286 Z0.200 E0.37011 ; infill
G1 X114.103 Y101.829 Z0.200 E0.01730 ; infill
G1 X105.897 Y110.034 Z0.200 E0.37011 ; infill
G1 X105.897 Y110.576 Z0.200 E0.01730 ; infill
G1 X114.103 Y102.371 Z0.200 E0.37011 ; infill
G1 X114.103 Y102.914 Z0.200 E0.01730 ; infill
G1 X105.897 Y111.119 Z0.200 E0.37011 ; infill
G1 X105.897 Y111.661 Z0.200 E0.01730 ; infill
G1 X114.103 Y103.456 Z0.200 E0.37011 ; infill
G1 X114.103 Y103.999 Z0.200 E0.01730 ; infill
G1 X105.897 Y112.204 Z0.200 E0.37011 ; infill
G1 X105.897 Y112.746 Z0.200 E0.01730 ; infill
G1 X114.103 Y104.541 Z0.200 E0.37011 ; infill
G1 X114.103 Y105.084 Z0.200 E0.01730 ; infill
G1 X105.897 Y113.289 Z0.200 E0.37011 ; infill
G1 X105.897 Y113.831 Z0.200 E0.01730 ; infill
G1 X114.103 Y105.626 Z0.200 E0.37011 ; infill
G1 X114.103 Y106.169 Z0.200 E0.01730 ; infill
G1 X105.897 Y114.374 Z0.200 E0.37011 ; infill
G1 X105.897 Y114.916 Z0.200 E0.01730 ; infill
G1 X114.103 Y106.711 Z0.200 E0.37011 ; infill
G1 X114.103 Y107.254 Z0.200 E0.01730 ; infill
G1 X105.897 Y115.459 Z0.200 E0.37011 ; infill
G1 X105.897 Y116.001 Z0.200 E0.01730 ; infill
G1 X114.103 Y107.796 Z0.200 E0.37011 ; infill
G1 X114.103 Y108.339 Z0.200 E0.01730 ; infill
G1 X105.897 Y116.544 Z0.200 E0.37011 ; infill
G1 X105.897 Y117.086 Z0.200 E0.01730 ; infill
G1 X114.103 Y108.881 Z0.200 E0.37011 ; infill
G1 X114.103 Y109.424 Z0.200 E0.01730 ; infill
G1 X105.897 Y117.629 Z0.200 E0.37011 ; infill
G1 X105.897 Y118.171 Z0.200 E0.01730 ; infill
G1 X114.103 Y109.966 Z0.200 E0.37011 ; infill
G1 X114.103 Y110.509 Z0.200 E0.01730 ; infill
G1 X105.897 Y118.714 Z0.200 E0.37011 ; infill
G1 X105.897 Y119.256 Z0.200 E0.01730 ; infill
G1 X114.103 Y111.051 Z0.200 E0.37011 ; infill
G1 X114.103 Y111.593 Z0.200 E0.01730 ; infill
G1 X106.374 Y119.322 Z0.200 E0.34859 ; infill
G1 X106.917 Y119.322 Z0.200 E0.01730 ; infill
G1 X114.103 Y112.136 Z0.200 E0.32412 ; infill
G1 X114.103 Y112.678 Z0.200 E0.01730 ; infill
G1 X107.459 Y119.322 Z0.200 E0.29965 ; infill
G1 X108.002 Y119.322 Z0.200 E0.01730 ; infill
G1 X114.103 Y113.221 Z0.200 E0.27519 ; infill
G1 X114.103 Y113.763 Z0.200 E0.01730 ; infill
G1 X108.544 Y119.322 Z0.200 E0.25072 ; infill
G1 X109.087 Y119.322 Z0.200 E0.01730 ; infill
G1 X114.103 Y114.306 Z0.200 E0.22625 ; infill
G1 X114.103 Y114.848 Z0.200 E0.01730 ; infill
G1 X109.629 Y119.322 Z0.200 E0.20178 ; infill
G1 X110.172 Y119.322 Z0.200 E0.01730 ; infill
G1 X114.103 Y115.391 Z0.200 E0.17731 ; infill
G1 X114.103 Y115.933 Z0.200 E0.01730 ; infill
G1 X110.714 Y119.322 Z0.200 E0.15284 ; infill
G1 X111.257 Y119.322 Z0.200 E0.01730 ; infill
G1 X114.103 Y116.476 Z0.200 E0.12837 ; infill
G1 X114.103 Y117.018 Z0.200 E0.01730 ; infill
G1 X111.799 Y119.322 Z0.200 E0.10390 ; infill
G1 X112.342 Y119.322 Z0.200 E0.01730 ; infill
G1 X114.103 Y117.561 Z0.200 E0.07943 ; infill
G1 X114.103 Y118.103 Z0.200 E0.01730 ; infill
G1 X112.884 Y119.322 Z0.200 E0.05496 ; infill
G1 X113.427 Y119.322 Z0.200 E0.01730 ; infill
G1 X114.103 Y118.646 Z0.200 E0.03049 ; infill
G1 X114.103 Y119.188 Z0.200 E0.01730 ; infill
G1 X113.969 Y119.322 Z0.200 E0.00602 ; infill
M106 S178.5 ; enable fan
G1 Z0.320 F7800.000 ; move to next layer (1)
G1 X105.649 Y100.915 Z0.320 F7800.000 ; move to first perimeter point
G1 F4800
G1 X114.351 Y100.915 Z0.320 E0.18417 ; perimeter
G1 X114.351 Y119.085 Z0.320 E0.38458 ; perimeter
G1 X105.649 Y119.085 Z0.320 E0.18417 ; perimeter
G1 X105.649 Y100.975 Z0.320 E0.38331 ; perimeter
G1 X105.225 Y100.491 Z0.320 F7800.000 ; move to first perimeter point
G1 F2400
G1 X114.775 Y100.491 Z0.320 E0.20213 ; perimeter
G1 X114.775 Y119.509 Z0.320 E0.40254 ; perimeter
G1 X105.225 Y119.509 Z0.320 E0.20213 ; perimeter
G1 X105.225 Y100.551 Z0.320 E0.40127 ; perimeter
G1 X105.598 Y100.635 F7800.000 ; move inwards before travel
G1 X114.002 Y101.414 Z0.320 F7800.000 ; move to first infill point
G1 F1800
G1 X113.851 Y101.264 Z0.320 E0.00460 ; infill
G1 X113.237 Y101.264 Z0.320 E0.01330 ; infill
G1 X114.002 Y102.028 Z0.320 E0.02341 ; infill
G1 X114.002 Y102.642 Z0.320 E0.01330 ; infill
G1 X112.623 Y101.264 Z0.320 E0.04222 ; infill
G1 X112.009 Y101.264 Z0.320 E0.01330 ; infill
G1 X114.002 Y103.256 Z0.320 E0.06102 ; infill
G1 X114.002 Y103.870 Z0.320 E0.01330 ; infill
G1 X111.395 Y101.264 Z0.320 E0.07983 ; infill
G1 X110.781 Y101.264 Z0.320 E0.01330 ; infill
G1 X114.002 Y104.484 Z0.320 E0.09864 ; infill
G1 X114.002 Y105.098 Z0.320 E0.01330 ; infill
G1 X110.167 Y101.264 Z0.320 E0.11745 ; infill
G1 X109.553 Y101.264 Z0.320 E0.01330 ; infill
G1 X114.002 Y105.712 Z0.320 E0.13626 ; infill
G1 X114.002 Y106.326 Z0.320 E0.01330 ; infill
G1 X108.939 Y101.264 Z0.320 E0.15507 ; infill
G1 X108.325 Y101.264 Z0.320 E0.01330 ; infill
G1 X114.002 Y106.940 Z0.320 E0.17388 ; infill
G1 X114.002 Y107.554 Z0.320 E0.01330 ; infill
G1 X107.711 Y101.264 Z0.320 E0.19268 ; infill
G1 X107.097 Y101.264 Z0.320 E0.01330 ; infill
G1 X114.002 Y108.168 Z0.320 E0.21149 ; infill
G1 X114.002 Y108.782 Z0.320 E0.01330 ; infill
G1 X106.483 Y101.264 Z0.320 E0.23030 ; infill
G1 X105.998 Y101.264 Z0.320 E0.01050 ; infill
G1 X105.998 Y101.264 Z0.320 E0.00000 ; infill
G1 X105.998 Y101.393 Z0.320 E0.00280 ; infill
G1 X114.002 Y109.397 Z0.320 E0.24516 ; infill
G1 X114.002 Y110.011 Z0.320 E0.01330 ; infill
G1 X105.998 Y102.007 Z0.320 E0.24516 ; infill
G1 X105.998 Y102.621 Z0.320 E0.01330 ; infill
G1 X114.002 Y110.625 Z0.320 E0.24516 ; infill
G1 X114.002 Y111.239 Z0.320 E0.01330 ; infill
G1 X105.998 Y103.235 Z0.320 E0.24516 ; infill
G1 X105.998 Y103.849 Z0.320 E0.01330 ; infill
G1 X114.002 Y111.853 Z0.320 E0.24516 ; infill
G1 X114.002 Y112.467 Z0.320 E0.01330 ; infill
G1 X105.998 Y104.463 Z0.320 E0.24516 ; infill
G1 X105.998 Y105.077 Z0.320 E0.01330 ; infill
G1 X114.002 Y113.081 Z0.320 E0.24516 ; infill
G1 X114.002 Y113.695 Z0.320 E0.01330 ; infill
G1 X105.998 Y105.691 Z0.320 E0.24516 ; infill
G1 X105.998 Y106.305 Z0.320 E0.01330 ; infill
G1 X114.002 Y114.309 Z0.320 E0.24516 ; infill
G1 X114.002 Y114.923 Z0.320 E0.01330 ; infill
G1 X105.998 Y106.919 Z0.320 E0.24516 ; infill
G1 X105.998 Y107.533 Z0.320 E0.01330 ; infill
G1 X114.002 Y115.537 Z0.320 E0.24516 ; infill
G1 X114.002 Y116.151 Z0.320 E0.01330 ; infill
G1 X105.998 Y108.147 Z0.320 E0.24516 ; infill
G1 X105.998 Y108.761 Z0.320 E0.01330 ; infill
G1 X114.002 Y116.765 Z0.320 E0.24516 ; infill
G1 X114.002 Y117.379 Z0.320 E0.01330 ; infill
G1 X105.998 Y109.375 Z0.320 E0.24516 ; infill
G1 X105.998 Y109.989 Z0.320 E0.01330 ; infill
G1 X114.002 Y117.993 Z0.320 E0.24516 ; infill
G1 X114.002 Y118.607 Z0.320 E0.01330 ; infill
G1 X105.998 Y110.603 Z0.320 E0.24516 ; infill
G1 X105.998 Y111.217 Z0.320 E0.01330 ; infill
G1 X113.517 Y118.736 Z0.320 E0.23030 ; infill
G1 X112.903 Y118.736 Z0.320 E0.01330 ; infill
G1 X105.998 Y111.831 Z0.320 E0.21149 ; infill
G1 X105.998 Y112.445 Z0.320 E0.01330 ; infill
G1 X112.289 Y118.736 Z0.320 E0.19269 ; infill
G1 X111.675 Y118.736 Z0.320 E0.01330 ; infill
G1 X105.998 Y113.059 Z0.320 E0.17388 ; infill
G1 X105.998 Y113.673 Z0.320 E0.01330 ; infill
G1 X111.061 Y118.736 Z0.320 E0.15507 ; infill
G1 X110.447 Y118.736 Z0.320 E0.01330 ; infill
G1 X105.998 Y114.287 Z0.320 E0.13626 ; infill
G1 X105.998 Y114.901 Z0.320 E0.01330 ; infill
G1 X109.833 Y118.736 Z0.320 E0.11745 ; infill
G1 X109.219 Y118.736 Z0.320 E0.01330 ; infill
G1 X105.998 Y115.515 Z0.320 E0.09864 ; infill
G1 X105.998 Y116.129 Z0.320 E0.01330 ; infill
G1 X108.605 Y118.736 Z0.320 E0.07983 ; infill
G1 X107.991 Y118.736 Z0.320 E0.01330 ; infill
G1 X105.998 Y116.743 Z0.320 E0.06103 ; infill
G1 X105.998 Y117.357 Z0.320 E0.01330 ; infill
G1 X107.377 Y118.736 Z0.320 E0.04222 ; infill
G1 X106.763 Y118.736 Z0.320 E0.01330 ; infill
G1 X105.998 Y117.971 Z0.320 E0.02341 ; infill
G1 X105.998 Y118.585 Z0.320 E0.01330 ; infill
G1 X106.149 Y118.736 Z0.320 E0.00460 ; infill
G1 X106.148 Y118.736 Z0.320 E0.00000 ; infill
G1 X106.148 Y118.736 Z0.320 E0.00000 ; infill
G1 X106.148 Y118.735 Z0.320 E0.00000 ; infill
G1 Z0.440 F7800.000 ; move to next layer (2)
G1 X105.649 Y101.123 Z0.440 F7800.000 ; move to first perimeter point
G1 F4800
G1 X114.351 Y101.123 Z0.440 E0.18417 ; perimeter
G1 X114.351 Y118.877 Z0.440 E0.37578 ; perimeter
G1 X105.649 Y118.877 Z0.440 E0.18417 ; perimeter
G1 X105.649 Y101.183 Z0.440 E0.37451 ; perimeter
G1 X105.225 Y100.699 Z0.440 F7800.000 ; move to first perimeter point
G1 F2400
G1 X114.775 Y100.699 Z0.440 E0.20213 ; perimeter
G1 X114.775 Y119.301 Z0.440 E0.39374 ; perimeter
G1 X105.225 Y119.301 Z0.440 E0.20213 ; perimeter
G1 X105.225 Y100.759 Z0.440 E0.39247 ; perimeter
G1 X105.599 Y100.842 F7800.000 ; move inwards before travel
G1 X105.999 Y101.622 Z0.440 F7800.000 ; move to first infill point
G1 F1800
G1 X105.998 Y101.622 Z0.440 E0.00000 ; infill
G1 X105.998 Y101.622 Z0.440 E0.00000 ; infill
G1 X105.998 Y101.622 Z0.440 E0.00000 ; infill
G1 X106.149 Y101.472 Z0.440 E0.00452 ; infill
G1 X106.752 Y101.472 Z0.440 E0.01286 ; infill
G1 X105.998 Y102.226 Z0.440 E0.02272 ; infill
G1 X105.998 Y102.830 Z0.440 E0.01286 ; infill
G1 X107.356 Y101.472 Z0.440 E0.04091 ; infill
G1 X107.960 Y101.472 Z0.440 E0.01286 ; infill
G1 X105.998 Y103.434 Z0.440 E0.05910 ; infill
G1 X105.998 Y104.038 Z0.440 E0.01286 ; infill
G1 X108.564 Y101.472 Z0.440 E0.07729 ; infill
G1 X109.168 Y101.472 Z0.440 E0.01286 ; infill
G1 X105.998 Y104.642 Z0.440 E0.09549 ; infill
G1 X105.998 Y105.246 Z0.440 E0.01286 ; infill
G1 X109.772 Y101.472 Z0.440 E0.11368 ; infill
G1 X110.376 Y101.472 Z0.440 E0.01286 ; infill
G1 X105.998 Y105.849 Z0.440 E0.13187 ; infill
G1 X105.998 Y106.453 Z0.440 E0.01286 ; infill
G1 X110.980 Y101.472 Z0.440 E0.15006 ; infill
G1 X111.583 Y101.472 Z0.440 E0.01286 ; infill
G1 X105.998 Y107.057 Z0.440 E0.16826 ; infill
G1 X105.998 Y107.661 Z0.440 E0.01286 ; infill
G1 X112.187 Y101.472 Z0.440 E0.18645 ; infill
G1 X112.791 Y101.472 Z0.440 E0.01286 ; infill
G1 X105.998 Y108.265 Z0.440 E0.20464 ; infill
G1 X105.998 Y108.869 Z0.440 E0.01286 ; infill
G1 X113.395 Y101.472 Z0.440 E0.22283 ; infill
G1 X113.999 Y101.472 Z0.440 E0.01286 ; infill
G1 X105.998 Y109.473 Z0.440 E0.24103 ; infill
G1 X105.998 Y110.076 Z0.440 E0.01286 ; infill
G1 X114.002 Y102.073 Z0.440 E0.24111 ; infill
G1 X114.002 Y102.677 Z0.440 E0.01286 ; infill
G1 X105.998 Y110.680 Z0.440 E0.24111 ; infill
G1 X105.998 Y111.284 Z0.440 E0.01286 ; infill
G1 X114.002 Y103.281 Z0.440 E0.24111 ; infill
G1 X114.002 Y103.885 Z0.440 E0.01286 ; infill
G1 X105.998 Y111.888 Z0.440 E0.24111 ; infill
G1 X105.998 Y112.492 Z0.440 E0.01286 ; infill
G1 X114.002 Y104.489 Z0.440 E0.24111 ; infill
G1 X114.002 Y105.093 Z0.440 E0.01286 ; infill
G1 X105.998 Y113.096 Z0.440 E0.24111 ; infill
G1 X105.998 Y113.700 Z0.440 E0.01286 ; infill
G1 X114.002 Y105.697 Z0.440 E0.24111 ; infill
G1 X114.002 Y106.300 Z0.440 E0.01286 ; infill
G1 X105.998 Y114.303 Z0.440 E0.24111 ; infill
G1 X105.998 Y114.907 Z0.440 E0.01286 ; infill
G1 X114.002 Y106.904 Z0.440 E0.24111 ; infill
G1 X114.002 Y107.508 Z0.440 E0.01286 ; infill
G1 X105.998 Y115.511 Z0.440 E0.24111 ; infill
G1 X105.998 Y116.115 Z0.440 E0.01286 ; infill
G1 X114.002 Y108.112 Z0.440 E0.24111 ; infill
G1 X114.002 Y108.716 Z0.440 E0.01286 ; infill
G1 X105.998 Y116.719 Z0.440 E0.24111 ; infill
G1 X105.998 Y117.323 Z0.440 E0.01286 ; infill
G1 X114.002 Y109.320 Z0.440 E0.24111 ; infill
G1 X114.002 Y109.924 Z0.440 E0.01286 ; infill
G1 X105.998 Y117.927 Z0.440 E0.24111 ; infill
G1 X105.998 Y118.528 Z0.440 E0.01281 ; infill
G1 X105.998 Y118.528 Z0.440 E0.00000 ; infill
G1 X106.001 Y118.528 Z0.440 E0.00006 ; infill
G1 X114.002 Y110.527 Z0.440 E0.24103 ; infill
G1 X114.002 Y111.131 Z0.440 E0.01286 ; infill
G1 X106.605 Y118.528 Z0.440 E0.22283 ; infill
G1 X107.209 Y118.528 Z0.440 E0.01286 ; infill
G1 X114.002 Y111.735 Z0.440 E0.20464 ; infill
G1 X114.002 Y112.339 Z0.440 E0.01286 ; infill
G1 X107.813 Y118.528 Z0.440 E0.18645 ; infill
G1 X108.417 Y118.528 Z0.440 E0.01286 ; infill
G1 X114.002 Y112.943 Z0.440 E0.16826 ; infill
G1 X114.002 Y113.547 Z0.440 E0.01286 ; infill
G1 X109.020 Y118.528 Z0.440 E0.15006 ; infill
G1 X109.624 Y118.528 Z0.440 E0.01286 ; infill
G1 X114.002 Y114.151 Z0.440 E0.13187 ; infill
G1 X114.002 Y114.754 Z0.440 E0.01286 ; infill
G1 X110.228 Y118.528 Z0.440 E0.11368 ; infill
G1 X110.832 Y118.528 Z0.440 E0.01286 ; infill
G1 X114.002 Y115.358 Z0.440 E0.09549 ; infill
G1 X114.002 Y115.962 Z0.440 E0.01286 ; infill
G1 X111.436 Y118.528 Z0.440 E0.07729 ; infill
G1 X112.040 Y118.528 Z0.440 E0.01286 ; infill
G1 X114.002 Y116.566 Z0.440 E0.05910 ; infill
G1 X114.002 Y117.170 Z0.440 E0.01286 ; infill
G1 X112.644 Y118.528 Z0.440 E0.04091 ; infill
G1 X113.248 Y118.528 Z0.440 E0.01286 ; infill
G1 X114.002 Y117.774 Z0.440 E0.02272 ; infill
